/* XPM */
static char *quarlcoin256[] = {
"256 256 3263 2",
"aa c None",
"ab c #FFFF00",
"ac c #FFAA00",
"ad c #FFBF3F",
"ae c #BFBF3F",
"af c #FFDF3F",
"ag c #ECD12D",
"ah c #FAD72D",
"ai c #F1D02B",
"aj c #F7D72C",
"ak c #F0D02A",
"al c #F3D12C",
"am c #F4D32B",
"an c #F4D02B",
"ao c #F0CE2A",
"ap c #F0CF2A",
"aq c #F1D02A",
"ar c #F2D02B",
"as c #F0CE29",
"at c #EECD29",
"au c #EECE29",
"av c #EECD29",
"aw c #EECC29",
"ax c #F0CD29",
"ay c #EFCE2B",
"az c #F0D02A",
"aA c #EECE29",
"aB c #EDCC2A",
"aC c #F0CE2B",
"aD c #F4D22B",
"aE c #F1CE2A",
"aF c #F0CE2A",
"aG c #F5D22C",
"aH c #EECD2B",
"aI c #FAD22C",
"aJ c #FFC61C",
"aK c #000000",
"aL c #FFFF55",
"aM c #FFE12D",
"aN c #F9D92A",
"aO c #F8D42A",
"aP c #F2D12B",
"aQ c #F3D32B",
"aR c #F1D02B",
"aS c #F3D22B",
"aT c #F0CF2A",
"aU c #F1D12B",
"aV c #F6D42C",
"aW c #FAD82D",
"aX c #FCD92D",
"aY c #F9D62D",
"aZ c #F7D52C",
"a0 c #F5D22C",
"a1 c #F3D12B",
"a2 c #F1CF2B",
"a3 c #F0CE2A",
"a4 c #EFCE2A",
"a5 c #F1CE2A",
"a6 c #F2CF2B",
"a7 c #F5D32B",
"a8 c #F7D42C",
"a9 c #F8D62C",
"a# c #F9D72C",
"a. c #FAD62C",
"a+ c #F8D52C",
"a@ c #F4D12B",
"a* c #EFCE2A",
"a= c #EDCB29",
"a- c #EFCD2A",
"a; c #EFCC28",
"a: c #F2D029",
"a> c #F0CD29",
"a, c #F3CF2A",
"a< c #F4D029",
"a1 c #FFD42A",
"a2 c #7F7F00",
"a3 c #FADB2C",
"a4 c #F7D82D",
"a5 c #F5D42B",
"a6 c #F2D12A",
"a7 c #F3D12B",
"a8 c #F4D32C",
"a9 c #FFDC2E",
"a0 c #FFDE2E",
"ba c #FFDD2E",
"bb c #F3D12C",
"bc c #F0CE2B",
"bd c #EECD2B",
"be c #EECD2B",
"bf c #EECE2B",
"bg c #EECE2A",
"bh c #EECE2B",
"bi c #EFCD2B",
"bj c #EFCD2B",
"bk c #EFCD2A",
"bl c #EECD2A",
"bm c #EDCC2A",
"bn c #EDCB2A",
"bo c #EDCC2A",
"bp c #ECCB2A",
"bq c #ECCC2A",
"br c #ECCC29",
"bs c #ECCA2A",
"bt c #EECB2A",
"bu c #F1CE2B",
"bv c #FCD92C",
"bw c #FEDA2C",
"bx c #FBD72C",
"by c #EECC29",
"bz c #EFCD29",
"bA c #F2D029",
"bB c #F3D22A",
"bC c #F6D32B",
"bD c #FFD628",
"bE c #FF7F00",
"bF c #FFAA55",
"bG c #FFDA2D",
"bH c #F5D529",
"bI c #F5D42C",
"bJ c #F4D32B",
"bK c #F3D22B",
"bL c #F0CF2B",
"bM c #EFCE2A",
"bN c #EFCF2A",
"bO c #F0CF2A",
"bP c #F0CF2B",
"bQ c #EFCF2B",
"bR c #EFCE2B",
"bS c #EFCE2B",
"bT c #EECC2A",
"bU c #EDCC2A",
"bV c #EDCB2A",
"bW c #ECCB2A",
"bX c #EDCB2A",
"bY c #EDCB2A",
"bZ c #EBCA29",
"b0 c #EBCB29",
"b1 c #EBCA28",
"b2 c #EBCA29",
"b3 c #F0CD2A",
"b4 c #F6D22B",
"b5 c #FCD82C",
"b6 c #F3D02A",
"b7 c #EDCD29",
"b8 c #EDCB2A",
"b9 c #F0CD2A",
"b# c #EFCF28",
"b. c #F6CC2A",
"b+ c #FFDA36",
"b@ c #FBD82E",
"b* c #F7D62C",
"b= c #F4D42A",
"b- c #F3D12B",
"b; c #FCDA2D",
"b: c #ECCB2A",
"b> c #ECCB29",
"b, c #EBCA29",
"b< c #EBC929",
"b1 c #ECCA28",
"b2 c #EBCA28",
"b3 c #EAC929",
"b4 c #F6D32B",
"b5 c #F7D42B",
"b6 c #EECB29",
"b7 c #EFCC29",
"b8 c #F1CD2B",
"b9 c #F7D229",
"b0 c #FFDD33",
"ca c #FFFF00",
"cb c #FFDD2A",
"cc c #F6D62A",
"cd c #F7D72C",
"ce c #F4D52B",
"cf c #FFDF2E",
"cg c #F3D22B",
"ch c #EFCF2A",
"ci c #F0D02A",
"cj c #F0D02A",
"ck c #EFCF2B",
"cl c #F0D02B",
"cm c #ECCA29",
"cn c #EBC929",
"co c #EACA28",
"cp c #EAC929",
"cq c #EDCB29",
"cr c #F5D22B",
"cs c #F0CD2A",
"ct c #EFCD2A",
"cu c #F4CF2A",
"cv c #EFCF27",
"cw c #FFD72F",
"cx c #FAD92D",
"cy c #F7D72C",
"cz c #F5D32C",
"cA c #F6D42D",
"cB c #F0D02B",
"cC c #F1D02B",
"cD c #F0CF2B",
"cE c #F1D02B",
"cF c #EBC929",
"cG c #EAC928",
"cH c #EAC829",
"cI c #F9D52B",
"cJ c #EECB28",
"cK c #F1CE29",
"cL c #F2D029",
"cM c #FFD826",
"cN c #FFDA30",
"cO c #F9D82E",
"cP c #F7D72D",
"cQ c #F5D32D",
"cR c #FFDE2F",
"cS c #FDDB2E",
"cT c #F3D22C",
"cU c #F0CF2C",
"cV c #F1D02C",
"cW c #EBC929",
"cX c #EAC829",
"cY c #EAC828",
"cZ c #E9C828",
"c0 c #F6D22A",
"c1 c #FAD52A",
"c2 c #EECA28",
"c3 c #F0CD28",
"c4 c #F1CF27",
"c5 c #FFDC2E",
"c6 c #FBDB2F",
"c7 c #FAD72D",
"c8 c #F5D42C",
"c9 c #FFDD2F",
"c# c #FEDB2E",
"c. c #EFCF2B",
"c+ c #F0D02B",
"c@ c #E9C829",
"c* c #E8C727",
"c= c #EBC928",
"c- c #EECB29",
"c; c #F0CD29",
"c: c #F3D229",
"c> c #FFE033",
"c, c #FAD82D",
"c< c #F7D72D",
"c1 c #F9D82D",
"c2 c #F5D42D",
"c3 c #F0D02C",
"c4 c #F1D12C",
"c5 c #EAC929",
"c6 c #EAC829",
"c7 c #E9C728",
"c8 c #E9C727",
"c9 c #F8D32B",
"c0 c #F2CF29",
"da c #F0CC28",
"db c #F1CE2A",
"dc c #F5CF2F",
"dd c #FFDB2D",
"de c #F9D92D",
"df c #F7D62D",
"dg c #FFDF2F",
"dh c #FAD92E",
"di c #EFCF2C",
"dj c #EFD02B",
"dk c #F2D12C",
"dl c #EAC828",
"dm c #E7C528",
"dn c #EECC28",
"do c #F0CD29",
"dp c #F5CE2B",
"dq c #FF0000",
"dr c #FBDB2E",
"ds c #F9D82D",
"dt c #F5D52C",
"du c #F1D02C",
"dv c #E8C628",
"dw c #E7C627",
"dx c #ECC928",
"dy c #F8D42B",
"dz c #EDCA29",
"dA c #EFCC2A",
"dB c #F4CE29",
"dC c #FBDD2D",
"dD c #F9D82C",
"dE c #FCDA2E",
"dF c #F1D02C",
"dG c #E9C728",
"dH c #E8C628",
"dI c #E8C628",
"dJ c #F5D02A",
"dK c #F3CF2A",
"dL c #F0CD29",
"dM c #F3CD28",
"dN c #FFFF00",
"dO c #7FFF00",
"dP c #F9DB2E",
"dQ c #F9D82D",
"dR c #FDDA2E",
"dS c #F2D22C",
"dT c #E8C628",
"dU c #E7C528",
"dV c #F2CF2A",
"dW c #EECD29",
"dX c #F0CF2A",
"dY c #FFDC2C",
"dZ c #FBDA2D",
"d0 c #FCD92E",
"d1 c #F0CF2B",
"d2 c #F0D02C",
"d3 c #E7C527",
"d4 c #F0CE29",
"d5 c #F6D229",
"d6 c #F1CD28",
"d7 c #F6CF2A",
"d8 c #FBDC2E",
"d9 c #FAD92D",
"d# c #E9C628",
"d. c #F1CD28",
"d+ c #F5D029",
"d@ c #F0CC27",
"d* c #F0CE28",
"d= c #FFDB2F",
"d- c #FADA2D",
"d; c #FAD92D",
"d: c #E7C527",
"d> c #E6C427",
"d, c #F2CE29",
"d< c #F0CC27",
"d1 c #EECE25",
"d2 c #F0D22D",
"d3 c #FBD92D",
"d4 c #F9D82C",
"d5 c #F1D12C",
"d6 c #F3D22D",
"d7 c #E8C627",
"d8 c #E7C427",
"d9 c #F4D029",
"d0 c #EECB28",
"ea c #F2CD28",
"eb c #F1C928",
"ec c #F9D82F",
"ed c #FAD82E",
"ee c #FFE02F",
"ef c #F3D32D",
"eg c #E8C527",
"eh c #E6C426",
"ei c #E7C527",
"ej c #F7D32A",
"ek c #EFCA27",
"el c #F1CC27",
"em c #BFBF00",
"en c None",
"eo c #F9D529",
"ep c #F9D82D",
"eq c #F8D62D",
"er c #F1D12C",
"es c #E6C527",
"et c #E6C526",
"eu c #EFCB28",
"ev c #EEC726",
"ew c #FADA2D",
"ex c #F9D82D",
"ey c #F1D12C",
"ez c #E6C527",
"eA c #E5C326",
"eB c #F4CF29",
"eC c #EDCA28",
"eD c #EECD29",
"eE c #CCCC33",
"eF c #F9D62D",
"eG c #F9D82D",
"eH c #F4D32D",
"eI c #E6C326",
"eJ c #EECA28",
"eK c #ECCB2A",
"eL c None",
"eM c #F9D82D",
"eN c #F4D42D",
"eO c #E6C327",
"eP c #E5C326",
"eQ c #F0CD29",
"eR c #EECA27",
"eS c #F0CB27",
"eT c #F7DB2A",
"eU c #F9D82D",
"eV c #F1D12B",
"eW c #E7C427",
"eX c #E5C427",
"eY c #E6C427",
"eZ c #F7D12A",
"e0 c #EECA28",
"e1 c #EBC526",
"e2 c #F9D72D",
"e3 c #FAD92D",
"e4 c #E5C327",
"e5 c #F2CD28",
"e6 c #EECA27",
"e7 c #ECC928",
"e8 c #DFBF1F",
"e9 c #F9D92E",
"e# c #F0D12B",
"e. c #E5C226",
"e+ c #E9C526",
"e@ c #F4CF28",
"e* c #ECCA27",
"e= c #E5CC33",
"e- c #F2D22C",
"e; c #E5C226",
"e: c #F6D129",
"e> c #EDCA27",
"e, c #EDC929",
"e< c #F8D62C",
"e1 c #F9D92D",
"e2 c #F0D12B",
"e3 c #F5D52D",
"e4 c #E6C327",
"e5 c #E6C326",
"e6 c #E4C225",
"e7 c #EFCC28",
"e8 c #EEC927",
"e9 c #EDC626",
"e0 c #F8D82C",
"fa c #FCDB2E",
"fb c #E4C226",
"fc c #E8C526",
"fd c #F1CC28",
"fe c #EDCA27",
"ff c #E2C61C",
"fg c #F7D72E",
"fh c #F5D52E",
"fi c #E3C226",
"fj c #F6D029",
"fk c #EDC928",
"fl c #E7D02E",
"fm c #EDD32B",
"fn c #FBD92D",
"fo c #F1D22C",
"fp c #E5C326",
"fq c #E5C226",
"fr c #E4C125",
"fs c #F5CF28",
"ft c #EDC826",
"fu c #E7C727",
"fv c #F4D42A",
"fw c #FADA2D",
"fx c #ECC927",
"fy c #E7C125",
"fz c #F4D32B",
"fA c #FAD92D",
"fB c #F6D62E",
"fC c #E3C125",
"fD c #EBC827",
"fE c #ECC826",
"fF c #EAC525",
"fG c #F6D82B",
"fH c #F9D92D",
"fI c #F6D52D",
"fJ c #E3C126",
"fK c #EDC827",
"fL c #E9C625",
"fM c #F5D32B",
"fN c #FBDA2E",
"fO c #F3D22C",
"fP c #F0CB28",
"fQ c #E8C326",
"fR c #F6D32B",
"fS c #F2D12C",
"fT c #E2C026",
"fU c #F3CD28",
"fV c #EAC625",
"fW c #F4D52D",
"fX c #F2D12C",
"fY c #E4C226",
"fZ c #E3C026",
"f0 c #E4C126",
"f1 c #F4CF27",
"f2 c #EBC525",
"f3 c #F6D52D",
"f4 c #F3D22C",
"f5 c #F6D72E",
"f6 c #E4C126",
"f7 c #E9C424",
"f8 c #F6D52D",
"f9 c #F2D22B",
"f# c #F7D72E",
"f. c #E3C126",
"f+ c #E4C124",
"f@ c #F4CE27",
"f* c #E9C425",
"f= c #F1D32D",
"f- c #F3D22B",
"f; c #E3C025",
"f: c #F3CD27",
"f> c #E6C225",
"f, c #FFFF3F",
"f< c #F5D52C",
"f1 c #F2D22C",
"f2 c #E2C025",
"f3 c #E3C125",
"f4 c #F2CC28",
"f5 c #E3C124",
"f6 c #F0D32B",
"f7 c #F4D32C",
"f8 c #E4C125",
"f9 c #E2BF25",
"f0 c #E4C125",
"ga c #EFCA27",
"gb c #E6C323",
"gc c #F3D22C",
"gd c #F4D42C",
"ge c #F7D72F",
"gf c #F7D82F",
"gg c #E3C025",
"gh c #E5C125",
"gi c #ECC826",
"gj c #E7C125",
"gk c #F4D32B",
"gl c #F8D82D",
"gm c #E2BF25",
"gn c #E6C326",
"go c #EBC526",
"gp c #E2C026",
"gq c #F5D92F",
"gr c #F9D92D",
"gs c #F9D92D",
"gt c #F8D82F",
"gu c #E1BF25",
"gv c #EAC526",
"gw c #E9C526",
"gx c #E7BF27",
"gy c #FFE238",
"gz c #F6D62C",
"gA c #FEDC2E",
"gB c #F1D02B",
"gC c #E1BE24",
"gD c #EEC927",
"gE c #E7C325",
"gF c #E9BF2A",
"gG c #F4D42C",
"gH c #E1BD24",
"gI c #F1CC27",
"gJ c #E7C226",
"gK c #F2D22C",
"gL c #E3BF25",
"gM c #F3CE28",
"gN c #E5C124",
"gO c #F2D12D",
"gP c #F2D22C",
"gQ c #F8D92F",
"gR c #E2BF25",
"gS c #E3C025",
"gT c #E4C023",
"gU c #F8D530",
"gV c #F7D62C",
"gW c #F4D42D",
"gX c #EFD02C",
"gY c #E1BE25",
"gZ c #E6C226",
"g0 c #E9C525",
"g1 c #E6C224",
"g2 c #F5D42D",
"g3 c #E1BE25",
"g4 c #ECC627",
"g5 c #E6C224",
"g6 c #FFCC33",
"g7 c #F3D22C",
"g8 c #EFCF2B",
"g9 c #F9D92F",
"g# c #F2CB27",
"g. c #E5C123",
"g+ c #F6D32B",
"g@ c #FEDD2F",
"g* c #F5D62E",
"g= c #F4D42E",
"g- c #E2BE25",
"g; c #E2BD24",
"g: c #F0CB26",
"g> c #E4C122",
"g, c #F5D42D",
"g< c #F6D62F",
"g1 c #F5D62F",
"g2 c #F6D72F",
"g3 c #F8D82E",
"g4 c #F9D92E",
"g5 c #FADA2F",
"g6 c #FBDB2F",
"g7 c #FBDC2F",
"g8 c #F6D62D",
"g9 c #F2D22D",
"g0 c #E1BD24",
"ha c #E4C124",
"hb c #E8C324",
"hc c #EAC722",
"hd c #F4D22C",
"he c #FEDC2F",
"hf c #F9DA2F",
"hg c #FCDC30",
"hh c #FEDE30",
"hi c #FFDF31",
"hj c #FFE031",
"hk c #FDDE31",
"hl c #FADC30",
"hm c #EFCE2C",
"hn c #EACA2B",
"ho c #E7C62A",
"hp c #E4C32A",
"hq c #E1C129",
"hr c #DFBE29",
"hs c #E1C029",
"ht c #E3C32A",
"hu c #E6C52A",
"hv c #E9C92B",
"hw c #EECD2C",
"hx c #F2D12D",
"hy c #FADA2E",
"hz c #F1D12D",
"hA c #E0BD23",
"hB c #EDC826",
"hC c #E4C124",
"hD c #F2D12B",
"hE c #F0CF2B",
"hF c #F8D72F",
"hG c #FCDD30",
"hH c #E8C82B",
"hI c #DBBA28",
"hJ c #CDAB25",
"hK c #C09E21",
"hL c #B4911E",
"hM c #AA871C",
"hN c #A27F1A",
"hO c #9C7918",
"hP c #977417",
"hQ c #947017",
"hR c #926E16",
"hS c #916D16",
"hT c #8F6A15",
"hU c #8E6A15",
"hV c #8E6B15",
"hW c #906C16",
"hX c #926D16",
"hY c #977318",
"hZ c #9B7819",
"h0 c #A17E1A",
"h1 c #A9861C",
"h2 c #B3901E",
"h3 c #BE9C21",
"h4 c #CBAA24",
"h5 c #D9B827",
"h6 c #F8D72E",
"h7 c #FBDA2F",
"h8 c #E1BE24",
"h9 c #DFBD23",
"h# c #F2CC26",
"h. c #E4BF24",
"h+ c #F9D82C",
"h@ c #F8D72D",
"h* c #F3D32C",
"h= c #D3B326",
"h- c #AB891C",
"h; c #9D7919",
"h: c #936E16",
"h> c #8E6915",
"h, c #8C6714",
"h< c #8B6614",
"h1 c #8D6915",
"h2 c #906B15",
"h3 c #916C16",
"h4 c #8E6B16",
"h5 c #8D6A15",
"h6 c #8C6815",
"h7 c #8B6715",
"h8 c #8A6514",
"h9 c #896414",
"h0 c #896514",
"ia c #9A7718",
"ib c #A9861B",
"ic c #BC9A20",
"id c #D1B025",
"ie c #E4C42A",
"if c #FAD92F",
"ig c #F0D02C",
"ih c #E2BE24",
"ii c #E0BE24",
"ij c #E3C024",
"ik c #E9C425",
"il c #E6BF22",
"im c #F3D32B",
"in c #F0CF2C",
"io c #F9DA30",
"ip c #FFE231",
"iq c #FDDE30",
"ir c #EECE2D",
"is c #D4B426",
"it c #B8961F",
"iu c #A17E19",
"iv c #936F16",
"iw c #8C6814",
"ix c #916B15",
"iy c #946F16",
"iz c #947016",
"iA c #906D16",
"iB c #8F6C15",
"iC c #8C6914",
"iD c #8A6714",
"iE c #886413",
"iF c #896513",
"iG c #906C15",
"iH c #9F7C19",
"iI c #B6941E",
"iJ c #D1AF24",
"iK c #EAC82A",
"iL c #F7D72D",
"iM c #E0BE24",
"iN c #EBC525",
"iO c #E5C123",
"iP c #FFD42A",
"iQ c #AAAA00",
"iR c #FFE02E",
"iS c #EFCE2B",
"iT c #FADA30",
"iU c #F9D930",
"iV c #F7D830",
"iW c #FADB30",
"iX c #FFE131",
"iY c #FEDF31",
"iZ c #EDCE2C",
"i0 c #CEAD25",
"i1 c #AE8B1D",
"i2 c #977217",
"i3 c #947116",
"i4 c #957116",
"i5 c #906D15",
"i6 c #916D15",
"i7 c #8F6B15",
"i8 c #8B6714",
"i9 c #926F16",
"i# c #AA871B",
"i. c #CAA923",
"i+ c #E8C82A",
"i@ c #EFCF2C",
"i* c #E0BB23",
"i= c #F1CB27",
"i- c #E2BE24",
"i; c #F1D62E",
"i: c #F6D62B",
"i> c #F8D830",
"i, c #FCDC31",
"i< c #FFE232",
"i1 c #D8B828",
"i2 c #B28F1E",
"i3 c #8D6715",
"i4 c #8F6915",
"i5 c #886514",
"i6 c #876413",
"i7 c #AE8B1C",
"i8 c #D4B225",
"i9 c #F2D02C",
"i0 c #F8D92E",
"ja c #F3D32C",
"jb c #F0CF2C",
"jc c #E0BD24",
"jd c #E3BF24",
"je c #E7C325",
"jf c #E7C323",
"jg c #F1D12A",
"jh c #FCDD31",
"ji c #F1D12E",
"jj c #C9A724",
"jk c #A07D1A",
"jl c #936E17",
"jm c #957117",
"jn c #C4A322",
"jo c #EBCA2B",
"jp c #E1BD24",
"jq c #E0BC24",
"jr c #ECC726",
"js c #E1BE24",
"jt c #F3D32B",
"ju c #FEDD2E",
"jv c #EFCF2A",
"jw c #F8D930",
"jx c #FBDC30",
"jy c #FFE332",
"jz c #F0D12E",
"jA c #C2A122",
"jB c #997518",
"jC c #8C6715",
"jD c #957017",
"jE c #946F17",
"jF c #8A6614",
"jG c #866213",
"jH c #947117",
"jI c #BE9C20",
"jJ c #EAC92B",
"jK c #F2D12B",
"jL c #EECE2B",
"jM c #E0BC23",
"jN c #EFC926",
"jO c #E4BF25",
"jP c #F3D22C",
"jQ c #F6D52C",
"jR c #F0D02B",
"jS c #F5D72F",
"jT c #C6A423",
"jU c #997418",
"jV c #967117",
"jW c #8B6813",
"jX c #8B6814",
"jY c #8D6914",
"jZ c #8F6B16",
"j0 c #8B6815",
"j1 c #856213",
"j2 c #937016",
"j3 c #C19F21",
"j4 c #E0BD24",
"j5 c #E4C125",
"j6 c #E4C024",
"j7 c #E4BB28",
"j8 c #F3D22B",
"j9 c #FDDF31",
"j# c #FEE031",
"j. c #D4B427",
"j+ c #9D7A19",
"j@ c #936F17",
"j* c #8E6A14",
"j= c #9D771B",
"j- c #AC8421",
"j; c #B99026",
"j: c #C1972A",
"j> c #C59A2C",
"j, c #C69B2C",
"j< c #C59B2C",
"j1 c #C49A2C",
"j2 c #C2982B",
"j3 c #C0962A",
"j4 c #BD9328",
"j5 c #B78E26",
"j6 c #AE8622",
"j7 c #A27B1D",
"j8 c #957018",
"j9 c #8A6813",
"j0 c #8D6B14",
"ka c #8D6B15",
"kb c #997517",
"kc c #CFAE24",
"kd c #F5D52C",
"ke c #EECD2B",
"kf c #E0BD24",
"kg c #DFBC23",
"kh c #F0CA27",
"ki c #E1BD24",
"kj c #F1D12D",
"kk c #F5D42C",
"kl c #F2D12B",
"km c #EBCC2D",
"kn c #AE8C1E",
"ko c #967217",
"kp c #916E16",
"kq c #8D6A14",
"kr c #A37D1E",
"ks c #BD9429",
"kt c #CDA230",
"ku c #CBA12F",
"kv c #BC942B",
"kw c #A78223",
"kx c #94731D",
"ky c #846618",
"kz c #7A5D14",
"kA c #735812",
"kB c #715512",
"kC c #755913",
"kD c #7B5F15",
"kE c #876819",
"kF c #95741D",
"kG c #A58123",
"kH c #B28B26",
"kI c #B48C25",
"kJ c #A8811F",
"kK c #8B6713",
"kL c #896614",
"kM c #866313",
"kN c #A9871C",
"kO c #E4C329",
"kP c #F7D62D",
"kQ c #E1BD24",
"kR c #E7C224",
"kS c #E7C528",
"kT c #F0CF2A",
"kU c #CEAE26",
"kV c #8E6B14",
"kW c #AD8622",
"kX c #CDA12F",
"kY c #CFA431",
"kZ c #B08A26",
"k0 c #876818",
"k1 c #674E0E",
"k2 c #563F08",
"k3 c #4E3906",
"k4 c #4C3706",
"k5 c #4C3806",
"k6 c #4D3806",
"k7 c #4D3907",
"k8 c #4D3807",
"k9 c #4B3706",
"k# c #4B3606",
"k. c #4A3605",
"k+ c #4D3906",
"k@ c #58410A",
"k* c #6C5210",
"k= c #8A6A1A",
"k- c #A58021",
"k; c #A98320",
"k: c #987318",
"k> c #8C6915",
"k, c #8F6C16",
"k< c #C9A823",
"k1 c #DFBC24",
"k2 c #EDC726",
"k3 c #E2BD23",
"k4 c #F6D12D",
"k5 c #F9D72D",
"k6 c #FFE032",
"k7 c #F4D62F",
"k8 c #B2901E",
"k9 c #8D6815",
"k0 c #A57F1F",
"la c #CEA230",
"lb c #CEA431",
"lc c #9C7A1F",
"ld c #694F0E",
"le c #513B07",
"lf c #513B08",
"lg c #533D09",
"lh c #523C09",
"li c #503B09",
"lj c #503C09",
"lk c #4F3B09",
"ll c #503B08",
"lm c #6F5411",
"ln c #95731C",
"lo c #A27C1D",
"lp c #AE8C1C",
"lq c #EDCC2B",
"lr c #E0BC24",
"ls c #E1C024",
"lt c #F1D12C",
"lu c #FBD92D",
"lv c #E5C62B",
"lw c #9F7B1A",
"lx c #D7AB34",
"ly c #A68223",
"lz c #654C0D",
"lA c #513C08",
"lB c #543E09",
"lC c #523D09",
"lD c #4F3B08",
"lE c #4D3908",
"lF c #4A3608",
"lG c #443106",
"lH c #3D2B05",
"lI c #392804",
"lJ c #382704",
"lK c #3A2905",
"lL c #3B2A05",
"lM c #3D2C05",
"lN c #3C2B05",
"lO c #3B2905",
"lP c #402E06",
"lQ c #433005",
"lR c #94721B",
"lS c #987418",
"lT c #997617",
"lU c #DFBE27",
"lV c #EAC426",
"lW c #E0BE23",
"lX c #AAAA55",
"lY c #F5D42D",
"lZ c #FDDB2D",
"l0 c #D7B627",
"l1 c #8F6B14",
"l2 c #9B751A",
"l3 c #CCA12F",
"l4 c #CBA130",
"l5 c #7D5F15",
"l6 c #503A06",
"l7 c #523C08",
"l8 c #553F09",
"l9 c #4E3A08",
"l# c #4C3808",
"l. c #4A3708",
"l+ c #3F2D06",
"l@ c #382604",
"l* c #3E2D06",
"l= c #54420B",
"l- c #725D12",
"l; c #8E7718",
"l: c #A68D1D",
"l> c #B69D20",
"l, c #C2A623",
"l< c #C7AB24",
"l1 c #C6AB24",
"l2 c #B69C21",
"l3 c #A78E1D",
"l4 c #907918",
"l5 c #746012",
"l6 c #59450C",
"l7 c #443207",
"l8 c #372603",
"l9 c #453106",
"l0 c #775A13",
"ma c #DFBB24",
"mb c #EDC725",
"mc c #E4BD23",
"md c #F1CF2B",
"me c #FAD72D",
"mf c #CBAA25",
"mg c #9F791C",
"mh c #D4A732",
"mi c #BB932A",
"mj c #644B0C",
"mk c #4F3906",
"ml c #56400A",
"mm c #483608",
"mn c #624F0E",
"mo c #9B851B",
"mp c #CFB427",
"mq c #F0D12D",
"mr c #FFE432",
"ms c #FFE331",
"mt c #FFE230",
"mu c #FFE130",
"mv c #FFE030",
"mw c #D2B526",
"mx c #A38A1C",
"my c #6A550F",
"mz c #3E2C05",
"mA c #523C0A",
"mB c #8A6915",
"mC c #C5A422",
"mD c #EECC2B",
"mE c #DFBB24",
"mF c #E7C325",
"mG c #E0BC22",
"mH c #D4D42A",
"mI c #F5D42A",
"mJ c #C4A223",
"mK c #9D781B",
"mL c #D5A833",
"mM c #B38C27",
"mN c #5A4209",
"mO c #4B3708",
"mP c #3D2C06",
"mQ c #786413",
"mR c #C9AF25",
"mS c #F4D52E",
"mT c #F4D52D",
"mU c #F3D42D",
"mV c #FDDC30",
"mW c #D0B426",
"mX c #806B14",
"mY c #775710",
"mZ c #956F16",
"m0 c #846112",
"m1 c #DEBB23",
"m2 c #E3BC24",
"m3 c #FAD72D",
"m4 c #C29F22",
"m5 c #987319",
"m6 c #D1A632",
"m7 c #B58E28",
"m8 c #584109",
"m9 c #533D08",
"m# c #4F3A08",
"m. c #4B3808",
"m+ c #473407",
"m@ c #362504",
"m* c #685410",
"m= c #CCB326",
"m- c #F3D32E",
"m; c #FDDC2F",
"m: c #D4B726",
"m> c #7A6313",
"m, c #755610",
"m< c #836012",
"m1 c #BD9B20",
"m2 c #DEBB23",
"m3 c #E7C224",
"m4 c #DFBB23",
"m5 c #F2D32B",
"m6 c #C4A222",
"m7 c #C99E2E",
"m8 c #C1982C",
"m9 c #5D450A",
"m0 c #412F06",
"na c #3F2E06",
"nb c #A18B1C",
"nc c #FBDE30",
"nd c #B79C20",
"ne c #8A6815",
"nf c #836113",
"ng c #F5D42B",
"nh c #DFBC23",
"ni c #DEBA22",
"nj c #E5BF22",
"nk c #F0CF2B",
"nl c #FAD82D",
"nm c #CBA925",
"nn c #957217",
"no c #B78F27",
"np c #D0A531",
"nq c #6B500E",
"nr c #4E3B09",
"ns c #FFE732",
"nt c #DDBD28",
"nu c #8A6814",
"nv c #8B6914",
"nw c #846113",
"nx c #BC9B20",
"ny c #F4D32B",
"nz c #DFBC24",
"nA c #DFBB23",
"nB c #E8C325",
"nC c #E0BC22",
"nD c #D7B628",
"nE c #A17C1D",
"nF c #D8AC34",
"nG c #866718",
"nH c #4C3708",
"nI c #56440C",
"nJ c #E1C72B",
"nK c #FFE531",
"nL c #F6D52E",
"nM c #FDDD2F",
"nN c #C7A623",
"nO c #8E6C15",
"nP c #856214",
"nQ c #B79720",
"nR c #DFBB23",
"nS c #DDBA23",
"nT c #EAC525",
"nU c #E3C125",
"nV c #F0CF2B",
"nW c #E6C62B",
"nX c #CCA02F",
"nY c #AE8926",
"nZ c #523C07",
"n0 c #54410B",
"n1 c #E5CB2B",
"n2 c #A7841B",
"n3 c #886414",
"n4 c #866315",
"n5 c #AE901E",
"n6 c #DFBB23",
"n7 c #F9D22C",
"n8 c #F5D42C",
"n9 c #EECE2B",
"n# c #FBDD31",
"n. c #9F7B19",
"n+ c #694E0E",
"n@ c #4E3908",
"n* c #433106",
"n= c #DCC12A",
"n- c #E2C029",
"n; c #856316",
"n: c #A78B1C",
"n> c #F7D52B",
"n, c #EBCA2A",
"n< c #DFBB23",
"n1 c #E5C024",
"n2 c #E2C021",
"n3 c #F3D02B",
"n4 c #EECE2A",
"n5 c #FEE032",
"n6 c #B3911F",
"n7 c #D1A531",
"n8 c #9A771E",
"n9 c #483507",
"n0 c #C2A824",
"oa c #FFE633",
"ob c #FCDB2F",
"oc c #B6951F",
"od c #7D5E15",
"oe c #A88D1B",
"of c #DFBA23",
"og c #E0BC23",
"oh c #F3D02E",
"oi c #F2D02A",
"oj c #D0AF26",
"ok c #AE8722",
"ol c #CCA130",
"om c #61480B",
"on c #947D19",
"oo c #FFE733",
"op c #F7D62E",
"oq c #E8C72A",
"or c #866513",
"os c #977218",
"ot c #6E5312",
"ou c #B69A1E",
"ov c #E9C829",
"ow c #DEBB23",
"ox c #E0BD23",
"oy c #E1BC23",
"oz c #EBC427",
"oA c #F5D22C",
"oB c #EDCD2A",
"oC c #ECCD2D",
"oD c #CEA330",
"oE c #3E2D05",
"oF c #5E4B0D",
"oG c #F7DA30",
"oH c #B6941F",
"oI c #896714",
"oJ c #886613",
"oK c #98741B",
"oL c #5F480D",
"oM c #D0B224",
"oN c #F5D32C",
"oO c #DEBA23",
"oP c #EEC725",
"oQ c #E5BE22",
"oR c #F0D02A",
"oS c #F9D830",
"oT c #B08E1E",
"oU c #A67F1F",
"oV c #674D0D",
"oW c #493608",
"oX c #C8AE25",
"oY c #FFE433",
"oZ c #E2C129",
"o0 c #876513",
"o1 c #8A6919",
"o2 c #5F4B0C",
"o3 c #EAC92A",
"o4 c #E5C124",
"o5 c #E0BC22",
"o6 c #D4AA2A",
"o7 c #EDCC2B",
"o8 c #FFE132",
"o9 c #D7B728",
"o# c #C3992B",
"o. c #AA8524",
"o+ c #3A2804",
"o@ c #7B6614",
"o* c #FFE533",
"o= c #A8861B",
"o- c #866314",
"o; c #846212",
"o: c #A07A1C",
"o> c #674D10",
"o, c #7D6612",
"o< c #DEBB23",
"o1 c #DCB923",
"o2 c #E8C224",
"o3 c #E5C024",
"o4 c #F3D12B",
"o5 c #977319",
"o6 c #D2A632",
"o7 c #4F3907",
"o8 c #402F07",
"o9 c #D8BC29",
"o0 c #FEE232",
"pa c #CFAE25",
"pb c #A07C1F",
"pc c #463207",
"pd c #B0941D",
"pe c #E9C929",
"pf c #DEB923",
"pg c #ECC625",
"ph c #E1BC23",
"pi c #F0D42A",
"pj c #F0CF2A",
"pk c #C39A2D",
"pl c #4C3908",
"pm c #7D6815",
"pn c #EDCD2C",
"po c #937116",
"pp c #9C771B",
"pq c #7E6016",
"pr c #4B3807",
"ps c #DFBF27",
"pt c #F0CF2A",
"pu c #DDB923",
"pv c #E1BC24",
"pw c #E0BC23",
"px c #DDBC21",
"py c #F3D22C",
"pz c #FDDA2D",
"pA c #F3D42F",
"pB c #9C7919",
"pC c #9F7C21",
"pD c #533E09",
"pE c #CEB427",
"pF c #AF8D1D",
"pG c #886614",
"pH c #A68120",
"pI c #4B3608",
"pJ c #7C6512",
"pK c #F6D42B",
"pL c #DEBA23",
"pM c #DDB922",
"pN c #EDC625",
"pO c #E0BD23",
"pP c #F0CF2A",
"pQ c #FCD82C",
"pR c #EECD2B",
"pS c #C9A825",
"pT c #967118",
"pU c #D0A431",
"pV c #795C14",
"pW c #4F3A07",
"pX c #513C09",
"pY c #695610",
"pZ c #FCE031",
"p0 c #D0AE25",
"p1 c #836212",
"p2 c #9D781C",
"p3 c #856718",
"p4 c #3B2903",
"p5 c #BEA120",
"p6 c #DDBA23",
"p7 c #E9C325",
"p8 c #DFBB23",
"p9 c #F6D32B",
"p# c #F1CF2A",
"p. c #FADB2F",
"p+ c #926C16",
"p@ c #A7801F",
"p* c #C69C2E",
"p= c #372604",
"p- c #AE961F",
"p; c #E9C82B",
"p: c #A68121",
"p> c #4E3808",
"p, c #624D0D",
"p< c #DEBA23",
"p1 c #E1BB24",
"p2 c #E8C325",
"p3 c #F2D22A",
"p4 c #FEDB2D",
"p5 c #D2B126",
"p6 c #BB9228",
"p7 c #AC8725",
"p8 c #4F3A06",
"p9 c #4A3909",
"p0 c #E8CB2C",
"qa c #A4821A",
"qb c #826112",
"qc c #A47E1F",
"qd c #7E6116",
"qe c #382703",
"qf c #AA8E1C",
"qg c #F8D52B",
"qh c #E9C828",
"qi c #DDB923",
"qj c #E1BC22",
"qk c #F1CF2A",
"ql c #FBD82C",
"qm c #AA861C",
"qn c #8F6A16",
"qo c #8D6D1A",
"qp c #4D3A08",
"qq c #796513",
"qr c #BD9B1F",
"qs c #916D17",
"qt c #A27D21",
"qu c #483406",
"qv c #5B460B",
"qw c #E8C728",
"qx c #E8C225",
"qy c #E0BC22",
"qz c #FFD727",
"qA c #F0CF29",
"qB c #705511",
"qC c #B39B21",
"qD c #F9D82E",
"qE c #D5B425",
"qF c #AC8523",
"qG c #3A2803",
"qH c #A78C1B",
"qI c #E8C729",
"qJ c #E0BB22",
"qK c #DFBF27",
"qL c #F1D02B",
"qM c #C09D21",
"qN c #A47E1E",
"qO c #C49B2D",
"qP c #5C440A",
"qQ c #473608",
"qR c #E3C62B",
"qS c #826111",
"qT c #9F7A1C",
"qU c #90701B",
"qV c #422E04",
"qW c #604B0D",
"qX c #DCB822",
"qY c #ECC524",
"qZ c #E3BD23",
"q0 c #F2CF2A",
"q1 c #FDDA2D",
"q2 c #EECD29",
"q3 c #A07C1A",
"q4 c #916C17",
"q5 c #B38B24",
"q6 c #B28C28",
"q7 c #FAD930",
"q8 c #9C7B18",
"q9 c #866413",
"q# c #A98423",
"q. c #564009",
"q+ c #3F2D05",
"q@ c #B5991E",
"q* c #DDB923",
"q= c #DCB922",
"q- c #EAC424",
"q; c #E0BA22",
"q: c #EBD727",
"q> c #EFCD2A",
"q, c #EECD2A",
"q< c #FEDF30",
"q1 c #906A16",
"q2 c #9C7A20",
"q3 c #967F1A",
"q4 c #AE8D1D",
"q5 c #AF8823",
"q6 c #3F2C04",
"q7 c #725C10",
"q8 c #E9C729",
"q9 c #DCB822",
"q0 c #E1BC22",
"ra c #DEB921",
"rb c #E1C31E",
"rc c #F7D32B",
"rd c #C09E22",
"re c #C99D2D",
"rf c #C1A020",
"rg c #835F12",
"rh c #816011",
"ri c #A37E1E",
"rj c #8F6E1C",
"rk c #483405",
"rl c #473508",
"rm c #D0B124",
"rn c #F1CF2A",
"ro c #DDB922",
"rp c #DBB822",
"rq c #E7C223",
"rr c #DFBC22",
"rs c #F1D02A",
"rt c #FFDB2D",
"ru c #EDCD29",
"rv c #A5811A",
"rw c #CAA02F",
"rx c #715611",
"ry c #4E3907",
"rz c #483708",
"rA c #E5C72C",
"rB c #D2B125",
"rC c #846312",
"rD c #A88323",
"rE c #967D18",
"rF c #DCB821",
"rG c #ECC525",
"rH c #E0BB22",
"rI c #FFBF00",
"rJ c #EFCE2A",
"rK c #F9D52C",
"rL c #EECD2A",
"rM c #E8C92B",
"rN c #9B761A",
"rO c #C79D2E",
"rP c #62490C",
"rQ c #624E0E",
"rR c #FBDB31",
"rS c #E0C028",
"rT c #866412",
"rU c #B38C26",
"rV c #634B0D",
"rW c #614C0D",
"rX c #DCB922",
"rY c #E6C023",
"rZ c #DFBA22",
"r0 c #F5D727",
"r1 c #EECD29",
"r2 c #D1B126",
"r3 c #A57E1E",
"r4 c #BE962B",
"r5 c #584009",
"r6 c #3A2904",
"r7 c #826C15",
"r8 c #F6D82F",
"r9 c #F4D42C",
"r# c #EBCB2B",
"r. c #916E15",
"r+ c #815F10",
"r@ c #B08823",
"r* c #4A3506",
"r= c #C9AA22",
"r- c #F3D02B",
"r; c #DDB922",
"r: c #DEBA22",
"r> c #DEB922",
"r, c #DEBD20",
"r< c #F5D02B",
"r1 c #ECCB29",
"r2 c #B9971F",
"r3 c #AE8623",
"r4 c #B28C27",
"r5 c #A38B1D",
"r6 c #FFE632",
"r7 c #9B7818",
"r8 c #815F11",
"r9 c #3E2C06",
"r0 c #977E18",
"sa c #E7C628",
"sb c #E9C224",
"sc c #E1BA21",
"sd c #F1D02B",
"se c #FEDA2D",
"sf c #EDCC29",
"sg c #A5821A",
"sh c #8A6713",
"si c #A48122",
"sj c #3A2A05",
"sk c #C2A723",
"sl c #FFE431",
"sm c #F7D82E",
"sn c #A6831B",
"so c #967119",
"sp c #AA8424",
"sq c #513C07",
"sr c #443107",
"ss c #69530F",
"st c #DCB722",
"su c #EBC524",
"sv c #DFBB21",
"sw c #F0CF2A",
"sx c #F9D62C",
"sy c #EECE2C",
"sz c #977317",
"sA c #BE9429",
"sB c #97751E",
"sC c #493507",
"sD c #433107",
"sE c #DBBF28",
"sF c #B18F1D",
"sG c #826012",
"sH c #856313",
"sI c #B58E27",
"sJ c #5B440A",
"sK c #4B3707",
"sL c #4A3808",
"sM c #D7B925",
"sN c #EFCC29",
"sO c #DBB722",
"sP c #E6C024",
"sQ c #DEB922",
"sR c #FFD22D",
"sS c #EECD2A",
"sT c #FDDD30",
"sU c #8A6A19",
"sV c #453207",
"sW c #513F0A",
"sX c #EED02D",
"sY c #BB9A1F",
"sZ c #815F12",
"s0 c #836112",
"s1 c #B89028",
"s2 c #6B5110",
"s3 c #B4981E",
"s4 c #DCB722",
"s5 c #DFBA22",
"s6 c #DEB822",
"s7 c #E7C522",
"s8 c #F1CE2B",
"s9 c #957016",
"s# c #C69C2D",
"s. c #7E6015",
"s+ c #63500E",
"s@ c #805E10",
"s* c #8C7416",
"s= c #DCB822",
"s- c #DAB722",
"s; c #E5BF23",
"s: c #DFBC23",
"s> c #F0CF2A",
"s, c #FDD92D",
"s< c #ECCC29",
"s1 c #C79D2D",
"s2 c #745812",
"s3 c #776213",
"s4 c #CEAD24",
"s5 c #836013",
"s6 c #7F5E10",
"s7 c #AD8522",
"s8 c #90701C",
"s9 c #6A540F",
"s0 c #EFCD29",
"ta c #DBB721",
"tb c #DFBA21",
"tc c #F0CE2A",
"td c #AF8C1D",
"te c #8B7417",
"tf c #FFE532",
"tg c #F8D72D",
"th c #D6B426",
"ti c #805F11",
"tj c #A07D21",
"tk c #513E0A",
"tl c #DFBF26",
"tm c #ECCA28",
"tn c #EAC324",
"to c #DEB922",
"tp c #EFCD2B",
"tq c #ECCA2A",
"tr c #A4811A",
"ts c #957218",
"tt c #C59B2D",
"tu c #654B0D",
"tv c #9F861C",
"tw c #DCBB27",
"tx c #9B761B",
"ty c #423007",
"tz c #DDB822",
"tA c #E4BF23",
"tB c #DEBA22",
"tC c #FFDF2F",
"tD c #EDCC2A",
"tE c #9C7718",
"tF c #997419",
"tG c #C3992C",
"tH c #5F460C",
"tI c #AF9720",
"tJ c #E1C028",
"tK c #937018",
"tL c #553E09",
"tM c #AF931D",
"tN c #F5D22A",
"tO c #E7C528",
"tP c #DBB722",
"tQ c #DEB722",
"tR c #E6C224",
"tS c #EFCF25",
"tT c #F0CE2A",
"tU c #ECCB2B",
"tV c #9C761A",
"tW c #C0972B",
"tX c #5B430A",
"tY c #C0A523",
"tZ c #E5C529",
"t0 c #8D6A16",
"t1 c #BA9229",
"t2 c #5B440B",
"t3 c #3C2A05",
"t4 c #947B17",
"t5 c #F6D32A",
"t6 c #E2BC23",
"t7 c #DDBC21",
"t8 c #EFCE2A",
"t9 c #ECCA2A",
"t# c #9F791B",
"t. c #BC942A",
"t+ c #CEB226",
"t@ c #866514",
"t* c #846313",
"t= c #BD952A",
"t- c #634A0D",
"t; c #F4D22A",
"t: c #DBB722",
"t> c #E0BB21",
"t, c #ECCB29",
"t< c #FCDC2F",
"t1 c #A17B1D",
"t2 c #553F08",
"t3 c #423107",
"t4 c #D7BB28",
"t5 c #906F16",
"t6 c #866414",
"t7 c #856413",
"t8 c #BE952A",
"t9 c #6A500F",
"t0 c #433006",
"ua c #68530E",
"ub c #DBB621",
"uc c #DFBA23",
"ud c #A47D1E",
"ue c #B78F29",
"uf c #E1C32A",
"ug c #FEDD30",
"uh c #937117",
"ui c #715612",
"uj c #463307",
"uk c #59450B",
"ul c #E9C324",
"um c #DEB923",
"un c #EDCB29",
"uo c #EBCB29",
"up c #A57F1E",
"uq c #B48D28",
"ur c #4D3A09",
"us c #E9CA2C",
"ut c #FCDB30",
"uu c #957317",
"uv c #775B13",
"uw c #DDBC25",
"ux c #DCB722",
"uy c #DCB722",
"uz c #DDB921",
"uA c #FFDA24",
"uB c #EFCD2A",
"uC c #F3D12A",
"uD c #CEAC24",
"uE c #A6801F",
"uF c #52400A",
"uG c #EECF2D",
"uH c #FBDA30",
"uI c #977517",
"uJ c #7C5F15",
"uK c #463407",
"uL c #D2B224",
"uM c #DAB622",
"uN c #E1BC23",
"uO c #DDB921",
"uP c #E7B917",
"uQ c #F5CF25",
"uR c #EDCB29",
"uS c #CAA924",
"uT c #B08A27",
"uU c #503B07",
"uV c #57440C",
"uW c #F2D32E",
"uX c #987618",
"uY c #846213",
"uZ c #805E11",
"u0 c #7F6216",
"u1 c #413006",
"u2 c #C8A921",
"u3 c #DBB622",
"u4 c #DCB720",
"u5 c #E1BB1E",
"u6 c #F5D228",
"u7 c #EECC29",
"u8 c #ECCA29",
"u9 c #C8A723",
"u# c #896713",
"u. c #A7811F",
"u+ c #AF8926",
"u@ c #503A07",
"u* c #5B490D",
"u= c #997717",
"u- c #826317",
"u; c #BEA020",
"u: c #DBB722",
"u> c #DDB921",
"u, c #DFBB23",
"u< c #EECC28",
"u1 c #C7A523",
"u2 c #422F06",
"u3 c #604C0E",
"u4 c #997618",
"u5 c #BD9329",
"u6 c #826417",
"u7 c #B6991E",
"u8 c #DAB721",
"u9 c #E2BC22",
"u0 c #E0B921",
"va c #F2CF2A",
"vb c #634F0E",
"vc c #7F5E11",
"vd c #AE931C",
"ve c #F4D12A",
"vf c #DAB621",
"vg c #E6BF22",
"vh c #E1BA22",
"vi c #ECCC2A",
"vj c #A67F1E",
"vk c #412E06",
"vl c #66520E",
"vm c #7F5F11",
"vn c #BF962A",
"vo c #816317",
"vp c #A98E1B",
"vq c #E6C428",
"vr c #DAB721",
"vs c #E7C023",
"vt c #DBB722",
"vu c #ECCA28",
"vv c #CBA924",
"vw c #68530F",
"vx c #EFCF2B",
"vy c #A68B1B",
"vz c #F5D12A",
"vA c #DBB621",
"vB c #E6BF23",
"vC c #E0B921",
"vD c #F1CF2A",
"vE c #EAC929",
"vF c #CEAC25",
"vG c #896613",
"vH c #A37C1E",
"vI c #B28B27",
"vJ c #68540F",
"vK c #957416",
"vL c #816012",
"vM c #A58A1B",
"vN c #DBB721",
"vO c #DAB521",
"vP c #E5BE22",
"vQ c #E0BB21",
"vR c #EECC28",
"vS c #F4D22B",
"vT c #8A6613",
"vU c #A17B1C",
"vV c #B48D27",
"vW c #937216",
"vX c #E5C427",
"vY c #E3BD22",
"vZ c #DDB820",
"v0 c #ECC929",
"v1 c #EACA29",
"v2 c #FBDB30",
"v3 c #9E791C",
"v4 c #B68F28",
"v5 c #543E08",
"v6 c #67530F",
"v7 c #EBCB2A",
"v8 c #916F15",
"v9 c #6E5310",
"v# c #F4D02A",
"v. c #E5C428",
"v+ c #DAB521",
"v@ c #E0BB22",
"v* c #DBB521",
"v= c #EDCA2A",
"v- c #B89129",
"v; c #563F09",
"v: c #65510F",
"v> c #8F6D15",
"v, c #8A6715",
"v< c #674D0E",
"v1 c #DBB621",
"v2 c #DBB720",
"v3 c #EECC29",
"v4 c #E4C429",
"v5 c #59420A",
"v6 c #E6C529",
"v7 c #8C6A14",
"v8 c #916C18",
"v9 c #C49A2D",
"v0 c #5F470B",
"wa c #DAB621",
"wb c #DCB821",
"wc c #DCB821",
"wd c #EDCB29",
"we c #947018",
"wf c #BD942A",
"wg c #5C450B",
"wh c #503C08",
"wi c #5F4C0D",
"wj c #E3C228",
"wk c #98731B",
"wl c #BF972C",
"wm c #594109",
"wn c #DAB621",
"wo c #DCB721",
"wp c #EDCA29",
"wq c #5B480D",
"wr c #F3D42E",
"ws c #DEBD27",
"wt c #7E5D11",
"wu c #A27C1F",
"wv c #B89029",
"ww c #533C07",
"wx c #F1CE29",
"wy c #DBB521",
"wz c #EAC928",
"wA c #A4811B",
"wB c #684E0E",
"wC c #57440B",
"wD c #F0D02D",
"wE c #F5D42C",
"wF c #D8B726",
"wG c #856314",
"wH c #7D5C10",
"wI c #C8A922",
"wJ c #DAB521",
"wK c #D9B421",
"wL c #EAC828",
"wM c #B08E1D",
"wN c #8A6615",
"wO c #523F0A",
"wP c #EBCC2C",
"wQ c #F6D52C",
"wR c #825F12",
"wS c #7C5C0F",
"wT c #B99027",
"wU c #463408",
"wV c #D2B324",
"wW c #EDCB28",
"wX c #EAC728",
"wY c #BF9D20",
"wZ c #BC9329",
"w0 c #785C14",
"w1 c #4C3A09",
"w2 c #E5C72B",
"w3 c #F9D82F",
"w4 c #C9A722",
"w5 c #805D11",
"w6 c #886513",
"w7 c #896A1A",
"w8 c #513D09",
"w9 c #4E3C09",
"w# c #EBC828",
"w. c #EAC727",
"w+ c #836517",
"w@ c #DDC028",
"w* c #BF9E20",
"w= c #7E5C11",
"w- c #765A13",
"w; c #5A460B",
"w: c #E9C627",
"w> c #DFBE28",
"w, c #8D6916",
"w< c #866312",
"w1 c #8F6E1B",
"w2 c #4A3606",
"w3 c #FCDC2E",
"w4 c #B5931E",
"w5 c #916E18",
"w6 c #C99F2E",
"w7 c #644B0D",
"w8 c #6A540E",
"w9 c #EECB28",
"w0 c #EAC827",
"xa c #EDCD2B",
"xb c #8E6A16",
"xc c #AB8421",
"xd c #9C7920",
"xe c #4B3705",
"xf c #CAAD24",
"xg c #A9881B",
"xh c #7F5D11",
"xi c #7D5D10",
"xj c #A27D1E",
"xk c #7E6612",
"xl c #F3CF29",
"xm c #E5C327",
"xn c #ECCA28",
"xo c #A7831B",
"xp c #A78323",
"xq c #BBA021",
"xr c #F1D22C",
"xs c #9E7D18",
"xt c #B68D26",
"xu c #A98424",
"xv c #392805",
"xw c #967C17",
"xx c #E4C326",
"xy c #DAB621",
"xz c #ECCA28",
"xA c #EAC828",
"xB c #BB9920",
"xC c #99741A",
"xD c #B18B26",
"xE c #3A2805",
"xF c #AB921E",
"xG c #C79C2D",
"xH c #B0931D",
"xI c #DAB621",
"xJ c #EDCB28",
"xK c #EECB29",
"xL c #D3B225",
"xM c #9A8119",
"xN c #8C6916",
"xO c #423006",
"xP c #CAAA22",
"xQ c #D9B521",
"xR c #DCB721",
"xS c #DCB721",
"xT c #EAC828",
"xU c #F5D62D",
"xV c #BA9228",
"xW c #694F0F",
"xX c #4F3B07",
"xY c #867016",
"xZ c #FFDF30",
"x0 c #F4D22C",
"x1 c #A17C1E",
"x2 c #5A420A",
"x3 c #E0BE26",
"x4 c #E9C727",
"x5 c #E6C527",
"x6 c #DEB922",
"x7 c #DBB620",
"x8 c #E9C729",
"x9 c #EAC828",
"x# c #A6831A",
"x. c #7A5D15",
"x+ c #735D12",
"x@ c #FCDA2F",
"x* c #C8A721",
"x= c #7D5B0F",
"x- c #BB9229",
"x; c #A88324",
"x: c #6C560F",
"x> c #D8B321",
"x, c #ECCA28",
"x< c #E9C728",
"x1 c #C2A021",
"x2 c #886313",
"x3 c #8E6E1B",
"x4 c #B7951E",
"x5 c #876613",
"x6 c #836417",
"x7 c #8F7616",
"x8 c #F3D029",
"x9 c #D8B521",
"x0 c #E1BB22",
"ya c #DBB621",
"yb c #F0CD28",
"yc c #E0BF28",
"yd c #A17E21",
"ye c #4F3D0A",
"yf c #E6C72B",
"yg c #A48219",
"yh c #805E12",
"yi c #7E5D10",
"yj c #9B771C",
"yk c #61490C",
"yl c #D8B421",
"ym c #E3BC22",
"yn c #DEB720",
"yo c #E8C728",
"yp c #A27E19",
"yq c #B08925",
"yr c #553E08",
"ys c #D3B626",
"yt c #927116",
"yu c #7C5C10",
"yv c #AE8826",
"yw c #D8B824",
"yx c #D9B521",
"yy c #E4BD22",
"yz c #DDB820",
"yA c #EAC828",
"yB c #C2A121",
"yC c #876313",
"yD c #B68E27",
"yE c #654C0E",
"yF c #BA9E21",
"yG c #DDBC27",
"yH c #886615",
"yI c #816316",
"yJ c #6B560F",
"yK c #D9B521",
"yL c #D8B421",
"yM c #D9B51F",
"yN c #F0CD29",
"yO c #856312",
"yP c #B18923",
"yQ c #7D6015",
"yR c #9B821A",
"yS c #C8A622",
"yT c #A68020",
"yU c #C89E2F",
"yV c #9A8018",
"yW c #D8B321",
"yX c #E4BD21",
"yY c #E1BA20",
"yZ c #EBCA27",
"y0 c #AD8B1C",
"y1 c #A37D1D",
"y2 c #7B6513",
"y3 c #9D7A20",
"y4 c #CAAB21",
"y5 c #EDCA28",
"y6 c #D9B421",
"y7 c #D8B420",
"y8 c #E0BA21",
"y9 c #DEB71E",
"y# c #F0C927",
"y. c #EBC928",
"y+ c #EAC728",
"y@ c #D6B526",
"y* c #AB8624",
"y= c #5D490C",
"y- c #957417",
"y; c #9A761C",
"y: c #6B510F",
"y> c #634F0D",
"y, c #E7C327",
"y< c #D9B420",
"y1 c #DCB620",
"y2 c #DBB81E",
"y3 c #F5D124",
"y4 c #E9C628",
"y5 c #B28A25",
"y6 c #493607",
"y7 c #DABC27",
"y8 c #F2D02B",
"y9 c #DBBA26",
"y0 c #7E5E11",
"za c #503B06",
"zb c #382705",
"zc c #D8B421",
"zd c #DCB621",
"ze c #DAB420",
"zf c #EBC928",
"zg c #F0CC29",
"zh c #CFAD24",
"zi c #ECCA2A",
"zj c #BE9D20",
"zk c #7D5B11",
"zl c #97731A",
"zm c #D5A933",
"zn c #735712",
"zo c #523D08",
"zp c #D2B223",
"zq c #ECC828",
"zr c #D8B320",
"zs c #DFB921",
"zt c #DAB621",
"zu c #D4AA15",
"zv c #E9C728",
"zw c #A47F22",
"zx c #8C7417",
"zy c #FFDC2F",
"zz c #ECCC2A",
"zA c #9E7C18",
"zB c #513B06",
"zC c #765F11",
"zD c #E5C227",
"zE c #D9B420",
"zF c #E3BC21",
"zG c #DBB520",
"zH c #EBCA29",
"zI c #E8C627",
"zJ c #AD8623",
"zK c #684F0F",
"zL c #422F05",
"zM c #634E0E",
"zN c #DEBC27",
"zO c #9C781D",
"zP c #715511",
"zQ c #B99B1E",
"zR c #E4C227",
"zS c #D8B420",
"zT c #E7C022",
"zU c #DBB521",
"zV c #EAC927",
"zW c #FAD52B",
"zX c #E7C627",
"zY c #A6841B",
"zZ c #8B6B1A",
"z0 c #D5B826",
"z1 c #EFD02C",
"z2 c #BA991F",
"z3 c #A68123",
"z4 c #D8B31F",
"z5 c #E8C123",
"z6 c #DBB521",
"z7 c #EDCC27",
"z8 c #E7C528",
"z9 c #DEBC28",
"z# c #58420A",
"z. c #3C2A04",
"z+ c #A58B1C",
"z@ c #947216",
"z* c #7C5B10",
"z= c #4D3808",
"z- c #382805",
"z; c #AC8F1C",
"z: c #E3C227",
"z> c #D8B320",
"z, c #E7BF22",
"z< c #DDB621",
"z1 c #EAC529",
"z2 c #EDCA27",
"z3 c #E7C627",
"z4 c #BA981F",
"z5 c #3D2A04",
"z6 c #705A11",
"z7 c #F8D62E",
"z8 c #CDAB23",
"z9 c #7F5D12",
"z0 c #906D18",
"Aa c #D8AB34",
"Ab c #D7B320",
"Ac c #D9B920",
"Ad c #EAC626",
"Ae c #9D7A1F",
"Af c #D8BA27",
"Ag c #F7D52D",
"Ah c #816112",
"Ai c #C89D2E",
"Aj c #B79028",
"Ak c #AF921C",
"Al c #F1CD29",
"Am c #DBB520",
"An c #D9B420",
"Ao c #E7B922",
"Ap c #EAC727",
"Aq c #F6D62C",
"Ar c #DAB926",
"As c #9F851A",
"At c #EDCD2A",
"Au c #B08924",
"Av c #6A500E",
"Aw c #67520E",
"Ax c #D7B320",
"Ay c #DBB51F",
"Az c #EBC828",
"AA c #F7D229",
"AB c #E8C626",
"AC c #9A771D",
"AD c #4A3607",
"AE c #5F4B0D",
"AF c #9C7A18",
"AG c #7F5E12",
"AH c #DAAD35",
"AI c #C2A320",
"AJ c #D8B320",
"AK c #E6BE22",
"AL c #DBB520",
"AM c #ECC828",
"AN c #F7D22A",
"AO c #E7C526",
"AP c #392803",
"AQ c #BC9F21",
"AR c #FBD82D",
"AS c #EBC92A",
"AT c #C6A421",
"AU c #7E5E10",
"AV c #D6A933",
"AW c #A48022",
"AX c #846C14",
"AY c #D8B420",
"AZ c #D7B21F",
"A0 c #DBB620",
"A1 c #E9C726",
"A2 c #E6C427",
"A3 c #997718",
"A4 c #99741B",
"A5 c #533D0A",
"A6 c #6C570F",
"A7 c #8B6A14",
"A8 c #584108",
"A9 c #DFBE26",
"A# c #D8B320",
"A. c #D6B220",
"A+ c #E1BA21",
"A@ c #DCB61E",
"A* c #E9C626",
"A= c #E7C427",
"A- c #E3C128",
"A; c #8A6917",
"A: c #C1A521",
"A> c #A5841A",
"A, c #634A0C",
"A< c #483607",
"A1 c #B79A1E",
"A2 c #D7B220",
"A3 c #D9B41F",
"A4 c #EBC727",
"A5 c #DAB927",
"A6 c #6C5010",
"A7 c #67530E",
"A8 c #BD9C1F",
"A9 c #7D5C11",
"A0 c #6D520F",
"Ba c #8A7115",
"Bb c #D7B220",
"Bc c #DBB61F",
"Bd c #EAC728",
"Be c #563F0A",
"Bf c #AB901D",
"Bg c #CDAC23",
"Bh c #805F12",
"Bi c #D2A732",
"Bj c #745711",
"Bk c #553F0A",
"Bl c #65500E",
"Bm c #D8B21F",
"Bn c #DCB521",
"Bo c #EBC826",
"Bp c #E5C426",
"Bq c #634C0D",
"Br c #DEC028",
"Bs c #D2B124",
"Bt c #836213",
"Bu c #755912",
"Bv c #D7B624",
"Bw c #D7B320",
"Bx c #E5BD22",
"By c #DEB720",
"Bz c #ECC625",
"BA c #E8C626",
"BB c #876614",
"BC c #8C6A15",
"BD c #7D5C12",
"BE c #8E7316",
"BF c #C69B2D",
"BG c #725611",
"BH c #C2A420",
"BI c #E3C127",
"BJ c #D9B421",
"BK c #DFB71F",
"BL c #E9C626",
"BM c #E6C327",
"BN c #8C6A16",
"BO c #876514",
"BP c #F2D02A",
"BQ c #916D18",
"BR c #CFA330",
"BS c #6B500F",
"BT c #B1941D",
"BU c #E1BA22",
"BV c #DAB420",
"BW c #EAC727",
"BX c #E6C426",
"BY c #CEAE25",
"BZ c #886817",
"B0 c #A8861A",
"B1 c #EDCC29",
"B2 c #E1BF27",
"B3 c #A28119",
"B4 c #A07B1E",
"B5 c #B68E28",
"B6 c #60470B",
"B7 c #392905",
"B8 c #A68A1B",
"B9 c #D8B220",
"B# c #DBB520",
"B. c #EBC929",
"B+ c #C6A722",
"B@ c #816216",
"B* c #8C6B14",
"B= c #BB991F",
"B- c #886714",
"B; c #7E5D12",
"B: c #D9AC34",
"B> c #A3871A",
"B, c #E2BB22",
"B< c #DDB422",
"B1 c #ECDA24",
"B2 c #E6C426",
"B3 c #C3A621",
"B4 c #946F19",
"B5 c #927015",
"B6 c #BC9A1F",
"B7 c #ECC92A",
"B8 c #F1D02A",
"B9 c #DDBB26",
"B0 c #97741A",
"Ca c #CCA230",
"Cb c #7F6115",
"Cc c #3C2B06",
"Cd c #A88C1B",
"Ce c #D9B320",
"Cf c #E2B81C",
"Cg c #EAC727",
"Ch c #CCAF22",
"Ci c #6C5410",
"Cj c #886718",
"Ck c #A17F19",
"Cl c #D5B525",
"Cm c #D3B224",
"Cn c #9D7B18",
"Co c #7E5B11",
"Cp c #624A0C",
"Cq c #B5971D",
"Cr c #D9B41F",
"Cs c #E9C727",
"Ct c #DDBF26",
"Cu c #6D570F",
"Cv c #6C5112",
"Cw c #967218",
"Cx c #987617",
"Cy c #A3811A",
"Cz c #B2911D",
"CA c #AB891B",
"CB c #A18019",
"CC c #967517",
"CD c #A78221",
"CE c #D3A732",
"CF c #806216",
"CG c #C7A821",
"CH c #E3C126",
"CI c #D6B220",
"CJ c #DAB51F",
"CK c #ECC824",
"CL c #E9C526",
"CM c #E5C427",
"CN c #866E14",
"CO c #4E3909",
"CP c #896A19",
"CQ c #856212",
"CR c #97751D",
"CS c #362604",
"CT c #DCBB25",
"CU c #D9B425",
"CV c #E7C426",
"CW c #E5C327",
"CX c #EFCC2A",
"CY c #B2961D",
"CZ c #5A420C",
"C0 c #A78020",
"C1 c #A07C21",
"C2 c #967C18",
"C3 c #D7B220",
"C4 c #E1BB21",
"C5 c #DAB521",
"C6 c #EBC726",
"C7 c #EACA29",
"C8 c #DDBE27",
"C9 c #735D10",
"C# c #644B0F",
"C. c #A98322",
"C+ c #7D5C0F",
"C@ c #B38B25",
"C* c #9C791F",
"C= c #664C0D",
"C- c #453307",
"C; c #372704",
"C: c #5E4A0C",
"C> c #C4A520",
"C, c #D6B120",
"C< c #DDB621",
"C1 c #E6C529",
"C2 c #E9C526",
"C3 c #E8C426",
"C4 c #E6C226",
"C5 c #B2961E",
"C6 c #523F09",
"C7 c #3A2903",
"C8 c #61490D",
"C9 c #A88322",
"C0 c #A98321",
"Da c #7C5B0F",
"Db c #8C6C1A",
"Dc c #543F09",
"Dd c #967B17",
"De c #DBB420",
"Df c #E2B823",
"Dg c #E8C527",
"Dh c #F2CE28",
"Di c #E5C225",
"Dj c #E5C528",
"Dk c #937917",
"Dl c #473507",
"Dm c #3A2802",
"Dn c #795D14",
"Do c #9B781F",
"Dp c #AE8724",
"Dq c #AC8422",
"Dr c #805F10",
"Ds c #836111",
"Dt c #856412",
"Du c #A98221",
"Dv c #9F7C20",
"Dw c #796212",
"Dx c #D1B123",
"Dy c #D7B220",
"Dz c #D9B420",
"DA c #E9C725",
"DB c #E4C225",
"DC c #D7B726",
"DD c #866E15",
"DE c #5F470C",
"DF c #7C6015",
"DG c #AF8825",
"DH c #B28B25",
"DI c #9A761A",
"DJ c #916E17",
"DK c #CA9F2E",
"DL c #705910",
"DM c #D6B11F",
"DN c #DCB41D",
"DO c #E5BF26",
"DP c #E7C326",
"DQ c #D3B325",
"DR c #897115",
"DS c #5A430A",
"DT c #6F5511",
"DU c #8A6B1A",
"DV c #A37F22",
"DW c #B38A24",
"DX c #A88221",
"DY c #936F18",
"DZ c #A47F1F",
"D0 c #CA9F2F",
"D1 c #BF962C",
"D2 c #886919",
"D3 c #755F11",
"D4 c #C1A220",
"D5 c #EFCB29",
"D6 c #D6B120",
"D7 c #D8B31F",
"D8 c #D6B71E",
"D9 c #E8C526",
"D# c #E4C325",
"D. c #E9C928",
"D+ c #F2D12A",
"D@ c #DBBC25",
"D* c #9C8219",
"D= c #5E4A0D",
"D- c #463306",
"D; c #93721D",
"D: c #B99128",
"D> c #BB9329",
"D, c #BA9128",
"D< c #B28A24",
"D1 c #AC8522",
"D2 c #A27C1E",
"D3 c #9E781D",
"D4 c #9A751B",
"D5 c #906C17",
"D6 c #957119",
"D7 c #BA922A",
"D8 c #7B5E14",
"D9 c #8B7215",
"D0 c #CCAE22",
"Ea c #D7B120",
"Eb c #DAB41F",
"Ec c #E7C827",
"Ed c #EECA27",
"Ee c #E4C226",
"Ef c #BD9F1F",
"Eg c #816914",
"Eh c #533F0A",
"Ei c #4C3807",
"Ej c #543D08",
"Ek c #5D460B",
"El c #826418",
"Em c #99771F",
"En c #A27E22",
"Eo c #B99129",
"Ep c #A68122",
"Eq c #76580F",
"Er c #745E11",
"Es c #AF931C",
"Et c #E0BF26",
"Eu c #EDC928",
"Ev c #D6B120",
"Ew c #DBB41C",
"Ex c #E6C226",
"Ey c #EDC927",
"Ez c #E4C126",
"EA c #E2C127",
"EB c #826B14",
"EC c #58450B",
"ED c #4B3605",
"EE c #543D07",
"EF c #63490C",
"EG c #836313",
"EH c #786212",
"EI c #AA8F1B",
"EJ c #D7B724",
"EK c #D6B220",
"EL c #DEB821",
"EM c #D8B21E",
"EN c #E8C426",
"EO c #C7A922",
"EP c #9E841A",
"EQ c #57430B",
"ER c #4F3A09",
"ES c #785A11",
"ET c #59420B",
"EU c #443206",
"EV c #6E5910",
"EW c #957B17",
"EX c #BFA01F",
"EY c #D7B11F",
"EZ c #E6BE21",
"E0 c #D9B31F",
"E1 c #E9C92A",
"E2 c #E7C426",
"E3 c #E8C426",
"E4 c #E4C126",
"E5 c #CEAF23",
"E6 c #907717",
"E7 c #5D490D",
"E8 c #503A09",
"E9 c #644A0D",
"E# c #66510E",
"E. c #917817",
"E+ c #C5A620",
"E@ c #DFBD25",
"E* c #D9B320",
"E= c #DAB41F",
"E- c #DBB823",
"E; c #E7C327",
"E: c #E4C226",
"E> c #DCBC26",
"E, c #CBAD23",
"E< c #B99C1F",
"E1 c #967D17",
"E2 c #876F15",
"E3 c #7A6312",
"E4 c #6F5A10",
"E5 c #7B5D12",
"E6 c #937215",
"E7 c #CBA821",
"E8 c #E2C126",
"E9 c #D9B31F",
"E0 c #EAC524",
"Fa c #EAC727",
"Fb c #E5C326",
"Fc c #785810",
"Fd c #8D6C14",
"Fe c #B7951D",
"Ff c #DAB824",
"Fg c #EBCA28",
"Fh c #EECC29",
"Fi c #D6B01F",
"Fj c #DCB620",
"Fk c #DAB61F",
"Fl c #E4C226",
"Fm c #E3C126",
"Fn c #E7C627",
"Fo c #E8C528",
"Fp c #AF8D1C",
"Fq c #7D5A12",
"Fr c #7A5910",
"Fs c #BA991E",
"Ft c #D3B023",
"Fu c #E3C026",
"Fv c #E7C426",
"Fw c #E6C426",
"Fx c #D7B21F",
"Fy c #E1BA20",
"Fz c #D8B220",
"FA c #E9C527",
"FB c #EFCA28",
"FC c #E2C026",
"FD c #7C5B11",
"FE c #9B7A17",
"FF c #AB8A1B",
"FG c #C7A520",
"FH c #D0AE22",
"FI c #D7B523",
"FJ c #DDBA24",
"FK c #E0BE25",
"FL c #E2C025",
"FM c #D5B01F",
"FN c #E2BB21",
"FO c #DBB720",
"FP c #E5C325",
"FQ c #EECA28",
"FR c #C6A521",
"FS c #7A5911",
"FT c #7B5B11",
"FU c #886713",
"FV c #8D6C15",
"FW c #8F6E15",
"FX c #906E15",
"FY c #916F16",
"FZ c #8A6A13",
"F0 c #B58F24",
"F1 c #B49123",
"F2 c #D8B622",
"F3 c #EAC627",
"F4 c #DFB820",
"F5 c #D6B21F",
"F6 c #E7C326",
"F7 c #7C5C11",
"F8 c #7D5D12",
"F9 c #74540E",
"F# c #8D6C1C",
"F. c #6A520C",
"F+ c #E7C425",
"F@ c #E1BE25",
"F* c #D7B21F",
"F= c #D5B01E",
"F- c #E4BC21",
"F; c #DBB41E",
"F: c #FFCC33",
"F> c #E5C325",
"F, c #EDC928",
"F< c #78590E",
"F1 c #B18924",
"F2 c #99771E",
"F3 c #412D04",
"F4 c #70580F",
"F5 c #E0BD25",
"F6 c #E1BF25",
"F7 c #D6B11F",
"F8 c #DDB720",
"F9 c #D7B320",
"F0 c #DAB624",
"Ga c #EAC726",
"Gb c #F2CD27",
"Gc c #EECC28",
"Gd c #CFAD22",
"Ge c #806011",
"Gf c #77580E",
"Gg c #96751E",
"Gh c #6A530E",
"Gi c #DCB924",
"Gj c #E4C225",
"Gk c #D7B11F",
"Gl c #DCB620",
"Gm c #E5C124",
"Gn c #EDC927",
"Go c #BB981D",
"Gp c #7B5910",
"Gq c #806012",
"Gr c #77570E",
"Gs c #DFBD24",
"Gt c #D6B21F",
"Gu c #D7B31E",
"Gv c #E9C325",
"Gw c #F0CB27",
"Gx c #A9871A",
"Gy c #866D14",
"Gz c #D5B01F",
"GA c #DAB51F",
"GB c #E5C225",
"GC c #E3C025",
"GD c #DFB820",
"GE c #D8B11F",
"GF c #EBC827",
"GG c #9A7817",
"GH c #7B5A10",
"GI c #D6B11F",
"GJ c #D8B51F",
"GK c #E5C125",
"GL c #E1BF24",
"GM c #9C7B19",
"GN c #DFBC25",
"GO c #D5B11F",
"GP c #D8B21E",
"GQ c #E9C626",
"GR c #E4C125",
"GS c #9E7C1A",
"GT c #7E5B12",
"GU c #EDC827",
"GV c #D6B11F",
"GW c #D7B21F",
"GX c #DDB620",
"GY c #DEB820",
"GZ c #E5C125",
"G0 c #E2C024",
"G1 c #9C7B1A",
"G2 c #826013",
"G3 c #DEBC24",
"G4 c #D4B01F",
"G5 c #E5BD21",
"G6 c #D7B21E",
"G7 c #E6C225",
"G8 c #E2C025",
"G9 c #937419",
"G# c #886517",
"G. c #ECC826",
"G+ c #DBB520",
"G@ c #DAB41F",
"G* c #E6B624",
"G= c #E6C226",
"G- c #E3C226",
"G; c #DCBB24",
"G: c #856A15",
"G> c #866518",
"G, c #957118",
"G< c #7D5D11",
"G1 c #76580E",
"G2 c #DEBB24",
"G3 c #D9B31E",
"G4 c #E5C024",
"G5 c #E2BE25",
"G6 c #7C6411",
"G7 c #715513",
"G8 c #906D17",
"G9 c #7B5B10",
"G0 c #7F5F12",
"Ha c #DFBB24",
"Hb c #D7B11F",
"Hc c #ECC725",
"Hd c #E9C526",
"He c #E5C125",
"Hf c #EAC727",
"Hg c #876E13",
"Hh c #513B09",
"Hi c #A58020",
"Hj c #947119",
"Hk c #79590F",
"Hl c #D8B31F",
"Hm c #DDB61F",
"Hn c #E4C025",
"Ho c #A98D1A",
"Hp c #473506",
"Hq c #57400B",
"Hr c #906F1B",
"Hs c #A27D1F",
"Ht c #8F6B17",
"Hu c #795910",
"Hv c #7A5A10",
"Hw c #76570E",
"Hx c #EBC726",
"Hy c #DDBB24",
"Hz c #D5B01F",
"HA c #E6BD21",
"HB c #D8B11F",
"HC c #E6C125",
"HD c #ECC727",
"HE c #E1BF25",
"HF c #E2BF26",
"HG c #D1B022",
"HH c #6A540D",
"HI c #806316",
"HJ c #AE8824",
"HK c #A98222",
"HL c #99751B",
"HM c #78580E",
"HN c #79580E",
"HO c #7A5A0F",
"HP c #76560E",
"HQ c #856D14",
"HR c #DFB720",
"HS c #D9B21F",
"HT c #EAC628",
"HU c #EAC625",
"HV c #E1BF25",
"HW c #E9C626",
"HX c #A5891A",
"HY c #523E09",
"HZ c #392703",
"H0 c #9A781F",
"H1 c #AE8725",
"H2 c #B58D26",
"H3 c #B18A25",
"H4 c #9F791D",
"H5 c #74540D",
"H6 c #EBC626",
"H7 c #DDB620",
"H8 c #E6C025",
"H9 c #F3CC27",
"H# c #E0BD24",
"H. c #D9B823",
"H+ c #907615",
"H@ c #4F3C09",
"H* c #BF952A",
"H= c #BC9429",
"H- c #856C14",
"H; c #DEBA24",
"H: c #D5AF1F",
"H> c #E6C024",
"H, c #EEC827",
"H< c #E0BE25",
"H1 c #E0BE24",
"H2 c #D4B323",
"H3 c #937816",
"H4 c #58440B",
"H5 c #493506",
"H6 c #6E5311",
"H7 c #725612",
"H8 c #DDBA23",
"H9 c #E0B821",
"H0 c #D8B21F",
"Ia c #E9C623",
"Ib c #E8C325",
"Ic c #E5C124",
"Id c #E1BD25",
"Ie c #E6C226",
"If c #AD901B",
"Ig c #755E11",
"Ih c #483407",
"Ii c #EAC625",
"Ij c #DCBA23",
"Ik c #D5B01F",
"Il c #D9B21F",
"Im c #DCB520",
"In c #D9BA1F",
"Io c #E3BF23",
"Ip c #F0CA26",
"Iq c #ECC827",
"Ir c #EBC627",
"Is c #D4B222",
"It c #AC8F1A",
"Iu c #806812",
"Iv c #5D480C",
"Iw c #473307",
"Ix c #866D13",
"Iy c #DCB923",
"Iz c #D6AF1F",
"IA c #D8B21E",
"IB c #E3BF23",
"IC c #CCAB20",
"ID c #B0921B",
"IE c #947916",
"IF c #7A6211",
"IG c #57430A",
"IH c #312204",
"II c #816812",
"IJ c #D5AE1F",
"IK c #D7B21F",
"IL c #E0BD24",
"IM c #E6C125",
"IN c #EAC626",
"IO c #DDB924",
"IP c #D3B122",
"IQ c #CAA920",
"IR c #C2A11F",
"IS c #BA9B1D",
"IT c #B5971C",
"IU c #B2941B",
"IV c #AE901B",
"IW c #C5A51F",
"IX c #DEB720",
"IY c #DAB320",
"IZ c #D7B013",
"I0 c #E6C025",
"I1 c #E7C324",
"I2 c #DDBB23",
"I3 c #E5C125",
"I4 c #E6C225",
"I5 c #E7C325",
"I6 c #E8C325",
"I7 c #E9C425",
"I8 c #E4C024",
"I9 c #D5AF1F",
"I# c #D8B21F",
"I. c #DCB620",
"I+ c #D8B621",
"I@ c #E3BF24",
"I* c #D6B01F",
"I= c #D6B01F",
"I- c #D7B31E",
"I; c #BF7F00",
"I: c #E5C023",
"I> c #F2CC27",
"I, c #E0BB24",
"I< c #D5AE1E",
"I1 c #E5BE21",
"I2 c #D8B11F",
"I3 c #E4C025",
"I4 c #F1CA26",
"I5 c #D4AE1F",
"I6 c #DBB41F",
"I7 c #E6C224",
"I8 c #DFBC23",
"I9 c #D4AF1F",
"I0 c #DFB821",
"Ja c #DAB51F",
"Jb c #ECB624",
"Jc c #E7C224",
"Jd c #DEBC24",
"Je c #D4AF1F",
"Jf c #DCB61F",
"Jg c #DAB61D",
"Jh c #E1BA22",
"Ji c #E8C425",
"Jj c #E3BF25",
"Jk c #DFBC24",
"Jl c #D5AF1F",
"Jm c #D8B21F",
"Jn c #DDB720",
"Jo c #D7AF1E",
"Jp c #E6C025",
"Jq c #E9C325",
"Jr c #E2BE24",
"Js c #DFBB24",
"Jt c #D4AF1F",
"Ju c #D8B21F",
"Jv c #E1BD23",
"Jw c #ECC626",
"Jx c #E1BD24",
"Jy c #D6B11F",
"Jz c #D6B320",
"JA c #E3BE24",
"JB c #E1BC24",
"JC c #D8B120",
"JD c #E3C025",
"JE c #DFBC24",
"JF c #DBB51F",
"JG c #E3C023",
"JH c #EFCA26",
"JI c #D5B01F",
"JJ c #DBB520",
"JK c #E3BE23",
"JL c #EFC925",
"JM c #DFBC22",
"JN c #DEBC23",
"JO c #DDB520",
"JP c #E5C123",
"JQ c #EFC825",
"JR c #DCB620",
"JS c #E4BE23",
"JT c #E0BC23",
"JU c #DDBA23",
"JV c #E3BF24",
"JW c #E0BC23",
"JX c #DEBA23",
"JY c #D8B120",
"JZ c #E6C023",
"J0 c #E8C324",
"J1 c #D3AF1F",
"J2 c #DDB620",
"J3 c #DBB320",
"J4 c #E4BF24",
"J5 c #E6C224",
"J6 c #E6C124",
"J7 c #DDBA22",
"J8 c #DCB620",
"J9 c #DBB51F",
"J# c #DEB925",
"J. c #E8C224",
"J+ c #DDB922",
"J@ c #D4AF1F",
"J* c #DDB620",
"J= c #D5AF1D",
"J- c #E0B926",
"J; c #E6C124",
"J: c #D4AF1E",
"J> c #E3BB21",
"J, c #DCB51F",
"J< c #DBB123",
"J1 c #E5C023",
"J2 c #DEBA23",
"J3 c #DCB923",
"J4 c #DCB51F",
"J5 c #CFAF1F",
"J6 c #EAC425",
"J7 c #DDB923",
"J8 c #D7B120",
"J9 c #E2BA21",
"J0 c #DDB41F",
"Ka c #E4BF22",
"Kb c #E6C025",
"Kc c #DDB520",
"Kd c #DDBB22",
"Ke c #E6C123",
"Kf c #DDB520",
"Kg c #DAB01F",
"Kh c #D0B917",
"Ki c #E4BF23",
"Kj c #E0BB23",
"Kk c #DDB61F",
"Kl c #EBB027",
"Km c #E4BF22",
"Kn c #E4BF22",
"Ko c #DCB822",
"Kp c #DCB420",
"Kq c #DCB420",
"Kr c #E6C01F",
"Ks c #E5C023",
"Kt c #EDC724",
"Ku c #DCB520",
"Kv c #DDB51C",
"Kw c #E6C022",
"Kx c #E4BF23",
"Ky c #DCB922",
"Kz c #DDB721",
"KA c #DCB520",
"KB c #DDB51F",
"KC c #CC9933",
"KD c None",
"KE c #E7C225",
"KF c #E5C123",
"KG c #EDC624",
"KH c #DDB520",
"KI c #E0B51E",
"KJ c #E4C022",
"KK c #E4BD23",
"KL c #DCB821",
"KM c #D4AF1E",
"KN c #E0B921",
"KO c #DCB51F",
"KP c #DDB521",
"KQ c #E4BF25",
"KR c #E5BE23",
"KS c #DCB721",
"KT c #D9B320",
"KU c #DCB520",
"KV c #E1B91E",
"KW c #E5BE24",
"KX c #E4BE22",
"KY c #DCB520",
"KZ c #DEB720",
"K0 c #DAC224",
"K1 c #E6C023",
"K2 c #E3BE22",
"K3 c #DAB722",
"K4 c #DCB51F",
"K5 c #DEB620",
"K6 c #E8BC21",
"K7 c #E4C024",
"K8 c #E5BE24",
"K9 c #DEB820",
"K# c #DBB520",
"K. c #E1BA1D",
"K+ c #E6BF23",
"K@ c #E4BD23",
"K* c #E4BE23",
"K= c #DCB620",
"K- c #DDB61F",
"K; c #DDB51E",
"K: c #E8BF22",
"K> c #E3BD23",
"K, c #E3BD23",
"K< c #DBB622",
"K1 c #DDB620",
"K2 c #DEB720",
"K3 c #E4BE22",
"K4 c #E2BE23",
"K5 c #D9B622",
"K6 c #DAB722",
"K7 c #DDB720",
"K8 c #DFB81F",
"K9 c #E3BF24",
"K0 c #E3BD22",
"La c #DAB621",
"Lb c #D5AF1F",
"Lc c #DDB61F",
"Ld c #DCB71F",
"Le c #E7C021",
"Lf c #E3BC22",
"Lg c #E9C223",
"Lh c #DDB821",
"Li c #D9B621",
"Lj c #D5AF1E",
"Lk c #DDB720",
"Ll c #E2B81F",
"Lm c #E4C023",
"Ln c #E1BC21",
"Lo c #E0BB22",
"Lp c #EAC223",
"Lq c #DAB520",
"Lr c #DBB41F",
"Ls c #E1BB1D",
"Lt c #E5C322",
"Lu c #E5BE22",
"Lv c #E0BB21",
"Lw c #E4BE22",
"Lx c #D8B21F",
"Ly c #DBB420",
"Lz c #DFB71F",
"LA c #E2BF1F",
"LB c #E1BC22",
"LC c #DFBA22",
"LD c #E8C223",
"LE c #D9B520",
"LF c #D9B621",
"LG c #D6B01E",
"LH c #D9B420",
"LI c #DBB520",
"LJ c #DFBA1F",
"LK c #FFAA2A",
"LL c #EAC128",
"LM c #E3BD20",
"LN c #E2BB22",
"LO c #DDB820",
"LP c #D9B31F",
"LQ c #DDB520",
"LR c #DCB51F",
"LS c #E2BC1C",
"LT c #E3C022",
"LU c #E3BE22",
"LV c #E1BB21",
"LW c #DDB721",
"LX c #E9C123",
"LY c #DEB822",
"LZ c #D9B421",
"L0 c #DAB421",
"L1 c #D5B11F",
"L2 c #D8B11F",
"L3 c #DBB51F",
"L4 c #DDB61F",
"L5 c #E4BB21",
"L6 c #E1BD1D",
"L7 c #E2BC21",
"L8 c #E0BB21",
"L9 c #DEB920",
"L# c #D8B521",
"L. c #D9B420",
"L+ c #D9B31F",
"L@ c #DCB51F",
"L* c #DEB920",
"L= c #DCB322",
"L- c #E4C91A",
"L; c #DFBD22",
"L: c #DEBA22",
"L> c #DDB720",
"L, c #DAB621",
"L< c #E8C023",
"L1 c #D9B321",
"L2 c #D8B321",
"L3 c #D9B31F",
"L4 c #DFB920",
"L5 c #D7B11E",
"L6 c #D9B31F",
"L7 c #DDB420",
"L8 c #E0B81E",
"L9 c #DAB618",
"L0 c #E1BB25",
"Ma c #E1BA23",
"Mb c #DCB721",
"Mc c #DCB721",
"Md c #DAB520",
"Me c #D9B31F",
"Mf c #D9B420",
"Mg c #D8B420",
"Mh c #D8B31E",
"Mi c #DAB41F",
"Mj c #DCB61F",
"Mk c #E1B61D",
"Ml c #DFBF1F",
"Mm c #DFBB1F",
"Mn c #DFB91F",
"Mo c #DEB920",
"Mp c #DDB720",
"Mq c #DAB51F",
"Mr c #E9C122",
"Ms c #DEB921",
"Mt c #DBB620",
"Mu c #D8B320",
"Mv c #D9B41F",
"Mw c #DDB620",
"Mx c #E1B920",
"My c #D7B21E",
"Mz c #DAB41F",
"MA c #DDB620",
"MB c #DBB61E",
"MC c #DCB51E",
"MD c #E0B71E",
"ME c #DDBB21",
"MF c #DDB61F",
"MG c #DDB620",
"MH c #DAB520",
"MI c #DAB420",
"MJ c #DAB520",
"MK c #DAB420",
"ML c #D8B220",
"MM c #DBB521",
"MN c #D8B31F",
"MO c #D8B21F",
"MP c #D9B420",
"MQ c #D9B41F",
"MR c #D8B31E",
"MS c #E0B61E",
"MT c #D9B420",
"MU c #E7C11E",
"MV c #DFB71F",
"MW c #DDB621",
"MX c #DEBA20",
"MY c #D9B520",
"MZ c #DDB720",
"M0 c #DDB821",
"M1 c #DAB420",
"M2 c #D7B320",
"M3 c #DAB521",
"M4 c #DAB520",
"M5 c #D9B420",
"M6 c #D8B220",
"M7 c #D7B220",
"M8 c #D8B320",
"M9 c #D9B41F",
"M# c #D8B31F",
"M. c #D9B31F",
"M+ c #DCB51F",
"M@ c #DDB620",
"M* c #D7B21F",
"M= c #DCB61F",
"M- c #DBB421",
"M; c #DBB41E",
"M: c #D4BF15",
"aaaaaaaaaaaaaaaaaaaaaaaaaaaaaaaaaaaaaaaaaaaaaaaaaaaaaaaaaaaaaaaaaaaaaaaaaaaaaaaaaaaaaaaaaaaaaaaaaaaaaaaaaaaaaaaaaaaaaaaaaaaaaaaaaaaaaaaaaaaaaaaaaaaaaaaaaaaaaaaaaaaaaaaaaaaaaaaaaaaaaaaaaaaaaaaaaaaaaaaaabacadaeabaaaaaaaaaaaaafagahaiajakalamanaoapaqarasatauauauavawaxayazaAaBaCaDaEaFaGaHaIagaJaaaaaaaaaaaaaKaLadacabaaaaaaaaaaaaaaaaaaaaaaaaaaaaaaaaaaaaaaaaaaaaaaaaaaaaaaaaaaaaaaaaaaaaaaaaaaaaaaaaaaaaaaaaaaaaaaaaaaaaaaaaaaaaaaaaaaaaaaaaaaaaaaaaaaaaaaaaaaaaaaaaaaaaaaaaaaaaaaaaaaaaaaaaaaaaaaaaaaaaaaaaaaaaaaaaaaaaaaaa",
"aaaaaaaaaaaaaaaaaaaaaaaaaaaaaaaaaaaaaaaaaaaaaaaaaaaaaaaaaaaaaaaaaaaaaaaaaaaaaaaaaaaaaaaaaaaaaaaaaaaaaaaaaaaaaaaaaaaaaaaaaaaaaaaaaaaaaaaaaaaaaaaaaaaaaaaaaaaaaaaaaaaaaaaaaaaaaaaaaaaaaaaaaaaaaaaaabaLadabaaaaaaaaaaaMaNaOaPaQaRaSaTaUaVaWaXaXaWaYaZa0a1a2a3a4a4a4a4a4a4a3a5a6a1a7a8a9a#a.a+a@a*a=a-a;a:a>a,a<a1aaaaaaaaaaabaeaLa2aaaaaaaaaaaaaaaaaaaaaaaaaaaaaaaaaaaaaaaaaaaaaaaaaaaaaaaaaaaaaaaaaaaaaaaaaaaaaaaaaaaaaaaaaaaaaaaaaaaaaaaaaaaaaaaaaaaaaaaaaaaaaaaaaaaaaaaaaaaaaaaaaaaaaaaaaaaaaaaaaaaaaaaaaaaaaaaaaaaaaaaaaaaaaaaa",
"aaaaaaaaaaaaaaaaaaaaaaaaaaaaaaaaaaaaaaaaaaaaaaaaaaaaaaaaaaaaaaaaaaaaaaaaaaaaaaaaaaaaaaaaaaaaaaaaaaaaaaaaaaaaaaaaaaaaaaaaaaaaaaaaaaaaaaaaaaaaaaaaaaaaaaaaaaaaaaaaaaaaaaaaaaaaaaaaaaaaaaaaabacadabaaaaaaaaa1a3a4a5a6a7a8a9a0baaXaZbbbcbdbebfbgbebebhbdbdbibjbkblblblblblblbmbmbnbobpbpbqbrbpbsbtbua@a+bvbwbxa3bybzbAbBbCbDaaaaaaaaabaeacabaaaaaaaaaaaaaaaaaaaaaaaaaaaaaaaaaaaaaaaaaaaaaaaaaaaaaaaaaaaaaaaaaaaaaaaaaaaaaaaaaaaaaaaaaaaaaaaaaaaaaaaaaaaaaaaaaaaaaaaaaaaaaaaaaaaaaaaaaaaaaaaaaaaaaaaaaaaaaaaaaaaaaaaaaaaaaaaaaaaaaaaa",
"aaaaaaaaaaaaaaaaaaaaaaaaaaaaaaaaaaaaaaaaaaaaaaaaaaaaaaaaaaaaaaaaaaaaaaaaaaaaaaaaaaaaaaaaaaaaaaaaaaaaaaaaaaaaaaaaaaaaaaaaaaaaaaaaaaaaaaaaaaaaaaaaaaaaaaaaaaaaaaaaaaaaaaaaaaaaaaaaaabEaebFaaaaaaaabGbHbIbJbKaZbabaaWa8bLbMbNbObPbQbRbRbSbSbSbSbSbSbSbSbSbSbSbSbjbjblblblblblblblbTbTbTbUbUbUbUbVbWbXbYbZb0b1b2b3b4bxb5b6b7b8b9b#b.aaaaaaaaacaebEaaaaaaaaaaaaaaaaaaaaaaaaaaaaaaaaaaaaaaaaaaaaaaaaaaaaaaaaaaaaaaaaaaaaaaaaaaaaaaaaaaaaaaaaaaaaaaaaaaaaaaaaaaaaaaaaaaaaaaaaaaaaaaaaaaaaaaaaaaaaaaaaaaaaaaaaaaaaaaaaaaaaaaaaaaaaaaaaaa",
"aaaaaaaaaaaaaaaaaaaaaaaaaaaaaaaaaaaaaaaaaaaaaaaaaaaaaaaaaaaaaaaaaaaaaaaaaaaaaaaaaaaaaaaaaaaaaaaaaaaaaaaaaaaaaaaaaaaaaaaaaaaaaaaaaaaaaaaaaaaaaaaaaaaaaaaaaaaaaaaaaaaaaaaaaaaabEadbEaaaaaab+b@b*b=b-b;a0aXa8bRbgbNbPbRbLbLbLbLbLbLbLbLbLbLbLbLbSbSbSbSbSbSbSbSbSbSbSbjblblblblblblblbTbTbTbUbUbUbUbVbVbVbVb:b>b,b<b1b2b3bkb4bxb5b6b7b8b9b0aaaaaaa2aebEaaaaaaaaaaaaaaaaaaaaaaaaaaaaaaaaaaaaaaaaaaaaaaaaaaaaaaaaaaaaaaaaaaaaaaaaaaaaaaaaaaaaaaaaaaaaaaaaaaaaaaaaaaaaaaaaaaaaaaaaaaaaaaaaaaaaaaaaaaaaaaaaaaaaaaaaaaaaaaaaaaaaaaaaaaaa",
"aaaaaaaaaaaaaaaaaaaaaaaaaaaaaaaaaaaaaaaaaaaaaaaaaaaaaaaaaaaaaaaaaaaaaaaaaaaaaaaaaaaaaaaaaaaaaaaaaaaaaaaaaaaaaaaaaaaaaaaaaaaaaaaaaaaaaaaaaaaaaaaaaaaaaaaaaaaaaaaaaaaaaaabaLcaaaaaaacbcccdceaWcfaXcgchcicjckclclbLbLbLbLbLbLbLbLbLbLbLbLbLbLbLbLbLbLbSbSbSbSbSbSbSbSbSbSbjblblblblblblblbTbTbUbUbUbUbUbVbVbVb:b>b>cmcmcmcnbZcocpcqcrbxa@csctcucvaaaaaabEaLabaaaaaaaaaaaaaaaaaaaaaaaaaaaaaaaaaaaaaaaaaaaaaaaaaaaaaaaaaaaaaaaaaaaaaaaaaaaaaaaaaaaaaaaaaaaaaaaaaaaaaaaaaaaaaaaaaaaaaaaaaaaaaaaaaaaaaaaaaaaaaaaaaaaaaaaaaaaaaaaaaaaaaa",
"aaaaaaaaaaaaaaaaaaaaaaaaaaaaaaaaaaaaaaaaaaaaaaaaaaaaaaaaaaaaaaaaaaaaaaaaaaaaaaaaaaaaaaaaaaaaaaaaaaaaaaaaaaaaaaaaaaaaaaaaaaaaaaaaaaaaaaaaaaaaaaaaaaaaaaaaaaaaaaaaaabFaLaaaaaacwcxcyczbabacAbRcBcCcDcEcEcEcEcEcEcEcEcEclclclclbLbLbLbLbLbLbLbLbLbLbLbLbLbSbSbSbSbSbSbSbSbSbSbjblblblblblblblbTbTbUbUbUbUbVbVbVbVb:b>b>cmcmcmb2b2b3cFcGcHb3a+cIcJcKcLcMaaaaaaacacaKaaaaaaaaaaaaaaaaaaaaaaaaaaaaaaaaaaaaaaaaaaaaaaaaaaaaaaaaaaaaaaaaaaaaaaaaaaaaaaaaaaaaaaaaaaaaaaaaaaaaaaaaaaaaaaaaaaaaaaaaaaaaaaaaaaaaaaaaaaaaaaaaaaaaaaaaaaaaaaaa",
"aaaaaaaaaaaaaaaaaaaaaaaaaaaaaaaaaaaaaaaaaaaaaaaaaaaaaaaaaaaaaaaaaaaaaaaaaaaaaaaaaaaaaaaaaaaaaaaaaaaaaaaaaaaaaaaaaaaaaaaaaaaaaaaaaaaaaaaaaaaaaaaaaaaaaaaaaaaaabaeaaaaaacNcOcPcQcRcScTbPbPcUcVcVcVcVcVcVcVcVcVcVcVcVcVcEcEcEcEcEclclclbLbLbLbLbLbLbLbLbLbLbLbSbSbSbSbSbSbSbSbSbjbkblblblblblblbTbTbUbUbUbUbUbVbVbVb:b>b>cmcmcmcmb2cWcWcWcXcYcZcmc0c1c2c3c4c5aaaaaaaeabaaaaaaaaaaaaaaaaaaaaaaaaaaaaaaaaaaaaaaaaaaaaaaaaaaaaaaaaaaaaaaaaaaaaaaaaaaaaaaaaaaaaaaaaaaaaaaaaaaaaaaaaaaaaaaaaaaaaaaaaaaaaaaaaaaaaaaaaaaaaaaaaaaaaaaaaaaaa",
"aaaaaaaaaaaaaaaaaaaaaaaaaaaaaaaaaaaaaaaaaaaaaaaaaaaaaaaaaaaaaaaaaaaaaaaaaaaaaaaaaaaaaaaaaaaaaaaaaaaaaaaaaaaaaaaaaaaaaaaaaaaaaaaaaaaaaaaaaaaaaaaaaaaaaaaacaaLaaaaabc6c7c8c9c#cTc.c+cUcVcVcVcVcVcVcVcVcVcVcVcVcVcVcVcVcVcVcVcVcVcEcEcEclclclbLbLbLbLbLbLbLbLbLbLbLbSbSbSbSbSbSbSbSbjblblblblblblbTbTbTbUbUbUbUbVbVbVb:b>b>cmcmcmcmb2b2cWcWcWcWc@cZc*c=c0cIc-c;c:caaaaaaLcaaaaaaaaaaaaaaaaaaaaaaaaaaaaaaaaaaaaaaaaaaaaaaaaaaaaaaaaaaaaaaaaaaaaaaaaaaaaaaaaaaaaaaaaaaaaaaaaaaaaaaaaaaaaaaaaaaaaaaaaaaaaaaaaaaaaaaaaaaaaaaaaaaaaaaaaa",
"aaaaaaaaaaaaaaaaaaaaaaaaaaaaaaaaaaaaaaaaaaaaaaaaaaaaaaaaaaaaaaaaaaaaaaaaaaaaaaaaaaaaaaaaaaaaaaaaaaaaaaaaaaaaaaaaaaaaaaaaaaaaaaaaaaaaaaaaaaaaaaaaaaaaaccaaaaac>c,c<c1cRc2c+c+c3c4c4c4c4c4c4c4c4c4c4c4c4c4c4c4c4cVcVcVcVcVcVcVcVcVcVcVcEcEcEclclbLbLbLbLbLbLbLbLbLbLbLbSbSbSbSbSbSbSbSbjblblblblblblbTbTbUbUbUbUbVbVbVb:b>b>cmcmcmcmb2b2cWcWcWcWc5c6c7cZc8cqc9c0dadbdcaaaabEbFaaaaaaaaaaaaaaaaaaaaaaaaaaaaaaaaaaaaaaaaaaaaaaaaaaaaaaaaaaaaaaaaaaaaaaaaaaaaaaaaaaaaaaaaaaaaaaaaaaaaaaaaaaaaaaaaaaaaaaaaaaaaaaaaaaaaaaaaaaaaaaaaaaaa",
"aaaaaaaaaaaaaaaaaaaaaaaaaaaaaaaaaaaaaaaaaaaaaaaaaaaaaaaaaaaaaaaaaaaaaaaaaaaaaaaaaaaaaaaaaaaaaaaaaaaaaaaaaaaaaaaaaaaaaaaaaaaaaaaaaaaaaaaaaaaaaaaKaLabaaaadddedfdgdhdidjc3c4c4c4dkdkdkdkdkdkdkdkdkdkdkdkc4c4c4c4c4c4c4c4c4cVcVcVcVcVcVcVcVcVcEcEcEclclbLbLbLbLbLbLbLbLbLbSbSbSbSbSbSbSbSbjblblblblblblbTbTbUbUbUbUbVbVbVb:b>b>cmcmcmcmb2b2cWcWcWcWc5c6dldlc7c*dma5cIdndodpaaaaaaaLdqaaaaaaaaaaaaaaaaaaaaaaaaaaaaaaaaaaaaaaaaaaaaaaaaaaaaaaaaaaaaaaaaaaaaaaaaaaaaaaaaaaaaaaaaaaaaaaaaaaaaaaaaaaaaaaaaaaaaaaaaaaaaaaaaaaaaaaaaaaaaaa",
"aaaaaaaaaaaaaaaaaaaaaaaaaaaaaaaaaaaaaaaaaaaaaaaaaaaaaaaaaaaaaaaaaaaaaaaaaaaaaaaaaaaaaaaaaaaaaaaaaaaaaaaaaaaaaaaaaaaaaaaaaaaaaaaaaaaaaaaaaaaaaLaaaaaadrdsdtdgc2c+dudkdkdkdkdkdkdkdkdkdkdkdkdkdkdkdkdkdkdkdkdkdkdkdkdkc4c4c4c4c4c4cVcVcVcVcVcVcVcVcEcEclclbLbLbLbLbLbLbLbLbLbSbSbSbSbSbSbSbSbkblblblblblbTbTbUbUbUbUbVbVbVb:b>b>cmcmcmcmb2b2cWcWcWcWc5c6dldldldldvdwdxdydzdAdBaaaaaaaLdqaaaaaaaaaaaaaaaaaaaaaaaaaaaaaaaaaaaaaaaaaaaaaaaaaaaaaaaaaaaaaaaaaaaaaaaaaaaaaaaaaaaaaaaaaaaaaaaaaaaaaaaaaaaaaaaaaaaaaaaaaaaaaaaaaaaaaaaaaa",
"aaaaaaaaaaaaaaaaaaaaaaaaaaaaaaaaaaaaaaaaaaaaaaaaaaaaaaaaaaaaaaaaaaaaaaaaaaaaaaaaaaaaaaaaaaaaaaaaaaaaaaaaaaaaaaaaaaaaaaaaaaaaaaaaaaaaaaaaaLaaaacadCdDdEa9c4aUdFdkdkdkdkdkdkdkdkdkdkdkdkdkdkdkdkdkdkdkdkdkdkdkdkdkdkdkdkdkdkdkc4c4c4c4c4cVcVcVcVcVcVcVcEcEcEclbLbLbLbLbLbLbLbLbLbSbSbSbSbSbSbSbjblblblblblblbTbTbUbUbUbUbVbVb:b>b>cmcmcmcmb2b2cWcWcWcWc5dldldldldGdGdHdwdIdJdKdLdMaeaaaadNaaaaaaaaaaaaaaaaaaaaaaaaaaaaaaaaaaaaaaaaaaaaaaaaaaaaaaaaaaaaaaaaaaaaaaaaaaaaaaaaaaaaaaaaaaaaaaaaaaaaaaaaaaaaaaaaaaaaaaaaaaaaaaaaaaaaaaaa",
"aaaaaaaaaaaaaaaaaaaaaaaaaaaaaaaaaaaaaaaaaaaaaaaaaaaaaaaaaaaaaaaaaaaaaaaaaaaaaaaaaaaaaaaaaaaaaaaaaaaaaaaaaaaaaaaaaaaaaaaaaaaaaaaaaaaaacabaadOdPdQbadRducCdkdkdkdkdkdkdkdkdkdSdSdSdSdSdSdSdSdSdSdSdSdSdSdkdkdkdkdkdkdkdkdkdkdkdkdkdkc4c4c4c4c4cVcVcVcVcVcVcEcEcEclbLbLbLbLbLbLbLbLbSbSbSbSbSbSbSbjblblblblblblbTbTbUbUbUbUbVbVb:b>b>cmcmcmcmb2cWcWcWcWcWc5dldldldldGdGdGdGdTdUdVc0dWdXaeaaabacaaaaaaaaaaaaaaaaaaaaaaaaaaaaaaaaaaaaaaaaaaaaaaaaaaaaaaaaaaaaaaaaaaaaaaaaaaaaaaaaaaaaaaaaaaaaaaaaaaaaaaaaaaaaaaaaaaaaaaaaaaaaaaaaaaaa",
"aaaaaaaaaaaaaaaaaaaaaaaaaaaaaaaaaaaaaaaaaaaaaaaaaaaaaaaaaaaaaaaaaaaaaaaaaaaaaaaaaaaaaaaaaaaaaaaaaaaaaaaaaaaaaaaaaaaaaaaaaaaaaaaacacaaaaadYdZbad0d1d2dkdkdkdkdkdSdSdSdSdSdSdSdSdSdSdSdSdSdSdSdSdSdSdSdSdSdSdSdSdSdSdSdkdkdkdkdkdkdkdkdkdkc4c4c4c4cVcVcVcVcVcVcEcEclclbLbLbLbLbLbLbLbLbSbSbSbSbSbSbSbkblblblblblbTbTbUbUbUbUbVbVb:b>b>cmcmcmcmb2cWcWcWcWcWc6dldldldldGdGdGdGdGdUd3d4d5d6d7aaaacacaaaaaaaaaaaaaaaaaaaaaaaaaaaaaaaaaaaaaaaaaaaaaaaaaaaaaaaaaaaaaaaaaaaaaaaaaaaaaaaaaaaaaaaaaaaaaaaaaaaaaaaaaaaaaaaaaaaaaaaaaaaaaaaaa",
"aaaaaaaaaaaaaaaaaaaaaaaaaaaaaaaaaaaaaaaaaaaaaaaaaaaaaaaaaaaaaaaaaaaaaaaaaaaaaaaaaaaaaaaaaaaaaaaaaaaaaaaaaaaaaaaaaaaaaaaaaaaaabaLaaaad8d9a9dEd1dudkdkdkdSdSdSdSdSdSdSdSdSdSdSdSdScTcTcTcTcTcTcTcTdSdSdSdSdSdSdSdSdSdSdSdSdSdSdkdkdkdkdkdkdkdkdkc4c4c4cVcVcVcVcVcVcEcEclbLbLbLbLbLbLbLbLbSbSbSbSbSbSbSbjblblblblblbTbTbUbUbUbUbVbVb:b>b>cmcmcmcmb2cWcWcWcWc5c6dldldldldGdGdGdGd#dIdUd3d.d+d@d*aaaadNabaaaaaaaaaaaaaaaaaaaaaaaaaaaaaaaaaaaaaaaaaaaaaaaaaaaaaaaaaaaaaaaaaaaaaaaaaaaaaaaaaaaaaaaaaaaaaaaaaaaaaaaaaaaaaaaaaaaaaaaaaaaa",
"aaaaaaaaaaaaaaaaaaaaaaaaaaaaaaaaaaaaaaaaaaaaaaaaaaaaaaaaaaaaaaaaaaaaaaaaaaaaaaaaaaaaaaaaaaaaaaaaaaaaaaaaaaaaaaaaaaaaaaaaaaaLaaaad=d-d;c#d1dudkdkdSdSdSdSdSdSdSdScTcTcTcTcTcTcTcTcTcTcTcTcTcTcTcTcTcTcTcTcTcTcTcTdSdSdSdSdSdSdSdSdSdkdkdkdkdkdkdkdkc4c4c4cVcVcVcVcVcVcEcEclbLbLbLbLbLbLbLbSbSbSbSbSbSbSbjblblblblblbTbTbUbUbUbUbVbVb:b>b>cmcmcmb2b2cWcWcWcWc5c6dldldldldGdGdGdGd#dIdId:d>d,d.d<d1aaaaaLaaaaaaaaaaaaaaaaaaaaaaaaaaaaaaaaaaaaaaaaaaaaaaaaaaaaaaaaaaaaaaaaaaaaaaaaaaaaaaaaaaaaaaaaaaaaaaaaaaaaaaaaaaaaaaaaaaaaaaaaaa",
"aaaaaaaaaaaaaaaaaaaaaaaaaaaaaaaaaaaaaaaaaaaaaaaaaaaaaaaaaaaaaaaaaaaaaaaaaaaaaaaaaaaaaaaaaaaaaaaaaaaaaaaaaaaaaaaaaaaaaacacaaad2d3d4cRcUd5dSdSdSdSdSdSdSdScTcTcTcTcTcTcTcTcTcTcTd6d6d6d6d6d6d6d6d6d6d6cTcTcTcTcTcTcTcTcTcTcTdSdSdSdSdSdSdSdkdkdkdkdkdkdkc4c4c4cVcVcVcVcVcEcEclclbLbLbLbLbLbLbLbSbSbSbSbSbSbjblblblblblbTbTbUbUbUbUbVbVb:b>b>cmcmcmb2b2cWcWcWcWc5dldldldldGdGdGdGdGd#dIdId7d3d8d9d0eaebaaa2caaaaaaaaaaaaaaaaaaaaaaaaaaaaaaaaaaaaaaaaaaaaaaaaaaaaaaaaaaaaaaaaaaaaaaaaaaaaaaaaaaaaaaaaaaaaaaaaaaaaaaaaaaaaaaaaaaaaaaa",
"aaaaaaaaaaaaaaaaaaaaaaaaaaaaaaaaaaaaaaaaaaaaaaaaaaaaaaaaaaaaaaaaaaaaaaaaaaaaaaaaaaaaaaaaaaaaaaaaaaaaaaaaaaaaaaaaaaaaadaaaaecedeecTc+dkdSdSdSdSdScTcTcTcTcTcTcTcTd6d6efefefefefefefefefefefefefefefefefefefefefd6d6cTcTcTcTcTcTcTdSdSdSdSdSdSdkdkdkdkdkdkdkc4c4c4cVcVcVcVcVcEcEclbLbLbLbLbLbLbLbSbSbSbSbSbSbjblblblblblbTbTbUbUbUbVbVbVb:b>b>cmcmcmb2b2cWcWcWcWc6dldldldldGdGdGdGdGdIdIdId7egeheiejekelaaaaemdqaaaaaaaaaaaaaaaaaaaaaaaaaaaaaaaaaaaaaaaaaaaaaaaaaaaaaaaaaaaaaaaaaaaaaaaaaaaaaaaaaaaaaaaaaaaaaaaaaaaaaaaaaaaaaaaaaa",
"aaaaaaaaaaaaaaaaaaaaaaaaaaaaaaaaaaaaaaaaaaaaaaaaaaaaaaaaaaaaaaaaaaaaaaaaaaaaaaaaaaaaaaaaaaaaaaaaaaaaaaaaaaaaaaaacaenaaeoepbaeqaUerdSdSdSdScTcTcTcTcTcTcTd6efefefefefefefefefefefefefefefefefefefefefefefefefefefefefefd6d6cTcTcTcTcTcTdSdSdSdSdSdSdkdkdkdkdkdkc4c4c4cVcVcVcVcEcEclbLbLbLbLbLbLbLbSbSbSbSbSbSbjblblblblblbTbTbUbUbUbVbVbVb:b>cmcmcmcmb2cWcWcWcWc5c6dldldldldGdGdGdGd#dIdId7egegesetdxd+euevaaaacaaaaaaaaaaaaaaaaaaaaaaaaaaaaaaaaaaaaaaaaaaaaaaaaaaaaaaaaaaaaaaaaaaaaaaaaaaaaaaaaaaaaaaaaaaaaaaaaaaaaaaaaaaaaaaaaa",
"aaaaaaaaaaaaaaaaaaaaaaaaaaaaaaaaaaaaaaaaaaaaaaaaaaaaaaaaaaaaaaaaaaaaaaaaaaaaaaaaaaaaaaaaaaaaaaaaaaaaaaaaaaaaaaaeaaaLewexbacCeydSdSdSdScTcTcTcTcTd6d6efefefefefefefefefefefefefefefefefefefefefefefefefefefefefefefefefefefefefd6cTcTcTcTcTdSdSdSdSdSdSdkdkdkdkdkdkc4c4cVcVcVcVcVcEclclbLbLbLbLbLbLbSbSbSbSbSbSbjblblblblblbTbTbUbUbUbVbVbVb>b>cmcmcmcmb2cWcWcWcWc5c6dldldldGdGdGdGdGd#dIdId7egeieiezeAeBeCeDeEaaaeaKaaaaaaaaaaaaaaaaaaaaaaaaaaaaaaaaaaaaaaaaaaaaaaaaaaaaaaaaaaaaaaaaaaaaaaaaaaaaaaaaaaaaaaaaaaaaaaaaaaaaaaaaaaaa",
"aaaaaaaaaaaaaaaaaaaaaaaaaaaaaaaaaaaaaaaaaaaaaaaaaaaaaaaaaaaaaaaaaaaaaaaaaaaaaaaaaaaaaaaaaaaaaaaaaaaaaaaaaacaabaaeFeGeea8cCdSdSdSdScTcTcTcTcTd6efefefefefefefefefefefeHeHeHeHeHeHeHeHeHeHeHeHeHeHeHeHeHeHeHeHefefefefefefefefefefefefd6cTcTcTcTcTdSdSdSdSdkdkdkdkdkdkc4c4c4cVcVcVcVcEcEclbLbLbLbLbLbLbSbSbSbSbSbSbjblblblblblbTbTbUbUbUbVbVbVb>b>cmcmcmb2b2cWcWcWcWc5dldldldldGdGdGdGdGdIdId7d7egeieieieIegc0eJeKaaeLcaaaaaaaaaaaaaaaaaaaaaaaaaaaaaaaaaaaaaaaaaaaaaaaaaaaaaaaaaaaaaaaaaaaaaaaaaaaaaaaaaaaaaaaaaaaaaaaaaaaaaaaaaaa",
"aaaaaaaaaaaaaaaaaaaaaaaaaaaaaaaaaaaaaaaaaaaaaaaaaaaaaaaaaaaaaaaaaaaaaaaaaaaaaaaaaaaaaaaaaaaaaaaaaaaaaaaaaLaaaKeweMcSaUerdSdSdScTcTcTcTd6efefefefefefefefefefeHeHeHeHeHeHeHeHeHeNeNeNeNeNeNeNeNeNeNeHeHeHeHeHeHeHeHeHeHefefefefefefefefefd6cTcTcTcTcTdSdSdSdSdkdkdkdkdkdkc4c4cVcVcVcVcEcEclbLbLbLbLbLbLbSbSbSbSbSbSbjblblblblblbTbUbUbUbUbVbVb:b>b>cmcmcmb2b2cWcWcWc5c6dldldldldGdGdGdGd#dIdId7egegeieieieOePeQeReScaaaaeaaaaaaaaaaaaaaaaaaaaaaaaaaaaaaaaaaaaaaaaaaaaaaaaaaaaaaaaaaaaaaaaaaaaaaaaaaaaaaaaaaaaaaaaaaaaaaaaaaaaaaaa",
"aaaaaaaaaaaaaaaaaaaaaaaaaaaaaaaaaaaaaaaaaaaaaaaaaaaaaaaaaaaaaaaaaaaaaaaaaaaaaaaaaaaaaaaaaaaaaaaaaaaaabaLaaeTeUeecTeVdSdSdScTcTcTcTd6efefefefefefefefeHeHeHeHeHeHeNeNeNeNeNeNeNeNeNeNeNeNeNeNeNeNeNeNeNeNeNeNeNeNeHeHeHeHeHeHefefefefefefefefefcTcTcTcTdSdSdSdSdSdkdkdkdkdkc4c4cVcVcVcVcVcEclbLbLbLbLbLbLbSbSbSbSbSbSbjblblblblbTbTbUbUbUbUbVbVb:b>b>cmcmcmb2cWcWcWcWc5c6dldldldGdGdGdGdGdIdIdId7egeieieieWeWeXeYeZe0e1aaacabaaaaaaaaaaaaaaaaaaaaaaaaaaaaaaaaaaaaaaaaaaaaaaaaaaaaaaaaaaaaaaaaaaaaaaaaaaaaaaaaaaaaaaaaaaaaaaaaaaaa",
"aaaaaaaaaaaaaaaaaaaaaaaaaaaaaaaaaaaaaaaaaaaaaaaaaaaaaaaaaaaaaaaaaaaaaaaaaaaaaaaaaaaaaaaaaaaaaaaaaacaaaaae2e3baaUerdSdScTcTcTcTd6efefefefefefefeHeHeHeHeHeNeNeNeNeNeNeNeNeNeNeNeNeNeNeNeNeNeNeNeNeNeNeNeNeNeNeNeNeNeNeNeNeHeHeHeHeHefefefefefefefefcTcTcTcTdSdSdSdSdkdkdkdkdkc4c4c4cVcVcVcVcEclbLbLbLbLbLbLbSbSbSbSbSbSbjblblblblbTbTbUbUbUbVbVbVb>b>cmcmcmb2b2cWcWcWcWc6dldldldldGdGdGdGd#dIdId7d7egeieieieWeWe4ePe5e6e7aaaacaaaaaaaaaaaaaaaaaaaaaaaaaaaaaaaaaaaaaaaaaaaaaaaaaaaaaaaaaaaaaaaaaaaaaaaaaaaaaaaaaaaaaaaaaaaaaaaaaaa",
"aaaaaaaaaaaaaaaaaaaaaaaaaaaaaaaaaaaaaaaaaaaaaaaaaaaaaaaaaaaaaaaaaaaaaaaaaaaaaaaaaaaaaaaaaaaaaaaaaLaae8e9bacAe#dSdSdScTcTcTd6efefefefefefefeHeHeHeHeNeNeNeNeNeNeNeNeNeNeNeNeNeNeNeNeNeNeNeNeNeNeNeNeNeNeNeNeNeNeNeNeNeNeNeNeNeNeHeHeHeHefefefefefefefd6cTcTcTcTdSdSdSdSdkdkdkdkdkc4c4cVcVcVcVcEclbLbLbLbLbLbLbSbSbSbSbSbSbkblblblblbTbTbUbUbUbVbVbVb>b>cmcmcmb2b2cWcWcWc5c6dldldldldGdGdGdGd#dIdId7egeieieieWeWeYeYe.e+e@e*e=aaaeaaaaaaaaaaaaaaaaaaaaaaaaaaaaaaaaaaaaaaaaaaaaaaaaaaaaaaaaaaaaaaaaaaaaaaaaaaaaaaaaaaaaaaaaaaaaaaaa",
"aaaaaaaaaaaaaaaaaaaaaaaaaaaaaaaaaaaaaaaaaaaaaaaaaaaaaaaaaaaaaaaaaaaaaaaaaaaaaaaaaaaaaaaaaaaaaaadaae-dQeed5erdSdScTcTcTcTefefefefefefefeHeHeHeHeNeNeNeNeNeNeNeNeNeNeNeNeNeNeNeNc2c2c2c2c2c2c2c2c2c2c2eNeNeNeNeNeNeNeNeNeNeNeNeNeNeNeNeHeHeHeHefefefefefefd6cTcTcTdSdSdSdSdkdkdkdkdkc4c4cVcVcVcVcEclbLbLbLbLbLbLbSbSbSbSbSbSbkblblblblbTbTbUbUbUbVbVb:b>b>cmcmcmb2cWcWcWcWc5dldldldldGdGdGdGd#dIdId7d7egeieieieWeWeYeYe;e.e:e>e,aaaeaaaaaaaaaaaaaaaaaaaaaaaaaaaaaaaaaaaaaaaaaaaaaaaaaaaaaaaaaaaaaaaaaaaaaaaaaaaaaaaaaaaaaaaaaaaaaa",
"aaaaaaaaaaaaaaaaaaaaaaaaaaaaaaaaaaaaaaaaaaaaaaaaaaaaaaaaaaaaaaaaaaaaaaaaaaaaaaaaaaaaaaaaaaabacaae<e1cSe2dSdSdScTcTcTd6efefefefefefeHeHeHeNeNeNeNeNeNeNeNeNeNeNeNc2c2c2c2c2e3e3e3e3e3e3e3e3e3e3e3e3e3e3c2c2c2c2c2eNeNeNeNeNeNeNeNeNeNeNeNeHeHeHeHefefefefefefcTcTcTcTdSdSdSdkdkdkdkdkc4c4cVcVcVcVcEclbLbLbLbLbLbLbSbSbSbSbSbjblblblblblbTbUbUbUbVbVbVb:b>cmcmcmb2b2cWcWcWcWc6dldldldldGdGdGdGd#dIdId7egeieieieWeWeYeYe4e5e6e7e8e9aabEabaaaaaaaaaaaaaaaaaaaaaaaaaaaaaaaaaaaaaaaaaaaaaaaaaaaaaaaaaaaaaaaaaaaaaaaaaaaaaaaaaaaaaaaaaa",
"aaaaaaaaaaaaaaaaaaaaaaaaaaaaaaaaaaaaaaaaaaaaaaaaaaaaaaaaaaaaaaaaaaaaaaaaaaaaaaaaaaaaaaaacaaaaae0facAe#dSdSdScTcTd6efefefefefefeHeHeHeNeNeNeNeNeNeNeNeNeNeNc2c2c2e3e3e3e3e3e3e3e3e3e3e3e3e3e3e3e3e3e3e3e3e3e3e3e3e3c2c2c2eNeNeNeNeNeNeNeNeNeNeHeHeHefefefefefefd6cTcTcTdSdSdSdSdkdkdkdkc4c4cVcVcVcVcEclbLbLbLbLbLbLbSbSbSbSbSbjblblblblbTbTbUbUbUbVbVbVb>b>cmcmcmb2cWcWcWcWc5c6dldldldGdGdGdGd#dIdId7d7egeieieieWeWeYeYe5e5fbfcfdfeaaaacaaaaaaaaaaaaaaaaaaaaaaaaaaaaaaaaaaaaaaaaaaaaaaaaaaaaaaaaaaaaaaaaaaaaaaaaaaaaaaaaaaaaaaaaa",
"aaaaaaaaaaaaaaaaaaaaaaaaaaaaaaaaaaaaaaaaaaaaaaaaaaaaaaaaaaaaaaaaaaaaaaaaaaaaaaaaaaaaaaacaafffgeeeyc3dSdScTcTcTd6efefefefefeHeHeHeNeNeNeNeNeNeNeNeNeNc2c2e3e3e3e3e3e3e3e3e3e3fhfhfhfhfhfhfhfhfhfhfhfhe3e3e3e3e3e3e3e3e3e3c2c2c2eNeNeNeNeNeNeNeNeNeHeHeHefefefefefefcTcTcTdSdSdSdSdkdkdkdkc4c4cVcVcVcVcEclbLbLbLbLbLbLbSbSbSbSbSbjblblblblbTbTbUbUbUbVbVb:b>b>cmcmcmb2cWcWcWcWc6dldldldldGdGdGdGd#dIdId7egeieieieWeWeYeYe4e5e5fie.fjfkflaaacaaaaaaaaaaaaaaaaaaaaaaaaaaaaaaaaaaaaaaaaaaaaaaaaaaaaaaaaaaaaaaaaaaaaaaaaaaaaaaaaaaaaaa",
"aaaaaaaaaaaaaaaaaaaaaaaaaaaaaaaaaaaaaaaaaaaaaaaaaaaaaaaaaaaaaaaaaaaaaaaaaaaaaaaaaaaaaeaafmfneeaUfodSdScTcTcTefefefefefefeHeHeHeNeNeNeNeNeNeNeNc2c2e3e3e3e3e3e3e3e3fhfhfhfhfhfhfhfhfhfhfhfhfhfhfhfhfhfhfhfhfhfhfhe3e3e3e3e3e3e3c2c2eNeNeNeNeNeNeNeNeNeHeHeHefefefefefd6cTcTcTdSdSdSdkdkdkdkc4c4cVcVcVcVcEclbLbLbLbLbLbLbSbSbSbSbSbkblblblblbTbUbUbUbVbVbVb>b>cmcmcmb2b2cWcWcWc5c6dldldldGdGdGdGd#dIdId7d7egeieieieWeWeYeYe5e5fpfqfrfsftfuaaadaaaaaaaaaaaaaaaaaaaaaaaaaaaaaaaaaaaaaaaaaaaaaaaaaaaaaaaaaaaaaaaaaaaaaaaaaaaaaaaaaaaa",
"aaaaaaaaaaaaaaaaaaaaaaaaaaaaaaaaaaaaaaaaaaaaaaaaaaaaaaaaaaaaaaaaaaaaaaaaaaaaaaaaaaadaafvfwbacBdSdSdScTcTcTefefefefefeHeHeHeNeNeNeNeNeNeNeNc2c2e3e3e3e3e3e3fhfhfhfhfhfhfhfhfhfhfhfhfhfhfhfhfhfhfhfhfhfhfhfhfhfhfhfhfhfhe3e3e3e3e3e3c2c2eNeNeNeNeNeNeNeNeHeHeHefefefefefd6cTcTcTdSdSdSdkdkdkdkc4c4cVcVcVcVcEclbLbLbLbLbLbSbSbSbSbSbjblblblblbTbTbUbUbUbVbVb:b>b>cmcmcmb2cWcWcWcWc5dldldldldGdGdGdGd#dIdId7egeieieieWeWeYeYe4e5fpfpfqfrfdfxfyaaadaaaaaaaaaaaaaaaaaaaaaaaaaaaaaaaaaaaaaaaaaaaaaaaaaaaaaaaaaaaaaaaaaaaaaaaaaaaaaaaaaa",
"aaaaaaaaaaaaaaaaaaaaaaaaaaaaaaaaaaaaaaaaaaaaaaaaaaaaaaaaaaaaaaaaaaaaaaaaaaaaaaaaadaafzfAaWaUdSdSdScTcTd6efefefefefeHeHeNeNeNeNeNeNeNeNc2c2e3e3e3e3e3fhfhfhfhfhfhfhfhfhfhfhfBfBfBfBfBfBfBfBfBfBfBfBfBfBfhfhfhfhfhfhfhfhfhfhfhe3e3e3e3e3e3c2eNeNeNeNeNeNeNeNeHeHeHefefefefd6cTcTcTdSdSdSdkdkdkdkc4c4cVcVcVcVcEclbLbLbLbLbLbSbSbSbSbSbjblblblblbTbTbUbUbUbVbVb:b>cmcmcmb2b2cWcWcWc5c6dldldldGdGdGdGd#dIdId7egegeieieWeWeYeYe4e5e5fpfqfqfCfDfEfFaaadaaaaaaaaaaaaaaaaaaaaaaaaaaaaaaaaaaaaaaaaaaaaaaaaaaaaaaaaaaaaaaaaaaaaaaaaaaaaaaaa",
"aaaaaaaaaaaaaaaaaaaaaaaaaaaaaaaaaaaaaaaaaaaaaaaaaaaaaaaaaaaaaaaaaaaaaaaaaaaaaaadaafGfHfIeVdSdSdScTcTd6efefefefefeHeHeNeNeNeNeNeNeNc2c2e3e3e3e3e3fhfhfhfhfhfhfhfhfBfBfBfBfBfBfBfBfBfBfBfBfBfBfBfBfBfBfBfBfBfBfBfBfhfhfhfhfhfhfhfhfhe3e3e3e3c2c2eNeNeNeNeNeNeNeHeHeHefefefefefcTcTcTdSdSdSdkdkdkdkc4c4cVcVcVcEcEclbLbLbLbLbLbSbSbSbSbSbkblblblblbTbUbUbUbVbVbVb>b>cmcmcmb2cWcWcWcWc5dldldldldGdGdGdGd#dIdId7egeieieieWeWeYeYe4e5fpfpfqfqfJeWfKfLaaadaaaaaaaaaaaaaaaaaaaaaaaaaaaaaaaaaaaaaaaaaaaaaaaaaaaaaaaaaaaaaaaaaaaaaaaaaaaaaa",
"aaaaaaaaaaaaaaaaaaaaaaaaaaaaaaaaaaaaaaaaaaaaaaaaaaaaaaaaaaaaaaaaaaaaaaaaaaaaadaafMfNfOdudSdScTcTcTd6efefefefeHeHeHeNeNeNeNeNeNeNc2e3e3e3e3e3fhfhfhfhfhfhfhfBfBfBfBfBfBfBfBfBfBfBfBfBfBfBfBfBfBfBfBfBfBfBfBfBfBfBfBfBfBfBfhfhfhfhfhfhfhe3e3e3e3c2c2eNeNeNeNeNeNeNeHeHefefefefefcTcTcTdSdSdSdkdkdkdkc4c4cVcVcVcEclbLbLbLbLbLbSbSbSbSbSbjblblblblbTbTbUbUbUbVbVb:b>cmcmcmb2b2cWcWcWc5c6dldldldGdGdGdGd#dIdId7egegeieieWeWeYeYe4e5e5fpfqfqfqfJe;fPfQaaemaKaaaaaaaaaaaaaaaaaaaaaaaaaaaaaaaaaaaaaaaaaaaaaaaaaaaaaaaaaaaaaaaaaaaaaaaaaa",
"aaaaaaaaaaaaaaaaaaaaaaaaaaaaaaaaaaaaaaaaaaaaaaaaaaaaaaaaaaaaaaaaaaaaaaaaaaaeaafRbafScUdSdSdScTcTd6efefefefeHeHeHeNeNeNeNeNeNc2c2e3e3e3e3fhfhfhfhfhfhfBfBfBfBfBfBfBfBfBfBfBfBfBfBfBfBfBfBfBfBfBfBfBfBfBfBfBfBfBfBfBfBfBfBfBfBfhfhfhfhfhfhfhe3e3e3e3c2eNeNeNeNeNeNeNeHeHefefefefefcTcTcTdSdSdSdkdkdkdkc4c4cVcVcVcEclbLbLbLbLbLbSbSbSbSbSbjblblblblbTbUbUbUbVbVbVb>b>cmcmcmb2cWcWcWcWc5dldldldldGdGdGdGdIdIdId7egeieieieWeWeYeYe5e5fpfqfqfqfqfTe.fUfVaadNdqaaaaaaaaaaaaaaaaaaaaaaaaaaaaaaaaaaaaaaaaaaaaaaaaaaaaaaaaaaaaaaaaaaaaaaaa",
"aaaaaaaaaaaaaaaaaaaaaaaaaaaaaaaaaaaaaaaaaaaaaaaaaaaaaaaaaaaaaaaaaaaaaadqaeaafWdgfXdFdSdSdScTcTd6efefefefeHeHeNeNeNeNeNeNeNc2e3e3e3e3fhfhfhfhfhfhfBfBfBfBfBfBfBfBfBfBfBfBfBfBfBfBfBfBfBfBfBfBfBfBfBfBfBfBfBfBfBfBfBfBfBfBfBfBfBfBfBfhfhfhfhfhe3e3e3e3c2c2eNeNeNeNeNeNeHeHefefefefefcTcTcTdSdSdSdkdkdkdkc4cVcVcVcVcEclbLbLbLbLbLbSbSbSbSbSblblblblbTbTbUbUbUbVbVb:b>cmcmcmb2b2cWcWcWc5c6dldldldGdGdGdGd#dIdId7egegeieieWeWeYeYe4e5e5fpfqfqfqfYfZf0f1f2aaemabaaaaaaaaaaaaaaaaaaaaaaaaaaaaaaaaaaaaaaaaaaaaaaaaaaaaaaaaaaaaaaaaaaaaaa",
"aaaaaaaaaaaaaaaaaaaaaaaaaaaaaaaaaaaaaaaaaaaaaaaaaaaaaaaaaaaaaaaaaaaadqadaaf3eef4dFdSdSdScTcTd6efefefefeHeHeNeNeNeNeNeNc2c2e3e3e3fhfhfhfhfhfhfBfBfBfBfBfBfBfBfBfBfBfBfBfBfBfBf5f5f5f5f5f5f5f5f5f5f5f5fBfBfBfBfBfBfBfBfBfBfBfBfBfBfBfBfBfhfhfhfhfhe3e3e3e3c2eNeNeNeNeNeNeHeHefefefefefcTcTcTdSdSdSdkdkdkc4c4cVcVcVcEcEbLbLbLbLbLbSbSbSbSbSbjblblblblbTbUbUbUbVbVbVb>b>cmcmcmb2cWcWcWcWc6dldldldldGdGdGdGdIdId7d7egeieieieWeYeYe4e5e5fpfqfqfqfYf6fZe6f1f7aaemabaaaaaaaaaaaaaaaaaaaaaaaaaaaaaaaaaaaaaaaaaaaaaaaaaaaaaaaaaaaaaaaaaaaa",
"aaaaaaaaaaaaaaaaaaaaaaaaaaaaaaaaaaaaaaaaaaaaaaaaaaaaaaaaaaaaaaaaaaaaadaaf8eef9dFdSdSdScTcTd6efefefefeHeHeNeNeNeNeNeNc2e3e3e3e3fhfhfhfhfhfBfBfBfBfBfBfBfBfBfBfBfBfBf5f5f5f5f#f#f#f#f#f#f#f#f#f#f#f#f#f#f5f5f5f5fBfBfBfBfBfBfBfBfBfBfBfBfBfhfhfhfhfhe3e3e3e3c2eNeNeNeNeNeNeHeHefefefefefcTcTdSdSdSdkdkdkdkc4c4cVcVcVcEclbLbLbLbLbLbSbSbSbSbSbkblblblbTbTbUbUbUbVbVb:b>cmcmcmb2b2cWcWcWc5c6dldldldGdGdGdGd#dIdId7egeieieieWeWeYeYe5e5fpfpfqfqfqf6f6f.f+f@f*aaemdqaaaaaaaaaaaaaaaaaaaaaaaaaaaaaaaaaaaaaaaaaaaaaaaaaaaaaaaaaaaaaaaaaa",
"aaaaaaaaaaaaaaaaaaaaaaaaaaaaaaaaaaaaaaaaaaaaaaaaaaaaaaaaaaaaaaaaaaadaaf=dgf-dFdSdSdScTcTcTefefefefeHeHeNeNeNeNeNeNc2e3e3e3e3fhfhfhfhfBfBfBfBfBfBfBfBfBfBfBfBf5f5f5f#f#f#f#f#f#f#f#f#f#f#f#f#f#f#f#f#f#f#f#f#f#f#f5f5fBfBfBfBfBfBfBfBfBfBfBfBfhfhfhfhfhe3e3e3c2eNeNeNeNeNeNeHeHefefefefd6cTcTdSdSdSdkdkdkdkc4c4cVcVcVcEclbLbLbLbLbLbSbSbSbSbjblblblblbTbTbUbUbVbVbVb>b>cmcmcmb2cWcWcWcWc6dldldldGdGdGdGd#dIdId7egegeieieWeWeYeYe4e5e5fpfqfqfqfYf6f6f;f+f:f>aaadaaaaaaaaaaaaaaaaaaaaaaaaaaaaaaaaaaaaaaaaaaaaaaaaaaaaaaaaaaaaaaaaaa",
"aaaaaaaaaaaaaaaaaaaaaaaaaaaaaaaaaaaaaaaaaaaaaaaaaaaaaaaaaaaaaaaaf,aaf<cRf1dFdSdSdScTcTcTefefefefeHeHeNeNeNeNeNeNc2e3e3e3fhfhfhfhfhfBfBfBfBfBfBfBfBfBfBf5f5f5f#f#f#f#f#f#f#f#f#f#f#f#f#f#f#f#f#f#f#f#f#f#f#f#f#f#f#f#f#f5f5fBfBfBfBfBfBfBfBfBfBfhfhfhfhfhe3e3e3c2eNeNeNeNeNeNeHeHefefefefd6cTcTdSdSdSdkdkdkc4c4cVcVcVcEclbLbLbLbLbLbSbSbSbSbSbkblblblbTbTbUbUbUbVbVb:b>cmcmcmb2b2cWcWcWc5dldldldldGdGdGdGdIdId7d7egeieieieWeWeYe4e5e5fpfqfqfqfYf6f6f6f2f3f4f5aaadaaaaaaaaaaaaaaaaaaaaaaaaaaaaaaaaaaaaaaaaaaaaaaaaaaaaaaaaaaaaaaaa",
"aaaaaaaaaaaaaaaaaaaaaaaaaaaaaaaaaaaaaaaaaaaaaaaaaaaaaaaaaaaaaaadaaf6faf7dFdkdSdSdScTcTefefefefeHeHeNeNeNeNeNeNc2e3e3e3fhfhfhfhfhfBfBfBfBfBfBfBfBfBf5f5f#f#f#f#f#f#f#f#f#f#f#f#f#f#f#f#f#f#f#f#f#f#f#f#f#f#f#f#f#f#f#f#f#f#f5f5fBfBfBfBfBfBfBfBfBfBfhfhfhfhe3e3e3c2c2eNeNeNeNeNeHeHefefefefcTcTcTdSdSdSdkdkdkc4c4cVcVcVcEclbLbLbLbLbLbSbSbSbSbjblblblblbTbUbUbUbVbVbVb>b>cmcmcmb2cWcWcWc5c6dldldldGdGdGdGd#dIdId7egeieieieWeWeYeYe4e5fpfpfqfqfqf6f6f6f8f9f0gagbaaadaaaaaaaaaaaaaaaaaaaaaaaaaaaaaaaaaaaaaaaaaaaaaaaaaaaaaaaaaaaaaa",
"aaaaaaaaaaaaaaaaaaaaaaaaaaaaaaaaaaaaaaaaaaaaaaaaaaaaaaaaaaaaaeaagcfHgdcUdkdSdSdScTcTd6efefefeHeHeHeNeNeNeNeNc2e3e3e3fhfhfhfhfBfBfBfBfBfBfBfBfBf5f5f#f#f#f#f#f#f#f#f#f#f#f#f#f#gegegfgfgfgfgfgfgegef#f#f#f#f#f#f#f#f#f#f#f#f#f#f5f5fBfBfBfBfBfBfBfBfBfhfhfhfhe3e3e3c2c2eNeNeNeNeNeHeHefefefefcTcTcTdSdSdkdkdkdkc4cVcVcVcVcEbLbLbLbLbLbSbSbSbSbSbkblblblbTbTbUbUbUbVbVb:b>cmcmcmb2cWcWcWcWc6dldldldldGdGdGdGdIdId7egegeieieWeWeYeYe4e5e5fpfqfqfqfYf6f6f8ggf9ghgigjaaemaaaaaaaaaaaaaaaaaaaaaaaaaaaaaaaaaaaaaaaaaaaaaaaaaaaaaaaaaaaa",
"aaaaaaaaaaaaaaaaaaaaaaaaaaaaaaaaaaaaaaaaaaaaaaaaaaaaaaaaaaacaagkglfIdudkdkdSdScTcTd6efefefefeHeHeNeNeNeNeNc2e3e3e3fhfhfhfhfBfBfBfBfBfBfBfBfBf5f#f#f#f#f#f#f#f#f#f#f#gegfgfgfgfgfgfgfgfgfgfgfgfgfgfgfgfgfgfgef#f#f#f#f#f#f#f#f#f#f#f5f5fBfBfBfBfBfBfBfBfhfhfhfhe3e3e3c2eNeNeNeNeNeNeHeHefefefd6cTcTdSdSdSdkdkdkc4c4cVcVcVcEclbLbLbLbLbLbSbSbSbSbjblblblblbTbUbUbUbVbVb:b>b>cmcmb2b2cWcWcWc5c6dldldldGdGdGdGd#dIdId7egeieieieWeWeYe4e5e5fpfqfqfqfYf6f6f8gggggmgngogpaaacaaaaaaaaaaaaaaaaaaaaaaaaaaaaaaaaaaaaaaaaaaaaaaaaaaaaaaaaaa",
"aaaaaaaaaaaaaaaaaaaaaaaaaaaaaaaaaaaaaaaaaaaaaaaaaaaaaaaacaaagqgrgscCdkdkdSdScTcTcTefefefefeHeHeNeNeNeNeNc2e3e3e3fhfhfhfhfBfBfBfBfBfBfBfBf5f5f#f#f#f#f#f#f#f#f#gegfgfgfgfgfgfgfgfgtgtgtgtgtgtgtgtgtgfgfgfgfgfgfgfgff#f#f#f#f#f#f#f#f#f#f5fBfBfBfBfBfBfBfBfhfhfhfhe3e3e3c2eNeNeNeNeNeHeHefefefefd6cTcTdSdSdSdkdkdkc4c4cVcVcVcEclbLbLbLbLbSbSbSbSbSbkblblblbTbTbUbUbUbVbVb>b>cmcmcmb2cWcWcWcWc6dldldldGdGdGdGd#dIdId7egeieieieWeWeYeYe5e5fpfqfqfqfqf6f6f6f8gggggugvgwgxaacaaaaaaaaaaaaaaaaaaaaaaaaaaaaaaaaaaaaaaaaaaaaaaaaaaaaaaaaa",
"aaaaaaaaaaaaaaaaaaaaaaaaaaaaaaaaaaaaaaaaaaaaaaaaaaaaaaabcagygzgAgBdkdkdSdSdScTcTd6efefefeHeHeNeNeNeNeNc2e3e3e3fhfhfhfhfBfBfBfBfBfBfBfBf5f#f#f#f#f#f#f#f#f#gfgfgfgfgfgfgtgtgtgtgtgtgtgtgtgtgtgtgtgtgtgtgtgtgtgfgfgfgfgfgef#f#f#f#f#f#f#f#f5f5fBfBfBfBfBfBfBfhfhfhfhe3e3e3c2eNeNeNeNeNeHeHefefefefcTcTcTdSdSdkdkdkdkc4cVcVcVcEclbLbLbLbLbLbSbSbSbSbjblblblblbTbUbUbUbVbVb:b>cmcmcmb2b2cWcWcWc5dldldldldGdGdGdGdIdId7egegeieieWeWeYeYe4e5fpfpfqfqfqf6f6f6f8gggggggCgDgEgFa2abaaaaaaaaaaaaaaaaaaaaaaaaaaaaaaaaaaaaaaaaaaaaaaaaaaaaaa",
"aaaaaaaaaaaaaaaaaaaaaaaaaaaaaaaaaaaaaaaaaaaaaaaaaaaaaaaeaagGeecBdkdkdkdSdScTcTd6efefefefeHeNeNeNeNeNc2e3e3e3fhfhfhfhfBfBfBfBfBfBfBf5f5f#f#f#f#f#f#f#f#gfgfgfgfgfgtgtgtgtgtgtgtgtgtgtgtgtgtgtgtgtgtgtgtgtgtgtgtgtgtgfgfgfgfgef#f#f#f#f#f#f#f5f5fBfBfBfBfBfBfBfhfhfhfhe3e3e3c2eNeNeNeNeNeHeHefefefd6cTcTdSdSdSdkdkdkc4c4cVcVcVcEclbLbLbLbLbSbSbSbSbSbkblblblbTbTbUbUbUbVbVb>b>cmcmb2b2cWcWcWc5c6dldldldGdGdGdGdIdId7d7egeieieieWeYeYe4e5e5fpfqfqfqfYf6f6f8gggggggggHgIgJaaemaKaaaaaaaaaaaaaaaaaaaaaaaaaaaaaaaaaaaaaaaaaaaaaaaaaaaa",
"aaaaaaaaaaaaaaaaaaaaaaaaaaaaaaaaaaaaaaaaaaaaaaaaaaaaadaagKeecBdkdkdkdSdSdScTcTefefefefeHeHeNeNeNeNeNc2e3e3fhfhfhfhfBfBfBfBfBfBfBf5f5f#f#f#f#f#f#f#gfgfgfgfgtgtgtgtgtgtgtgtgtgtgtgtgtgtgtgtgtgtgtgtgtgtgtgtgtgtgtgtgtgtgfgfgfgff#f#f#f#f#f#f#f#f5fBfBfBfBfBfBfBfhfhfhfhe3e3e3c2eNeNeNeNeNeHefefefefd6cTcTdSdSdkdkdkdkc4cVcVcVcEclbLbLbLbLbLbSbSbSbSbjblblblblbTbUbUbUbVbVb:b>cmcmcmb2cWcWcWcWc6dldldldGdGdGdGd#dIdId7egeieieieWeWeYeYe5e5fpfqfqfqfYf6f6f6f8gggggggLgHgMgNaaemaaaaaaaaaaaaaaaaaaaaaaaaaaaaaaaaaaaaaaaaaaaaaaaaaaaa",
"aaaaaaaaaaaaaaaaaaaaaaaaaaaaaaaaaaaaaaaaaaaaaaaaaaaLaagOfagPerdkdkdkdSdScTcTd6efefefeHeHeNeNeNeNeNc2e3e3e3fhfhfhfBfBfBfBfBfBfBf5f#f#f#f#f#f#f#gegfgfgfgtgtgtgtgtgtgtgtgtgtgtgtgQgQgQgQgQgQgQgQgQgQgQgtgtgtgtgtgtgtgtgtgtgtgfgfgfgff#f#f#f#f#f#f#f5fBfBfBfBfBfBfBfhfhfhfhe3e3e3eNeNeNeNeNeHeHefefefefcTcTdSdSdSdkdkdkc4c4cVcVcVcEclbLbLbLbLbSbSbSbSbSblblblblbTbUbUbUbVbVb:b>cmcmcmb2b2cWcWcWc5dldldldldGdGdGd#dIdId7egegeieieWeWeYeYe4e5fpfpfqfqfqf6f6f6f8gggggggLgRgSgagTaaacaaaaaaaaaaaaaaaaaaaaaaaaaaaaaaaaaaaaaaaaaaaaaaaaaa",
"aaaaaaaaaaaaaaaaaaaaaaaaaaaaaaaaaaaaaaaaaaaaaaaacaaagUgVgWgXdkdkdkdSdSdScTcTefefefefeHeNeNeNeNeNc2e3e3e3fhfhfhfBfBfBfBfBfBfBf5f#f#f#f#f#f#f#gfgfgfgfgtgtgtgtgtgtgtgtgtgQgQgQgQgQgQgQgQgQgQgQgQgQgQgQgQgQgQgQgtgtgtgtgtgtgtgtgtgfgfgff#f#f#f#f#f#f#f5fBfBfBfBfBfBfBfhfhfhfhe3e3c2eNeNeNeNeNeHeHefefefd6cTcTdSdSdkdkdkdkc4cVcVcVcEclbLbLbLbLbLbSbSbSbSbjblblblbTbTbUbUbUbVbVb>b>cmcmb2b2cWcWcWc5c6dldldldGdGdGdGdIdId7d7egeieieWeWeYeYe4e5e5fpfqfqfqf6f6f6f8gggggggggRgYgZg0g1aacaaaaaaaaaaaaaaaaaaaaaaaaaaaaaaaaaaaaaaaaaaaaaaaaa",
"aaaaaaaaaaaaaaaaaaaaaaaaaaaaaaaaaaaaaaaaaaaaaaabbFafg2dEdjdkdkdkdkdSdScTcTd6efefefeHeHeNeNeNeNeNe3e3e3fhfhfhfBfBfBfBfBfBfBf5f#f#f#f#f#f#f#gfgfgfgtgtgtgtgtgtgtgtgQgQgQgQgQgQgQgQgQgQgQgQgQgQgQgQgQgQgQgQgQgQgQgQgQgtgtgtgtgtgtgtgfgfgfgef#f#f#f#f#f#f5fBfBfBfBfBfBfBfhfhfhe3e3e3c2eNeNeNeNeHeHefefefefcTcTdSdSdSdkdkdkc4c4cVcVcVcEbLbLbLbLbLbSbSbSbSbjblblblblbTbUbUbUbVbVb:b>cmcmcmb2cWcWcWcWc6dldldldGdGdGdGd#dIdId7egeieieieWeYeYe4e5e5fpfqfqfqfYf6f6f8gggggggggRgRg3g4g5g6caabaaaaaaaaaaaaaaaaaaaaaaaaaaaaaaaaaaaaaaaaaaaaaa",
"aaaaaaaaaaaaaaaaaaaaaaaaaaaaaaaaaaaaaaaaaaaaaaadaag7dgg8c4dkdkdkdSdSdScTcTefefefefeHeNeNeNeNeNc2e3e3fhfhfhfhfBfBfBfBfBfBf5f#f#f#f#f#f#gegfgfgfgtgtgtgtgtgtgtgQgQgQgQgQgQgQgQgQg9g9g9g9g9g9g9g9g9g9g9gQgQgQgQgQgQgQgQgQgtgtgtgtgtgtgtgfgfgff#f#f#f#f#f#f5fBfBfBfBfBfBfhfhfhfhe3e3e3eNeNeNeNeNeHeHefefefd6cTcTdSdSdkdkdkdkc4cVcVcVcEclbLbLbLbLbSbSbSbSbSblblblblbTbUbUbUbVbVb:b>cmcmcmb2cWcWcWcWc6dldldldGdGdGdGd#dIdId7egeieieieWeWeYeYe5e5fpfqfqfqfYf6f6f8gggggggggLgRgRgHg#g.aaemaaaaaaaaaaaaaaaaaaaaaaaaaaaaaaaaaaaaaaaaaaaaaa",
"aaaaaaaaaaaaaaaaaaaaaaaaaaaaaaaaaaaaaaaaaaaaaLaag+g@gBc4dkdkdkdkdSdScTcTd6efefefeHeHeNeNeNeNc2e3e3e3fhfhfhfBfBfBfBfBfBf5f5f#f#f#f#f#gegfgfgtgtgtgtgtgtgtgQgQgQgQgQgQgQg9g9g9g9g9g9g9g9g9g9g9g9g9g9g9g9g9g9g9gQgQgQgQgQgQgtgtgtgtgtgtgtgfgfgef#f#f#fBfBfBg*fhfhfhfhfhfhg=g=g=c2e3e3c2eNeNeNeNeHeHefefefefcTcTdSdSdSdkdkdkc4c4cVcVcEclbLbLbLbLbLbSbSbSbSbjblblblbTbTbUbUbUbVbVb>b>cmcmb2b2cWcWcWc5dldldldldGdGdGdGdIdId7egegeieieWeWeYeYe4e5fpfqfqfqfYf6f6f6f8gggggggLgRgRg-g;g:g>aaacaaaaaaaaaaaaaaaaaaaaaaaaaaaaaaaaaaaaaaaaaaaa",
"aaaaaaaaaaaaaaaaaaaaaaaaaaaaaaaaaaaaaaaaaacaaacwgVg,duc4dkdkdkdSdSdScTcTefefefeHeHeNeNeNeNeNc2e3e3fhfhfhfBfBfBfBfBfBfBf5f#f#f#f#f#gegfgfgtgtgtgtgtgtgQgQgQgQgQgQg9g9g9g9g9g9g9g9g9g9g9g9g9g9g9g9g9g9g9g9g9g9g9g9gQgQgQgQgQgQgtgtgtgegeg<g1g2g2f#g3g4g5g6g6g7g6g6g6g6g6g5gQgtgeg8e3eNefg9g9efefeHeHefefefd6cTcTdSdSdkdkdkc4c4cVcVcVcEclbLbLbLbLbSbSbSbSbjblblblblbTbUbUbUbVbVb:b>cmcmcmb2cWcWcWc5c6dldldldGdGdGdGdIdId7d7egeieieWeWeYeYe4e5fpfpfqfqfqf6f6f6f8gggggggLgRgRgRg0hahbhcaacaaaaaaaaaaaaaaaaaaaaaaaaaaaaaaaaaaaaaaaaaaa",
"aaaaaaaaaaaaaaaaaaaaaaaaaaaaaaaaaaaaaaaadqaLabhdhec.c4c4dkdkdkdSdScTcTd6efefefeHeHeNeNeNeNc2e3e3e3fhfhfhfBfBfBfBfBfBf5f#f#f#f#f#gegfgfgtgtgtgtgtgtgQgQgQgQgQg9g9g9g9g9g9g9g9g9hfhfhfhfhfhfhfhfhfhfg9g9g9g9g9g9g9g9g9gQgQgfgeg2geg9hghhhihjhkhlgeefhmhnhohphqhrhrhrhrhshthuhvhwhxe3g4g6g7g6hyf#e3d6hzg9g9efcTcTdSdSdSdkdkdkc4cVcVcVcEclbLbLbLbLbSbSbSbSbSblblblblbTbUbUbUbVbVb:b>cmcmcmb2cWcWcWcWc6dldldldGdGdGdGd#dIdId7egeieieieWeYeYe4e5e5fpfqfqfqf6f6f6f8gggggggggRgRgRg-hAhBhCaeacabaaaaaaaaaaaaaaaaaaaaaaaaaaaaaaaaaaaaaaaa",
"aaaaaaaaaaaaaaaaaaaaaaaaaaaaaaaaaaaaaaaaaeaahDeehEcVc4dkdkdkdSdSdScTcTefefefefeHeNeNeNeNeNc2e3e3fhfhfhfBfBfBfBfBfBf5f#f#f#f#f#f#gfgfgtgtgtgtgtgtgQgQgQgQgQg9g9g9g9g9g9g9hfhfhfhfhfhfhfhfhfhfhfhfhfhfhfhfg9g9g9g9gthFgeg9hGhjhjhGg=hHhIhJhKhLhMhNhOhPhQhRhShThUhUhUhUhVhWhXhQhYhZh0h1h2h3h4h5huc4h6h7hffBefcVdkdkdSdSdkdkdkc4c4cVcVcEcEbLbLbLbLbLbSbSbSbSbjblblblbTbTbUbUbVbVb:b>b>cmcmb2b2cWcWcWc6dldldldGdGdGdGd#dIdId7egeieieieWeWeYe4e5e5fpfqfqfqfYf6f6f8gggggggggRgRgRg-h8h9h#h.aaaeaaaaaaaaaaaaaaaaaaaaaaaaaaaaaaaaaaaaaaaa",
"aaaaaaaaaaaaaaaaaaaaaaaaaaaaaaaaaaaaaaacaah+h@h*cUcVc4dkdkdkdSdScTcTd6efefefeHeHeNeNeNeNc2e3e3fhfhfhfhfBfBfBfBfBfBf5f#f#f#f#f#gfgfgtgtgtgtgtgtgQgQgQgQg9g9g9g9g9g9hfhfhfhfhfhfhfhfhfhfhfhfhfhfhfhfhfhfhfhfgQgfgthghjhjgthHh=h3h-h;h:h>h,h<h,h1hUh2h3hShRhXhXhRhRhRhRhShShShWh4h5h6h7h8h9h0h7hSiaibicidieefifg4c2c4igcVdkdkc4c4cVcVcVcEclbLbLbLbLbSbSbSbSbjblblblblbTbUbUbUbVbVb>b>cmcmb2b2cWcWcWc5dldldldldGdGdGd#dIdId7egeieieieWeWeYeYe5e5fpfqfqfqfYf6f6f8gggggggggLgRgRg-ihiiijikilaaacaaaaaaaaaaaaaaaaaaaaaaaaaaaaaaaaaaaaaa",
"aaaaaaaaaaaaaaaaaaaaaaaaaaaaaaaaaaaaabacadimdEincVc4c4dkdkdkdSdScTcTefefefefeHeNeNeNeNeNc2e3e3fhfhfhfBfBfBfBfBfBf5f#f#f#f#f#gfgfgfgtgtgtgtgtgQgQgQgQg9g9g9g9g9hfhfhfhfhfhfhfhfhfioioioioioioioioiohfhfgtgQhGipiqirisitiuiviwiwhUixh:iyizizivivivivhRhRhXhShShShShShShShShSiAiAhShShShShRhRhSiBiCiDiEiFiGiHiIiJiKiLg4eNcVcVdkc4cVcVcVcEclbLbLbLbLbSbSbSbSbSblblblblbTbUbUbUbVbVb:b>cmcmcmb2cWcWcWc5c6dldldldGdGdGdGdIdId7egegeieieWeWeYeYe4e5fpfqfqfqfYf6f6f6f8gggggggLgRgRgRihh8iMiNiOiPiQabaaaaaaaaaaaaaaaaaaaaaaaaaaaaaaaaaaaa",
"aaaaaaaaaaaaaaaaaaaaaaaaaaaaaaaaaaaaadaahDiRiScVcVc4dkdkdkdSdSdScTcTefefefeHeHeNeNeNeNc2e3e3fhfhfhfhfBfBfBfBfBf5f#f#f#f#f#gegfgfgtgtgtgtgtgQgQgQgQg9g9g9g9g9hfhfhfhfhfhfioioioioioiTiTiTiTioioioiUiViWiXiYiZi0i1i2iwiwh2ivi3i4iyiyh:hRhRhRhRhRhRhRhRhXhShShShShShShShShSiAhWhWhWhWhWhWhWhWiBiBi5i5i6iGi7i8iEiFi9i#i.i+h6h6dki@cVcVcVcEclbLbLbLbLbLbSbSbSbSbkblblblbTbUbUbUbVbVb:b>cmcmcmb2cWcWcWcWc6dldldldGdGdGdGdIdId7d7egeieieWeWeYeYe4e5fpfpfqfqfqf6f6f6f8gggggggLgRgRgRg-h8h8i*i=i-aaemaaaaaaaaaaaaaaaaaaaaaaaaaaaaaaaaaaaa",
"aaaaaaaaaaaaaaaaaaaaaaaaaaaaaaaaaacadqi;i:f7cUcVc4c4dkdkdkdSdScTcTd6efefefeHeHeNeNeNeNc2e3e3fhfhfhfBfBfBfBfBfBf5f#f#f#f#f#gfgfgtgtgtgtgtgQgQgQgQg9g9g9g9hfhfhfhfhfhfioioioiTiTiTiTiTiTiTiTiTiUi>i,i<iVi1i2i2i3i4hRi3i3izivivh:h:h:hRhRhRhRhRhRhRhRhXhShShShShShShShShSiAhWhWhWhWhWhWhWhWiBiBiBiBi7i7i7i7iGi5iBh5i5i6i9i7i8i9i0jahmjbcVcEbLbLbLbLbLbSbSbSbSbjblblblbTbTbUbUbVbVb:b>cmcmcmb2cWcWcWcWc6dldldldGdGdGdGd#dIdId7egeieieWeWeYeYe4e5e5fpfqfqfqf6f6f6f8gggggggLgRgRgRg-h8h8jcjdjejfaaiQaaaaaaaaaaaaaaaaaaaaaaaaaaaaaaaaaa",
"aaaaaaaaaaaaaaaaaaaaaaaaaaaaaaaaaaaLaajggAbPcVcVc4c4dkdkdkdSdScTcTefefefefeHeNeNeNeNc2e3e3e3fhfhfhfBfBfBfBfBf5f#f#f#f#f#gfgfgtgtgtgtgtgQgQgQgQg9g9g9g9hfhfhfhfhfioioioiTiTiTiTiTiTiTiTiTiTi>jhi<jijjjkh>h>jljmizivivivivivh:h:h:hRhRhRhRhRhRhRhRhXhShShShShShShShShSiAhWhWhWhWhWhWhWhWiBiBiBiBi7i7i7i7i7i7hVhVhViBiGh1iEh0hOjnjog3cThmcEclbLbLbLbLbSbSbSbSbjblblblblbTbUbUbUbVbVb>b>cmcmb2b2cWcWcWc5dldldldGdGdGdGd#dIdId7egeieieieWeYeYe4e5e5fpfqfqfqfYf6f6f8gggggggggRgRgRg-h8h8jpjqjrjsaaiQaaaaaaaaaaaaaaaaaaaaaaaaaaaaaaaaaa",
"aaaaaaaaaaaaaaaaaaaaaaaaaaaaaaaaaLaajtjujvcVcVcVc4dkdkdkdSdSdScTcTefefefeHeHeNeNeNeNc2e3e3fhfhfhfBfBfBfBfBfBf5f#f#f#f#gegfgfgtgtgtgtgQgQgQgQg9g9g9g9hfhfhfhfhfioioiTiTiTiTiTiWiWiWiWiWjwjxjyjzjAjBjCh3jDjDjEivivivivivivh:h:h:hRhRhRhRhRhRhRhRhXhXhRhRhRhShShShShSiAhShShSh3hWhWhWhWiBiBiBiBi7i7i7i7i7i7hVhVhVhVhVhUhUi7i7jFjGjHjIjJg3jKjLbLbLbLbLbSbSbSbSbSblblblblbTbUbUbUbVbVb>b>cmcmcmb2cWcWcWc5dldldldldGdGdGd#dIdId7egeieieieWeWeYe4e5e5fpfqfqfqfYf6f6f8gggggggggRgRgRg-h8h8h8jpjMjNjOaaacaaaaaaaaaaaaaaaaaaaaaaaaaaaaaaaa",
"aaaaaaaaaaaaaaaaaaaaaaaaaaaaaaabcab0jPjQjRcVcVcVc4dkdkdkdSdScTcTd6efefefeHeHeNeNeNeNc2e3e3fhfhfhfBfBfBfBfBf5f#f#f#f#f#gfgfgtgtgtgtgtgQgQgQg9g9g9g9hfhfhfhfhfioiTiTiTiTiTiWiWiWiWiWioioi<jSjTjUh6jljVjDjEjEivivivivivivh:h:h:hRhRhRhRhRhRhRivh:hShViCjWjXjYi7iGiGhVh1jXiDiDiCjZhShSiBiBiBiBi7i7i7i7i7i7hVhVhVhVhVhUhUhUhUh5hViBj0j1j2j3bSiLbSbSbLbLbLbSbSbSbSblblblblbTbUbUbUbVbVb:b>cmcmcmb2cWcWcWc5c6dldldldGdGdGdGdIdId7egegeieieWeWeYeYe5e5fpfqfqfqfYf6f6f8gggggggggRgRgRg-h8h8h8jpj4j5j6j7bEa2aaaaaaaaaaaaaaaaaaaaaaaaaaaaaa",
"aaaaaaaaaaaaaaaaaaaaaaaaaaaaaaaLaaj8a0bNcEcVcVc4c4dkdkdkdSdScTcTefefefefeHeNeNeNeNc2e3e3e3fhfhfBfBfBfBfBfBf5f#f#f#f#gegfgfgtgtgtgtgQgQgQgQg9g9g9hfhfhfhfioioiTiTiTiTiWiWiWiWiWiWjwj9j#j.j+h6j@jVjEjEjEjEivivivivivivh:h:h:hRhRhRhRhRhRivhRj*iwhSj=j-j;j:j>j,j<j1j2j3j4j5j6j7j8iCj9j0i5iBi7i7i7i7i7i7hVhVhVhVhVhUhUhUhUh5h5h5h5kaiBj0j1kbkckdcTkebLbLbSbSbSbSbkblblblbTbTbUbUbVbVb:b>cmcmcmb2cWcWcWc5c6dldldldGdGdGdGdIdId7egegeieieWeWeYeYe5e5fpfqfqfqfYf6f6f8gggggggggLgRgRg-ihh8h8jpkfkgkhkiaaacaaaaaaaaaaaaaaaaaaaaaaaaaaaaaa",
"aaaaaaaaaaaaaaaaaaaaaaaaaaaacaabkjkkklcDcVcVcVc4c4dkdkdkdSdScTcTefefefeHeHeNeNeNeNc2e3e3fhfhfhfBfBfBfBfBfBf#f#f#f#f#gfgfgtgtgtgtgtgQgQgQg9g9g9g9hfhfhfioioiTiTiTiTiWiWiWiWiWioiojykmknh1hSkojEjEjEjEjEivivivivivivh:h:h:hRhRhRhRhRivkpkqiGkrksktkukvkwkxkykzkAkBkBkCkDkEkFkGkHkIkJjmkKjYiGi7i7i7i7hVhVhVhVhVhUhUhUhUh5h5h5h5h5h5h5h5i7kLkMkNkOkPbSbSbSbSbSbSbjblblblbTbTbUbUbVbVb:b>cmcmcmb2cWcWcWcWc6dldldldGdGdGdGdIdId7d7egeieieWeWeYeYe4e5fpfqfqfqfYf6f6f6f8gggggggLgRgRgRihh8h8jpjpjckQkRkSaacaaaaaaaaaaaaaaaaaaaaaaaaaaaaa",
"aaaaaaaaaaaaaaaaaaaaaaaaaaaabFaakTgAbgcEcVcVcVc4dkdkdkdSdSdScTcTefefefeHeHeNeNeNeNc2e3e3fhfhfhfBfBfBfBfBf5f#f#f#f#f#gfgfgtgtgtgtgQgQgQg9g9g9g9hfhfhfhfioiTiTiTiWiWiWiWiWiWiUjhj#kUjmhTkojmjEjEjEjEjEivivivivivivh:h:h:hRhRhRhRhRh:kVhRkWkXkYkZk0k1k2k3k4k5k6k7k7k8k6k9k#k.k+k@k*k=k-k;k:jWhUi7hVhVhVhVhVhVhUhUhUhUh5h5h5h5h5h5h5h1h1k>h5kakMk,k<fIcEkebSbSbSbjblblblbTbTbUbUbUbVbVb>b>cmcmb2cWcWcWcWc6dldldldGdGdGdGd#dId7d7egeieieWeWeYeYe4e5fpfpfqfqfqf6f6f6f8gggggggLgRgRgRihh8h8jpjpkfk1k2k3aacaaaaaaaaaaaaaaaaaaaaaaaaaaaaa",
"aaaaaaaaaaaaaaaaaaaaaaaaaabFaak4k5bPbLcEcVcVcVc4dkdkdkdSdScTcTd6efefefeHeHeNeNeNeNe3e3e3fhfhfhfBfBfBfBfBf5f#f#f#f#gfgfgtgtgtgtgtgQgQgQg9g9g9hfhfhfhfioiTiTiTiWiWiWiWiWiWjwk6k7k8k9jEkohQjEjEjEjEjEivivivivivivh:h:h:hRhRhRhRivi6kVk0lalblcldlek3lflglglhlililjljljlklklkliljllk7k4lglmlnloh:iChVhVhVhVhVhUhUhUhUh5h5h5h5h5h5h5h1h1k>k>k>k>hVj0j1lplqa8lqbSbSbjblblblblbTbUbUbUbVbVb>b>cmcmb2b2cWcWcWc6dldldldGdGdGdGd#dIdId7egeieieWeWeYeYe4e5e5fpfqfqfqf6f6f6f8gggggggLgRgRgRg-h8h8jpjpkflrjqgvlsaaacaaaaaaaaaaaaaaaaaaaaaaaaaa",
"aaaaaaaaaaaaaaaaaaaaaaaaaacaabltlubMclcEcVcVcVc4dkdkdkdSdScTcTd6efefefeHeNeNeNeNc2e3e3fhfhfhfBfBfBfBfBfBf#f#f#f#f#gfgfgtgtgtgtgQgQgQg9g9g9g9hfhfhfioioiTiTiTiWiWiWiWiWjwjylvlwh1kohQhQjEjEjEjEjEivivivivivivh:h:h:hRhRhRhRiviBj@kslxlylzk3lAlBlClDlElElElFlGlHlIlJlKlLlHlMlNlOlOlHlPlQk9k*lRlSkqhVhVhVhUhUhUhUh5h5h5h5h5h5h5h1h1k>k>k>k>k>k>h5hVj1lTlUfIlqbSbSblblblblbTbUbUbUbVbVb>b>cmcmb2b2cWcWcWc5dldldldGdGdGdGd#dIdId7egeieieieWeYeYe4e5e5fpfqfqfqf6f6f6f8gggggggLgRgRgRg-h8h8jpjpkflrk1lVlWlXcaaaaaaaaaaaaaaaaaaaaaaaaaaa",
"aaaaaaaaaaaaaaaaaaaaaaaaaLaalYlZbMbLclcEcVcVc4c4dkdkdkdSdScTcTefefefefeHeNeNeNeNc2e3e3fhfhfhfBfBfBfBfBf5f#f#f#f#f#gfgfgtgtgtgtgQgQgQg9g9g9hfhfhfhfioiTiTiTiWiWiWiWiWiojyl0j@hWkohQhQjEjEjEjEjEivivivivivivh:h:h:hRhRhRhRivl1l2l3l4l5l6l7l8lAl9l#lEl.l+l@l*l=l-l;l:l>l,l<l1l,l2l3l4l5l6l7l8l9l0hYiGh5hUhUhUhUh5h5h5h5h5h5h5h1h1k>k>k>k>k>k>k>k>k>kai6iCiJg8lqbSblblblblbTbUbUbUbVbVb:b>cmcmcmb2cWcWcWc5dldldldldGdGdGd#dIdId7egeieieieWeYeYe4e5e5fpfqfqfqf6f6f6f8gggggggLgRgRgRg-h8h8jpjpkfkflrmambmcaadNaaaaaaaaaaaaaaaaaaaaaaaa",
"aaaaaaaaaaaaaaaaaaaaaaaabEadmdmebPbLclcEcVcVc4c4dkdkdkdSdScTcTefefefeHeHeNeNeNeNc2e3e3fhfhfhfBfBfBfBfBf5f#f#f#f#gegfgtgtgtgtgQgQgQg9g9g9g9hfhfhfioioiTiTiWiWiWiWiWiojymfhTj@jmhQhQjEjEjEjEjEivivivivivivh:h:h:hRhRhRhRivkVmgmhmimjmkmllCl9l#l#mmlKlNmnmompmqhimrmsmtmumvmvmvmuipiphhmqmwmxmymzmAmBivh1hUhUh5h5h5h5h5h5h5h1h1k>k>k>k>k>k>k>k>k>k>jXiCiDkMmCg8mDblblblblbTbUbUbUbVbVb:b>cmcmcmb2cWcWcWc5dldldldldGdGdGd#dIdId7egeieieieWeWeYe4e5e5fpfqfqfqfYf6f6f8gggggggggRgRgRg-h8h8jpjpkfkflrmEmFmGmHbEaaaaaaaaaaaaaaaaaaaaaaaa",
"aaaaaaaaaaaaaaaaaaaaaaaLaamIc#bMbLbLcEcVcVcVc4c4dkdkdkdSdScTcTefefefeHeHeNeNeNeNc2e3e3fhfhfhfBfBfBfBfBf5f#f#f#f#gfgfgtgtgtgtgQgQgQg9g9g9hfhfhfhfioiTiTiTiWiWiWiWioi<mJk9jmjmhQhQjEjEjEjEjEivivivivivivh:h:h:hRhRhRhRivl1mKmLmMmNl7l8lllEmOmOlHmPmQmRiomrhjg5g1mSeNmTe3fhfhmTmUefefg=f#mViXg5mWmXlEmYmZh5h5h5h5h5h5h5h5h1h1k>k>k>k>k>k>k>k>k>k>jXjXjXiCjXm0jIfIbTblblblbTbUbUbUbVbVb:b>cmcmcmb2cWcWcWc5c6dldldldGdGdGd#dIdId7egeieieieWeWeYe4e5e5fpfqfqfqfYf6f6f8gggggggggRgRgRg-h8h8jpjpkfkflrlrm1mbm2aadNaaaaaaaaaaaaaaaaaaaaaa",
"aaaaaaaaaaaaaaaaaaaaaabEadmdm3bPbLbLcEcVcVcVc4dkdkdkdSdSdScTcTefefefeHeHeNeNeNeNe3e3e3fhfhfBfBfBfBfBfBf#f#f#f#f#gfgfgtgtgtgtgQgQgQg9g9g9hfhfhfioioiTiTiWiWiWiWioi<m4i3jVhQhQhQjEjEjEjEjEivivivivivivh:h:h:hRhRhRhRiviGm5m6m7m8m9lBm#l#m.m+m@m*m=jyipgtfhg<gegfgfgef#f#f#f#f5fBfBfBfBfBm-g9eNm;mum:m>m,i7h5h5h5h5h5h5h1h1k>k>k>k>k>k>k>k>k>k>jXjXjXjXjXiCiCm<m1aVbUblblbTbTbUbUbVbVb:b>cmcmcmb2cWcWcWc5c6dldldldGdGdGdGdIdId7egeieieieWeWeYeYe5e5fpfqfqfqfYf6f6f8gggggggggRgRgRg-h8h8h8jpkfkflrlrm2m3m4iPa2aaaaaaaaaaaaaaaaaaaaaa",
"aaaaaaaaaaaaaaaaaaaaaLaam5lZbMbLbLbLcEcVcVcVc4dkdkdkdSdSdScTd6efefefeHeNeNeNeNc2e3e3fhfhfhfBfBfBfBfBf5f#f#f#f#f#gfgfgtgtgtgtgQgQgQg9g9g9hfhfhfioiTiTiTiWiWiWioi<m6i3kohQhQhQjEjEjEjEjEivivivivivivh:h:h:hRhRhRhRhRhRhXm7m8m9m9lBm#mOm.m0nanbncipf5f5gQgtgtgtgtgfgff#f#f#f#f5fBfBfBfBfBfhfhfhefdSm;g6ndneh1hVh5h5h5h1h1k>k>k>k>k>k>k>k>k>k>jXjXjXjXjXjXjXjXiCnfh3ngbUblbTbTbUbUbVbVb:b>cmcmcmb2cWcWcWc5c6dldldldGdGdGdGdIdId7egegeieieWeWeYeYe5e5fpfqfqfqfYf6f6f8gggggggggRgRgRg-h8h8h8jpkfkflrlrnhnimbnjaadNaaaaaaaaaaaaaaaaaaaa",
"aaaaaaaaaaaaaaaaaaaabEabnknljvbLbLclcEcVcVcVc4dkdkdkdSdScTcTd6efefefeHeNeNeNeNc2e3e3fhfhfhfBfBfBfBfBf5f#f#f#f#gegfgfgtgtgtgQgQgQg9g9g9hfhfhfhfioiTiTiWiWiWjwjynmk9nnhQhQhQjEjEjEjEjEivivivivivivh:h:h:hRhRhRhRhRivj*nonpnqlelBm#mOm.lHnrm=nsgtf#gQgQgQgtgtgtgtgfgff#f#f#f#f5fBfBfBfBfBfhfhfhe3e3d6efmvnth5h5h5h5h1h1k>k>k>k>k>k>k>k>k>k>jXjXjXjXjXjXjXjXjXnunvnwnxnyblbVbTbUbUbVbVb:b>cmcmcmb2cWcWcWc5c6dldldldGdGdGdGdIdId7egegeieieWeWeYeYe5e5fpfqfqfqfYf6f6f8gggggggggRgRgRg-h8h8h8jpkfkflrlrnznAnBnCaLa2aaaaaaaaaaaaaaaaaaaa",
"aaaaaaaaaaaaaaaaaabFaac:k5bhbLbLbLclcEcVcVcVc4dkdkdkdSdScTcTd6efefefeHeNeNeNeNc2e3e3fhfhfhfBfBfBfBfBf5f#f#f#f#gfgfgtgtgtgtgQgQgQg9g9g9hfhfhfioioiTiTiWiWjwjynDhTjmhQhQhQjEjEjEjEjEivivivivivivh:h:h:hRhRhRhRhRivkVnEnFnGk3l8m#nHm.lHnInJnKnLg9g9gQgQgQgtgtgtgtgfgff#f#f#f#f5fBfBfBfBfBfhfhfhe3e3c2eNhznMnNkMnOh1h1k>k>k>k>k>k>k>k>k>k>jXjXjXjXjXjXjXjXjXnunuiDjXnPnQnybTbVbUbUbVbVb:b>cmcmcmb2cWcWcWcWc6dldldldGdGdGdGdIdId7egegeieieWeWeYeYe5e5fpfqfqfqfYf6f6f8gggggggggRgRgRg-h8h8h8jpkfkflrlrnznRnSnTnUaadNaaaaaaaaaaaaaaaaaa",
"aaaaaaaaaaaaaaaaaacaaanVb;bMbLbLbLclcEcVcVcVc4dkdkdkdSdScTcTd6efefefeHeNeNeNeNc2e3e3fhfhfhfBfBfBfBfBf5f#f#f#f#gfgfgtgtgtgtgQgQgQg9g9g9hfhfhfioiTiTiTiWiUiXnWjEj@jmhQhQjEjEjEjEjEivivivivivivh:h:h:hRhRhRhRhRhRhRhSnXnYnZl8lll#m.mzn0n1ipfBg9g9g9gQgQgQgtgtgtgtgfgff#f#f#f#f5fBfBfBfBfBfhfhfhe3e3c2eNeNefi0n2n3hUk>k>k>k>k>k>k>k>k>k>jXjXjXjXjXjXjXjXjXnunuiDiDiDjXn4n5nybTbUbUbUbVb:b>cmcmcmb2cWcWcWcWc6dldldldGdGdGdGdIdId7egegeieieWeWeYeYe5e5fpfqfqfqfYf6f6f8gggggggggRgRgRg-h8h8h8jpkfkflrlrnznRm1iNn6aacaaaaaaaaaaaaaaaaaaa",
"aaaaaaaaaaaaaaaaacaan7n8n9bLbLbLbLclcEcVcVcVc4dkdkdkdSdScTcTd6efefefeHeNeNeNeNc2e3e3fhfhfhfBfBfBfBfBf5f#f#f#f#gfgfgtgtgtgtgQgQgQg9g9g9hfhfhfioiTiTiTion#g1n.h3jmhQhQjEjEjEjEjEivivivivivivh:h:h:hRhRhRhRhRhRivj*j6npn+l7lgn@m.n*mmn=msfBhfg9g9g9gQgQgQgtgtgtgtgfgff#f#f#f#f#fBfBfBfBfBfBfhfhe3e3c2eNeNefg3n-iwk>k>k>k>k>k>k>k>k>k>jXjXjXjXjXjXjXjXjXnunuiDiDiDiDiDjYn;n:n>n,bUbUbVbVb>cmcmcmb2cWcWcWcWc6dldldldGdGdGdGdIdId7egegeieieWeWeYeYe5e5fpfqfqfqfYf6f6f8gggggggggRgRgRg-h8h8h8jpkfkflrlrnznRnRn<n1n2aaacaaaaaaaaaaaaaaaa",
"aaaaaaaaaaaaaaaaaLaan3a9n4bLbLbLbLclcEcVcVcVc4dkdkdkdSdScTcTefefefefeHeNeNeNeNc2e3e3fhfhfhfBfBfBfBfBf5f#f#f#f#gfgfgtgtgtgtgQgQgQg9g9g9hfhfhfioiTiTiTion5n6h1kohQhQjEjEjEjEjEivivivivivivh:h:h:hRhRhRhRhRhRhRhSj@n7n8k3l8m#mOn9lKn0oag1hfhfg9g9g9g9gQgQgtgtgtgtgfgff#f#f#f#f#fBfBfBfBfBfBfhfhe3e3c2eNeNeNg9obocnwhVk>k>k>k>k>k>k>jXjXjXjXjXjXjXjXjXnunuiDiDiDiDiDiDkLiAodoeaWc5bUbVbVb>b>cmcmb2cWcWcWcWc6dldldldGdGdGdGdIdId7egegeieieWeWeYeYe5e5fpfqfqfqfYf6f6f8gggggggggRgRgRg-h8h8h8jpkfkflrlrnznhnRofmbogaaacaaaaaaaaaaaaaaaa",
"aaaaaaaaaaaaaaabaaohoidkbdbLbLbLbLclcEcVcVcVc4dkdkdkdSdScTcTefefefefeHeNeNeNeNc2e3e3fhfhfhfBfBfBfBfBf5f#f#f#f#gfgfgtgtgtgtgQgQgQg9g9g9hfhfhfioiTiTjwjyojk9kohQhQjEjEjEjEjEivivivivivivh:h:h:hRhRhRhRhRhRhRivjYokolomm9lAl#m.m@onoog2hfhfhfhfg9g9g9gQgQgQgtgtgtgfgff#f#f#f#f#fBfBfBfBfBfBfhfhe3e3e3eNeNeNefopoqk,j0k>k>k>k>k>k>jXjXjXjXjXjXjXjXjXnunuiDiDiDiDiDiDiDiDorosotouaWovbVbVb>b>cmcmb2cWcWcWcWc6dldldldGdGdGdGdIdId7egegeieieWeWeYeYe5e5fpfqfqfqfYf6f6f8gggggggggRgRgRg-h8h8h8jpkfkflrlrnznhnRowoxoyozaaa2aaaaaaaaaaaaaa",
"aaaaaaaaaaaaaaaeaaoAa9oBbSbLbLbLbLclcEcVcVcVc4dkdkdkdSdScTcTefefefefeHeNeNeNeNc2e3e3fhfhfhfBfBfBfBfBf5f#f#f#f#gfgfgtgtgtgtgQgQgQg9g9g9hfhfhfioiTiUhkoCkoj@hQhQjEjEjEjEjEivivivivivivh:h:h:hRhRhRhRhRhRhRhRhXhWoDn8k3lBn@m.oEoFoGiWiUhfhfhfhfg9g9g9gQgQgQgtgtgtgfgff#f#f#f#f#fBfBfBfBfBfBfhfhe3e3e3eNeNeNeNg9h7oHj1hVk>k>k>k>jXjXjXjXjXjXjXjXjXnunuiDiDiDiDiDiDiDiDoIoIoJoKoLoMoNcWb:b>b>cmcmb2cWcWcWcWc6dldldldGdGdGdGdIdId7d7egeieieWeWeYeYe5e5fpfqfqfqfYf6f6f8gggggggggRgRgRg-h8h8h8jpkfkflrlrnznhnRnRoOoPoQaaemaaaaaaaaaaaaaa",
"aaaaaaaaaaaaaaabaLoReqiSbSbLbLbLbLclcEcVcVcVc4dkdkdkdSdScTcTefefefefeHeNeNeNeNc2e3e3fhfhfhfBfBfBfBfBf5f#f#f#f#gfgfgtgtgtgtgQgQgQg9g9g9hfhfhfioiToSn5oTh>kohQjEjEjEjEjEivivivivivivh:h:h:hRhRhRhRhRhRhRhRh:jYoUkYoVl7lAl#oWlLoXoYgeiohfhfhfhfg9g9g9gQgQgQgtgtgtgfgff#f#f#f#f#fBfBfBfBfBfBfhfhe3e3e3eNeNeNeNefh6oZj0k>k>k>k>jXjXjXjXjXjXjXjXjXnunuiDiDiDiDiDiDiDiDoIoIoIo0hSo1o2o3bjn,b>b>cmcmb2cWcWcWcWc6dldldldGdGdGdGdIdId7egegeieieWeWeYeYe5e5fpfqfqfqfYf6f6f8gggggggggRgRgRg-h8h8h8jpkfkflrlrnznhnRnRnSo4o5o6abaaaaaaaaaaaaaa",
"aaaaaaaaaaaabFaak4eqo7bSbSbLbLbLbLclcEcVcVcVc4dkdkdkdSdScTcTefefefefeHeNeNeNeNc2e3e3fhfhfhfBfBfBfBfBf5f#f#f#f#gfgfgtgtgtgtgQgQgQg9g9g9hfhfhfioi>o8o9h1kohQjEjEjEjEjEivivivivivivh:h:h:hRhRhRhRhRhRhRhRhXhRiCo#o.l6lBl9l#o+o@o*gtiTiohfhfhfg9g9g9g9gQgQgtgtgtgtgfgff#f#f#f#f#fBfBfBfBfBfBfhfhe3e3c2eNeNeNeNeHg9g3o=o-h5k>jXjXjXjXjXjXjXjXjXnunuiDiDiDiDiDiDiDiDoIoIoIoIiDo;o:o>o,aYc5b>b>cmcmb2cWcWcWcWc6dldldldGdGdGdGdIdId7egegeieieWeWeYeYe5e5fpfqfqfqfYf6f6f8gggggggggRgRgRg-h8h8h8jpkfkflrlrnznhnRnRo<o1o2o3aaacaaaaaaaaaaaa",
"aaaaaaaaaaaabFaao4c#n4bSbSbLbLbLbLclcEcVcVcVc4dkdkdkdSdScTcTd6efefefeHeNeNeNeNc2e3e3fhfhfhfBfBfBfBfBf5f#f#f#f#gfgfgtgtgtgtgQgQgQg9g9g9hfhfhfioiWgtjkhSjmjEjEjEjEjEivivivivivivh:h:h:hRhRhRhRhRhRhRhRhXhSi7o5o6kzo7lCl#n9o8o9o0i>iTiohfhfhfg9g9g9gQgQgQgtgtgtgtgfgff#f#f#f#f#fBfBfBfBfBfBfhfhe3e3c2eNeNeNeNeHhxg5pajGh5jXjXjXjXjXjXjXjXjXnunuiDiDiDiDiDiDiDiDoIoIoIoIkLkLkLjFpbpcpda9pecmcmcmb2cWcWcWcWc6dldldldGdGdGdGdIdId7egegeieieWeWeYeYe5e5fpfqfqfqfYf6f6f8gggggggggRgRgRg-h8h8h8jpkfkflrlrnznRnRnRo<pfpgphaaiQaaaaaaaaaaaa",
"aaaaaaaaaaabaapipjbbbdbSbSbLbLbLbLclcEcVcVcVc4dkdkdkdSdScTcTd6efefefeHeNeNeNeNc2e3e3fhfhfhfBfBfBfBfBf5f#f#f#f#gfgfgtgtgtgtgQgQgQg9g9g9hfhfhfgfi<nmh6kojEjEjEjEjEivivivivivivh:h:h:hRhRhRhRhRhRhRhRhXhShRiCj6pkmNlgm#plo+pmo*gtiTiTiohfhfhfg9g9g9gQgQgQgtgtgtgtgfgff#f#f#f#f5fBfBfBfBfBfhfhfhe3e3c2eNeNeNeNeHefmTpnpokLjXjXjXjXjXjXjXjXnunuiDiDiDiDiDiDiDiDoIoIoIoIkLkLkLiDo;pppqprpsptcWcmcmb2cWcWcWcWc6dldldldGdGdGdGdIdId7egegeieieWeWeYeYe5e5fpfqfqfqfYf6f6f8gggggggggRgRgRg-h8h8h8jpkfkflrlrnznRnRnRo<pupvpwpxaaabaaaaaaaaaa",
"aaaaaaaaaaadaapypzoBbSbSbSbLbLbLbLclcEcVcVcVc4dkdkdkdSdScTcTd6efefefeHeNeNeNeNc2e3e3fhfhfhfBfBfBfBfBf5f#f#f#f#gegfgtgtgtgtgQgQgQg9g9g9hfhfhfiWpApBhRjEjEjEjEjEivivivivivivh:h:h:hRhRhRhRhRhRhRhRhXhShShXjYj,pCk3pDlEoWlMpEmrgtiTiTiohfhfhfg9g9g9gQgQgQgtgtgtgtgfgff#f#f#f#f5fBfBfBfBfBfhfhfhe3e3c2eNeNeNeNeHefhzg5pFm0kqjXjXjXjXjXjXnunuiDiDiDiDiDiDiDiDoIoIoIoIkLkLkLkLkLpGo0pHpIpJpKdlcmcmb2cWcWcWcWc6dldldldGdGdGdGdIdId7egegeieieWeWeYeYe5e5fpfqfqfqfYf6f6f8gggggggggRgRgRg-h8h8h8jpkfkflrlrnznRnRnRo<pLpMpNpOaaemaaaaaaaaaa",
"aaaaaaaaaacaaapPpQpRbSbSbSbLbLbLbLclcEcVcVcVc4dkdkdkdSdScTcTd6efefefeHeNeNeNeNc2e3e3fhfhfhfBfBfBfBfBf5f#f#f#f#gegfgfgtgtgtgQgQgQg9g9g9g9hfgfippSk9jVjEjEjEjEivivivivivivh:h:h:hRhRhRhRhRhRhRhRhXhShShSk,pTpUpVpWpXlEmzpYpZioiTiTioiohfhfhfg9g9g9gQgQgQgtgtgtgtgfgff#f#f#f#f5fBfBfBfBfBfhfhfhe3e3c2eNeNeNeNeHefhzg5p0m0kqjXjXjXjXjXnunuiDiDiDiDiDiDiDiDoIoIoIoIkLkLkLkLkLpGoIp1p2p3p4p5b4c6cmb2cWcWcWc5c6dldldldGdGdGdGdIdId7egegeieieWeWeYeYe5e5fpfqfqfqfYf6f6f8gggggggggRgRgRg-h8h8h8jpkfkflrlrnznRnRnRo<pLp6p7p8aabEaaaaaaaaaa",
"aaaaaaaabEaap9p#bLbibSbSbSbLbLbLbLbLcEcVcVcVc4dkdkdkdSdSdScTd6efefefeHeNeNeNeNc2e3e3fhfhfhfBfBfBfBfBf5f#f#f#f#f#gfgfgtgtgtgtgQgQgQg9g9g9hfp.f5lwp+hQjEjEjEivivivivivivh:h:h:hRhRhRhRhRhRhRhRhXhShShShRjYp@p*m9l7l9plp=p-oogfiTiTiohfhfhfhfg9g9g9gQgQgQgtgtgtgtgfgef#f#f#f#f5fBfBfBfBfBfhfhfhe3e3c2eNeNeNeNeHefg9fhp;iBiDjXjXjXjXnunuiDiDiDiDiDiDiDiDoIoIoIoIkLkLkLkLkLpGpGpGpGoIp:p>p,cqcmcmb2cWcWcWc5c6dldldldGdGdGdGdIdId7egegeieieWeWeYeYe5e5fpfqfqfqfYf6f6f8gggggggggRgRgRg-h8h8h8jpkfkflrlrnznRnRnRo<pLp<nRp1p2aabEaaaaaaaa",
"aaaaaaaaadaap3p4brbSbSbSbSbLbLbLbLbLcEcVcVcVc4dkdkdkdSdSdScTcTefefefeHeHeNeNeNeNe3e3e3fhfhfBfBfBfBfBfBf5f#f#f#f#gfgfgtgtgtgtgQgQgQg9g9g9gfiXp5k9jVjEjEjEivivivivivivh:h:h:hRhRhRhRhRhRhRhRhXhShShShShRjXp6p7p8pDlEpcp9p0j9iUiTiTiohfhfhfg9g9g9gQgQgQgQgtgtgtgfgfgef#f#f#f#f5fBfBfBfBfBfhfhfhe3e3c2eNeNeNeNeHefefg9opqaj1iCjXjXnunuiDiDiDiDiDiDiDiDoIoIoIoIkLkLkLkLkLpGpGpGpGoIqbqcqdqeqfqgqhb2cWcWcWc5c6dldldldGdGdGdGdIdId7egeieieieWeWeYeYe5e5fpfqfqfqfYf6f6f8gggggggggRgRgRg-h8h8h8jpkfkflrlrnhnRnRnRo<pLpLqipgqjaaemaaaaaaaa",
"aaaaaaaabEaaqkqloBbjbSbSbSbSbLbLbLbLcEcVcVcVc4c4dkdkdkdSdScTcTefefefeHeHeNeNeNeNc2e3e3fhfhfhfBfBfBfBfBf5f#f#f#f#gfgfgtgtgtgtgQgQgQg9g9g9gQhGqmqnjDjEjEivivivivivivh:h:h:hRhRhRhRhRhRhRhRhXhShShShShShShVm7qok6lCqplOqqmrgtiTiTioiohfhfhfg9g9g9gQgQgQgtgtgtgtgfgff#f#f#f#f#f5fBfBfBfBfBfhfhfhe3e3c2eNeNeNeNeHefefhzfNqrm<kqjXnunuiDiDiDiDiDiDiDiDoIoIoIoIkLkLkLkLkLpGpGpGpGpGpGkMqsqtquqvqwcqb2cWcWcWc5dldldldldGdGdGd#dIdId7egeieieieWeWeYe4e5e5fpfqfqfqfYf6f6f8gggggggggRgRgRg-h8h8jpjpkfkflrlrnhnRnRnRo<pLpLp6qxqyaabEaaaaaaaa",
"aaaaaaabaaqzqAptbmbjbSbSbSbSbLbLbLbLclcEcVcVc4c4dkdkdkdSdScTcTefefefeHeHeNeNeNeNc2e3e3fhfhfhfBfBfBfBfBf5f#f#f#f#gegfgtgtgtgtgQgQgQgQg9gtiqieh3jDjEjEivivivivivivh:h:h:hRhRhRhRhRhRhRhRhXhShShShShShSiBosktqBpWllpllJqCoageiTiTiohfhfhfg9g9g9g9gQgQgQgtgtgtgtgfgff#f#f#f#f5fBfBfBfBfBfBfhfhe3e3e3eNeNeNeNeHeHefefg9qDqEkMiCnunuiDiDiDiDiDiDiDiDoIoIoIoIkLkLkLkLkLpGpGpGpGpGpGi5kLm0qFk*qGqHn>qIcWcWcWc5dldldldldGdGdGd#dIdId7egeieieieWeWeYe4e5e5fpfqfqfqfYf6f6f8gggggggggRgRgRg-h8h8jpjpkfkflrlrnhnRnRnRo<pLpLpupLqJqKaabEaaaaaa",
"aaaaaaadaaqLpzbrblbjbSbSbSbSbLbLbLbLclcEcVcVc4c4dkdkdkdSdScTcTefefefefeHeNeNeNeNc2e3e3fhfhfhfBfBfBfBfBf5f#f#f#f#f#gfgfgtgtgtgtgQgQgQg9geiXqMi3jVjEivivivivivivh:h:h:hRhRhRhRhRhRhRhRhXhShShShShShShRjYqNqOqPl7l9m+qQqRiYiUiTioiohfhfhfg9g9g9gQgQgQgQgtgtgtgtgfgef#f#f#f#f5fBfBfBfBfBfhfhfhe3e3c2eNeNeNeNeHeHefefg9fIoqiBoInuiDiDiDiDiDiDiDiDoIoIoIoIkLkLkLkLkLpGpGpGpGpGpGi5i5kLqSqTqUqVqWb2b2cWcWcWc5dldldldGdGdGdGd#dIdId7egeieieieWeYeYe4e5e5fpfqfqfqf6f6f6f8gggggggLgRgRgRg-h8h8jpjpkfkflrlrnhnRnRnRpLpLpLpLqXqYqZaaemaaaaaa",
"aaaaaabFaaq0q1q2blbjbSbSbSbSbLbLbLbLclcEcVcVcVc4dkdkdkdSdScTcTd6efefefeHeNeNeNeNc2e3e3fhfhfhfBfBfBfBfBfBf5f#f#f#f#gfgfgtgtgtgtgQgQgQgQifg2q3q4hQivivivivivivh:h:h:hRhRhRhRhRhRhRhRhXhShShShShShShShRjXq5q6lelgl9mzpYj9q7iTioiohfhfhfhfg9g9g9gQgQgQgtgtgtgtgfgff#f#f#f#f#f5fBfBfBfBfBfhfhfhe3e3c2eNeNeNeNeHeHefefd6cTa8q8q9jXiDiDiDiDiDiDiDoIoIoIoIkLkLkLkLkLpGpGpGpGpGpGi5i5i5o0q9h5q#q.q+q@a7qIcWcWc5dldldldGdGdGdGd#dIdId7egeieieieWeYeYe4e5e5fpfqfqfqf6f6f6f8gggggggLgRgRgRg-h8h8jpjpkfkflrlrnhnRnRnRpLpLpLq*q=q-q;aacaaaaaaa",
"aaaaabaaq:q>cgq,blbjbSbSbSbSbLbLbLbLclcEcVcVcVc4dkdkdkdSdSdScTd6efefefeHeHeNeNeNeNe3e3e3fhfhfhfBfBfBfBfBf5f#f#f#f#gegfgfgtgtgtgtgQgQgfq<hrq1jDivivivivivivh:h:h:hRhRhRhRhRhRhRhRhXhShShShShShShShShRnuj3q2k6lCl9l@q3oageiTiohfhfhfhfg9g9g9gQgQgQgQgtgtgtgtgfgff#f#f#f#f#fBfBfBfBfBfBfhfhfhe3e3c2eNeNeNeNeHefefefd6i9g4q4m<jXiDiDiDiDiDiDoIoIoIoIkLkLkLkLkLpGpGpGpGpGpGi5i5i5i5o0oJqSq5qBq6q7b6q8cWcWc6dldldldGdGdGdGd#dIdId7egeieieWeWeYeYe4e5fpfpfqfqfqf6f6f6f8gggggggLgRgRgRg-h8h8jpjpkfkflrlrnhnRnRnRpLpLpLq*q9q0rarbaaabaaaa",
"aaaabFaarca8boblblbkbSbSbSbSbLbLbLbLbLcEcVcVcVc4dkdkdkdSdSdScTcTefefefeHeHeNeNeNeNc2e3e3fhfhfhfBfBfBfBfBf5f#f#f#f#f#gfgfgtgtgtgtgQgQg2iXrdi3i4ivivivivivh:h:h:hRhRhRhRhRhRhRhRhXhShShShShShShShShSiAh5rep3k6pXl#lKn0mrgfioiohfhfhfg9g9g9g9gQgQgQgtgtgtgtgfgfgef#f#f#f#f5fBfBfBfBfBfhfhfhe3e3e3eNeNeNeNeNeHefefefd6cVhyrfrgiCiDiDiDiDiDoIoIoIoIkLkLkLkLkLpGpGpGpGpGpGi5i5i5i5o0o0oJrhrirjrkrlrmrnc6c5c6dldldldGdGdGdGd#dId7d7egeieieWeWeYeYe4e5fpfpfqfqfqf6f6f6f8gggggggLgRgRgRihh8h8jpjpkflrlrlrnhnRnRnRpLpLpLpLrorprqrraaacaaaa",
"aaaaadaarsrtrublblblbSbSbSbSbLbLbLbLbLcEcVcVcVc4c4dkdkdkdSdScTcTefefefeHeHeNeNeNeNc2e3e3fhfhfhfBfBfBfBfBfBf5f#f#f#f#gfgfgtgtgtgtgtgQgQhfrvi7izivivivivh:h:h:hRhRhRhRhRhRhRhRhXhShShShShShShShShSiAjZjlrwrxrylim+rzrAiYjwhfhfhfhfhfg9g9g9gQgQgQgQgtgtgtgtgfgff#f#f#f#f#f5fBfBfBfBfBfhfhfhe3e3c2eNeNeNeNeHeHefefefcTdkc1rBnwjXiDiDiDiDoIoIoIoIkLkLkLkLkLpGpGpGpGpGpGi5i5i5i5o0o0o0o0rCj@rDm9mzrEb5qwc5c6dldldldGdGdGdGdIdId7d7egeieieWeWeYeYe4e5fpfqfqfqfYf6f6f6f8gggggggLgRgRgRihh8h8jpjpkflrlrlrnhnRnRnRpLpLpLq*rorFrGrHaarIaaaa",
"aaaaabaarJrKrLblblblbSbSbSbSbSbLbLbLbLclcEcVcVc4c4dkdkdkdSdScTcTd6efefefeHeNeNeNeNc2e3e3e3fhfhfhfBfBfBfBfBf5f#f#f#f#f#gfgfgtgtgtgtgfhgrMivivivivivivh:h:h:hRhRhRhRhRhRhRhRhXhShShShShShShShShSiAiAh5rNrOrPlllklPrQrRiohfhfhfhfhfg9g9g9g9gQgQgQgtgtgtgtgfgfgff#f#f#f#f5fBfBfBfBfBfBfhfhfhe3e3c2eNeNeNeNeHeHefefefcTdkg8rSkLiDiDiDiDoIoIoIoIkLkLkLkLkLpGpGpGpGpGpGi5i5i5i5o0o0o0o0o0o0rTrUrVlGrWcmcWc5c6dldldldGdGdGdGdIdId7egegeieieWeWeYeYe5e5fpfqfqfqfYf6f6f8gggggggggLgRgRg-ihh8h8jpjpkflrlrlrnhnRnRo<pLpLpLq*rorXrYrZababaaaa",
"aaa2aar0r1bcbmblblblbjbSbSbSbSbLbLbLbLclcEcVcVcVc4dkdkdkdSdScTcTd6efefefeHeHeNeNeNeNc2e3e3fhfhfhfBfBfBfBfBf5f#f#f#f#f#gfgfgtgtgtgtg<hjr2iwi4ivivivh:h:h:hRhRhRhRhRhRhRhRhXhShShShShShShShShSiAhWhSiwr3r4r5l7lkr6r7o*r8hfhfhfhfg9g9g9g9gQgQgQgQgtgtgtgtgfgff#f#f#f#f#f5fBfBfBfBfBfhfhfhe3e3e3c2eNeNeNeNeHefefefefcTdkr9r#r.i5jXiDoIoIoIoIkLkLkLkLkLpGpGpGpGpGpGi5i5i5i5o0o0o0o0o0o0oJr+r@kDr*l7r=r-q8dldldldldGdGdGd#dIdId7egeieieieWeWeYeYe5e5fpfqfqfqfYf6f6f8gggggggggRgRgRg-h8h8h8jpkfkflrlrnznhnRnRo<pLpLpLq*ror;r:r>r,aaa2aa",
"aaaLaar<a#r1bTblblblbjbSbSbSbSbLbLbLbLclcEcVcVcVc4dkdkdkdSdSdScTcTefefefeHeHeNeNeNeNc2e3e3fhfhfhfBfBfBfBfBfBf5f#f#f#f#f#gfgfgtgtgtg<iYr2iwi4ivivh:h:h:hRhRhRhRhRhRhRhRhXhShShShShShShShShSiAhWhWhSiDr3r4lelhl9lJr5r6f5hfhfhfg9g9g9g9gQgQgQgQgtgtgtgtgfgfgef#f#f#f#f5fBfBfBfBfBfBfhfhfhe3e3c2eNeNeNeNeHeHefefefd6cTdSdSdSr7kMnuoIoIoIoIkLkLkLkLkLpGpGpGpGpGpGi5i5i5i5o0o0o0o0o0o0o0oJr8qNkFk5r9r0a8sadldldldldGdGdGd#dIdId7egeieieieWeWeYe4e5e5fpfqfqfqfYf6f6f8gggggggggRgRgRg-h8h8h8jpkfkflrlrnznRnRnRo<pLpLpLq*roroqXsbscaadNaa",
"aaadaasdsesfbTblblblbkbSbSbSbSbLbLbLbLbLcEcVcVcVc4c4dkdkdkdSdScTcTefefefefeHeNeNeNeNeNe3e3e3fhfhfhfBfBfBfBfBf5f#f#f#f#f#gfgfgfgtgtgtg9sgi7izivh:h:h:hRhRhRhRhRhRhRhRhXhShShShShShShShShSiAhWhWhWhSshj5sik6lhplsjskslsmhfhfg9g9g9g9gQgQgQgQgtgtgtgtgtgfgff#f#f#f#f#f5fBfBfBfBfBfBfhfhfhe3e3c2eNeNeNeNeHeHefefefcTcTdSc4kPsnnwnuoIoIoIkLkLkLkLkLpGpGpGpGpGpGi5i5i5i5o0o0o0o0o0o0o0o0i6qbsospsqsrssa4ovdldldldGdGdGdGd#dIdId7egeieieieWeYeYe4e5e5fpfqfqfqf6f6f6f8gggggggggRgRgRg-h8h8jpjpkfkflrlrnhnRnRnRo<pLpLpLq*rorostsusvaaemaa",
"aaabaaswsxbqbTblblblblbSbSbSbSbSbLbLbLbLclcEcVcVc4c4dkdkdkdSdScTcTd6efefefeHeHeNeNeNeNc2e3e3fhfhfhfBfBfBfBfBfBf5f#f#f#f#f#gfgfgfhFiTsyszhRivh:h:h:hRhRhRhRhRhRhRhRhXhShShShShShShShShSiAhWhWhWhWhSshsAsBk4lhsCsDsEmugQg9g9g9g9g9gQgQgQgQgtgtgtgtgtgfgfgef#f#f#f#f5fBfBfBfBfBfBfhfhfhe3e3e3eNeNeNeNeNeHefefefefcTcTdSigqDsFsGnvoIoIkLkLkLkLkLpGpGpGpGpGpGi5i5i5i5o0o0o0o0o0o0o0o0i6q9sHnusIsJsKsLsMsNdGdldldGdGdGdGd#dIdId7egeieieWeWeYeYe4e5e5fpfqfqfqf6f6f6f8gggggggLgRgRgRg-h8h8jpjpkfkflrlrnhnRnRnRo<pLpLpLq*rorosOsPsQaaabaa",
"abaasRsScEbWbTblblblblbjbSbSbSbSbLbLbLbLclcEcVcVcVc4dkdkdkdSdSdScTcTefefefeHeHeNeNeNeNc2e3e3e3fhfhfhfBfBfBfBfBf5f#f#f#f#f#gegfgfgesThri7izh:h:h:hRhRhRhRhRhRhRhRhXhShShShShShShShShSiAhWhWhWhWhWhSjXo#sUk4pXsVsWsXhggtg9g9g9g9gQgQgQgQgtgtgtgtgtgfgfgff#f#f#f#f#f5fBfBfBfBfBfBfhfhfhe3e3c2eNeNeNeNeHeHefefefd6cTcTdSigdhsYsZnvoIkLkLkLkLkLpGpGpGpGpGpGi5i5i5i5o0o0o0o0o0o0o0o0i6q9q9o0s0s1s2k7r9s3crd7dldldGdGdGdGdIdId7d7egeieieWeWeYeYe4e5fpfpfqfqfqf6f6f6f8gggggggLgRgRgRg-h8h8jpjpkfkflrlrnhnRnRnRpLpLpLpLq*roros4s5s6s7aaab",
"acaas8a@bWbUbTbTblblblbjbSbSbSbSbLbLbLbLbLcEcVcVcVc4c4dkdkdkdSdScTcTd6efefefeHeNeNeNeNeNc2e3e3fhfhfhfBfBfBfBfBfBf5f#f#f#f#f#gfgfg1hji0iws9h:h:hRhRhRhRhRhRhRhRhXhShShShShShShShShSiAhWhWhWhWhWhWhWh1s#s.k6pXlPs+iWg9g9g9g9g9gQgQgQgQgtgtgtgtgtgtgfgff#f#f#f#f#f5fBfBfBfBfBfBfhfhfhe3e3e3c2eNeNeNeNeHeHefefefcTcTdSdSigdhmCsZjXkLkLkLkLkLpGpGpGpGpGpGi5i5i5i5o0o0o0o0o0o0o0o0i6q9q9q9o0s@kIqdk6mzs*b4eidldldGdGdGdGdIdId7egegeieieWeWeYeYe5e5fpfqfqfqfYf6f6f6f8gggggggLgRgRgRihh8h8jpjpkflrlrlrnhnRnRnRpLpLpLpLq*roros=s-s;s:aaac",
"adaas>s,s<bUbTbTblblblbkbSbSbSbSbLbLbLbLbLclcEcVcVc4c4dkdkdkdSdScTcTcTefefefeHeHeNeNeNeNc2e3e3e3fhfhfhfBfBfBfBfBfBf5f#f#f#f#f#gfg1hjjIh,s9h:hRhRhRhRhRhRhRhRhXhShShShShShShShShSiAhWhWhWhWhWhWhWhWiBs1s2rypXlNs3ipgeg9g9g9gQgQgQgQgtgtgtgtgtgtgfgff#f#f#f#f#f#f5fBfBfBfBfBfBfhfhfhe3e3c2eNeNeNeNeHeHefefefd6cTcTdSdScVqDs4s5iDkLkLkLkLpGpGpGpGpGpGi5i5i5i5o0o0o0o0o0o0o0o0i6q9q9q9q9o0s6s7s8k4srs9s0dGdldldGdGdGd#dIdId7egeieieieWeWeYeYe5e5fpfqfqfqfYf6f6f8gggggggggLgRgRg-ihh8h8jpjpkflrlrlrnhnRnRnRpLpLpLq*rororos=tasutbaaad",
"adaatcs,s<bUbUbTblblblblbSbSbSbSbSbLbLbLbLclcEcVcVcVc4dkdkdkdSdSdScTcTefefefefeHeNeNeNeNeNc2e3e3fhfhfhfBfBfBfBfBfBf5f#f#f#f#f#f#g2hGtdk9iyhRhRhRhRhRhRhRhRhXhShShShShShShShShSiAhWhWhWhWhWhWhWhWhVi9s1s2pWljo+tetffBg9gQgQgQgQgQgtgtgtgtgtgtgfgfgef#f#f#f#f#f5fBfBfBfBfBfBfhfhfhe3e3e3c2eNeNeNeNeHeHefefefcTcTdSdSdScVtgthnwiDkLkLkLpGpGpGpGpGpGi5i5i5i5o0o0o0o0o0o0o0o0i6q9q9q9q9q9o0tiritjk4lFtktltmqhdGdGdGdGd#dIdId7egeieieieWeWeYe4e5e5fpfqfqfqfYf6f6f8gggggggggRgRgRg-h8h8h8jpkfkflrlrnznhnRnRo<pLpLpLq*rororos=sttntoaaac",
"abaatpa8tqbUbUbTblblblblbjbSbSbSbSbLbLbLbLbLcEcVcVcVc4c4dkdkdkdSdScTcTd6efefefeHeHeNeNeNeNc2e3e3e3fhfhfhfBfBfBfBfBfBf5f#f#f#f#f#f#gQtrhTivhRhRhRhRhRhRhRhXhShShShShShShShShSiAhWhWhWhWhWhWhWhWiGkqtstttupWljlJtvtfg*gQgQgQgQgQgtgtgtgtgtgtgfgfgef#f#f#f#f#f5fBfBfBfBfBfBfhfhfhfhe3e3c2eNeNeNeNeNeHefefefefcTcTdSdSdkcVkPtwi6kLkLkLpGpGpGpGpGpGi5i5i5i5o0o0o0o0o0o0o0o0i6q9q9q9q9q9q9o0rhtxp7p8m#tyr=dVqwdGdGdGdGd#dIdId7egeieieWeWeYeYe4e5e5fpfqfqfqf6f6f6f8gggggggggRgRgRg-h8h8h8jpkfkflrlrnznRnRnRo<pLpLpLq*rorotzs=rptAtBabaK",
"aatCtDbubsbUbUbTbTblblblbkbSbSbSbSbLbLbLbLbLclcEcVcVc4c4dkdkdkdSdSdScTcTefefefefeHeNeNeNeNeNc2e3e3fhfhfhfhfBfBfBfBfBfBf5f#f#f#f#g3g9tEiGivhRhRhRhRhRhRhXhShShShShShShShShSiAhWhWhWhWhWhWhWhWiBiBkqtFtGtHlllklItItfg*gQgQgQgQgtgtgtgtgtgtgfgfgef#f#f#f#f#f5f5fBfBfBfBfBfBfhfhfhe3e3e3c2eNeNeNeNeHeHefefefd6cTcTdSdSdkcVfItJoIkLkLpGpGpGpGpGpGi5i5i5i5o0o0o0o0o0o0o0o0i6q9q9q9q9q9q9q9q9s0tKm7tLpXlNtMtNtOdGdGdGdGdIdId7egegeieieWeWeYeYe4e5fpfpfqfqfqf6f6f6f8gggggggLgRgRgRg-h8h8jpjpkfkflrlrnhnRnRnRo<pLpLpLq*rorotzs=tPs5tQtRaa",
"aatStTb:bVbUbUbUbTblblblblbSbSbSbSbSbLbLbLbLclcEcVcVcVc4dkdkdkdkdSdScTcTd6efefefeHeHeNeNeNeNc2e3e3e3fhfhfhfBfBfBfBfBfBfBf5f#f#fBg5tUjmhShRhRhRhRhRhRhXhShShShShShShShShSiAhWhWhWhWhWhWhWhWiBiBiGiCtVtWtXlllElOtYmsf5gQgQgtgtgtgtgtgtgtgfgfgef#f#f#f#f#f#f5fBfBfBfBfBfBfhfhfhe3e3e3c2eNeNeNeNeHeHefefefefcTcTdSdSdSdkcVeNtZk>i5pGpGpGpGpGpGi5i5i5i5o0o0o0o0o0o0o0o0i6q9q9q9q9q9q9q9q9q9rCt0t1t2lAt3t4t5eidGdGdGd#dIdId7egegeieieWeWeYeYe5e5fpfqfqfqfYf6f6f6f8gggggggLgRgRgRg-h8h8jpjpkfkflrlrnhnRnRnRpLpLpLpLq*rorotzs=s=tPt6t7aa",
"aat8qlt9bVbUbUbUbTblblblblbjbSbSbSbSbLbLbLbLbLcEcEcVcVc4c4dkdkdkdSdSdScTcTefefefefeHeNeNeNeNeNc2e3e3e3fhfhfhfBfBfBfBfBfBf5f5f#fBg6hpiAhRhRhRhRhRhRhXhShShShShShShShShSiAhWhWhWhWhWhWhWhWiBiBiBiGjXt#t.m8lfl#r9t+iXg2gtgtgtgtgtgtgtgfgfgfgef#f#f#f#f#f#f5fBfBfBfBfBfBfhfhfhfhe3e3c2eNeNeNeNeNeHeHefefefd6cTcTdSdSdkdkcVjai+iBt@pGpGpGpGpGi5i5i5i5o0o0o0o0o0o0o0o0i6q9q9q9q9q9q9q9q9q9q9t*i5t=t-llmzpJt;tOdGdGdGd#dIdId7egeieieieWeWeYeYe5e5fpfqfqfqfYf6f6f8gggggggggLgRgRg-ihh8h8jpjpkflrlrlrnhnRnRnRpLpLpLpLq*rorotzs=s=t:tnt>aa",
"aaeDbwt,bVbUbUbUbTbTblblblbkbSbSbSbSbSbLbLbLbLclcEcVcVcVc4dkdkdkdkdSdScTcTd6efefefeHeHeNeNeNeNeNc2e3e3fhfhfhfhfBfBfBfBfBfBf5f5fBt<nthUivhRhRhRhRhXhShShShShShShShShSiAhWhWhWhWhWhWhWhWiBiBiBiBiGjWt1t1t2lAl.t3t4hig2gtgtgtgtgtgtgfgfgff#f#f#f#f#f#f#f5fBfBfBfBfBfBfBfhfhfhe3e3e3c2eNeNeNeNeHeHefefefefcTcTdSdSdSdkdkc4dSjot5t6oIpGpGpGi5i5i5i5o0o0o0o0o0o0o0o0i6q9q9q9q9q9q9q9q9q9q9t7sHsHt8t9pWt0uasNdIdGdGdGd#dIdId7egeieieieWeYeYe4e5e5fpfqfqfqfYf6f6f8gggggggggRgRgRg-h8h8h8jpjpkflrlrlrnhnRnRnRpLpLpLq*rororos=s=s=ubrGucaa",
"aac;bvt,bVbVbUbUbUbTblblblblbSbSbSbSbSbLbLbLbLclcEcVcVcVc4c4dkdkdkdSdSdScTcTefefefefeHeHeNeNeNeNc2e3e3e3fhfhfhfBfBfBfBfBfBfBfBg*nMl0h6ivhRhRhRhXhShShShShShShShShSiAhWhWhWhWhWhWhWhWiBiBiBiBi7iGkKuduem9pXsCmmufuggegtgtgtgtgfgfgfgff#f#f#f#f#f#f#f5fBfBfBfBfBfBfBfhfhfhe3e3e3c2eNeNeNeNeNeHeHefefefd6cTcTdSdSdkdkdkc4dSlquhsHoIpGpGi5i5i5i5o0o0o0o0o0o0o0o0i6q9q9q9q9q9q9q9q9q9q9t7sHsHqbt8uik7ujuktOdldGdGdGdIdId7egegeieieWeWeYeYe4e5fpfpfqfqfqf6f6f6f8gggggggggRgRgRg-h8h8h8jpkfkflrlrnznRnRnRo<pLpLpLq*rororos=s=s=t:ulumaa",
"aaunqguobVbVbUbUbUbTblblblblbjbSbSbSbSbLbLbLbLbLclcEcVcVcVc4dkdkdkdkdSdScTcTd6efefefeHeHeNeNeNeNeNc2e3e3e3fhfhfhfBfBfBfBfBfBfBmSiqrBh,ivhRhRhXhShShShShShShShShSiAhWhWhWhWhWhWhWhWiBiBiBiBi7i7iGshupuqnZlhm+urusutgegtgtgtgfgfgfgef#f#f#f#f#f#f#f5fBfBfBfBfBfBfBfhfhfhfhe3e3c2eNeNeNeNeNeHeHefefefefcTcTdSdSdSdkdkdkc4dkbSuusHoIpGi5i5i5i5o0o0o0o0o0o0o0o0i6q9q9q9q9q9q9q9q9q9q9t7sHsHq9r8t8uvk8oWnruwcmdIdGd#dIdId7egeieieieWeWeYeYe5e5fpfqfqfqfqf6f6f6f8gggggggLgRgRgRg-h8h8jpjpkfkflrlrnhnRnRnRo<pLpLpLq*rorotzs=s=uxuysPuzen",
"uAuBuCr1b:bVbVbUbUbTbTblblblblbSbSbSbSbSbLbLbLbLclcEcVcVcVc4c4dkdkdkdSdSdScTcTefefefefeHeHeNeNeNeNeNc2e3e3e3fhfhfhfBfBfBfBfBfBg=sTuDi8izhRhXhShShShShShShShShSiAhWhWhWhWhWhWhWhWiBiBiBiBi7i7i7iGshuEr4lelhpcuFuGuHgegfgfgfgfgff#f#f#f#f#f#f#f5f5fBfBfBfBfBfBfBfhfhfhfhe3e3e3c2eNeNeNeNeHeHefefefefcTcTcTdSdSdkdkdkdkc4i9jbuIsHoIi5i5i5i5o0o0o0o0o0o0o0o0i6q9q9q9q9q9q9q9q9q9q9t7sHsHsHq9tiksuJk4l#uKuLsNdIdGd#dIdId7egeieieieWeWeYe4e5e5fpfqfqfqfYf6f6f8gggggggggLgRgRgRihh8h8jpjpkfkflrlrnhnRnRnRpLpLpLpLq*rorotzs=s=uxuMuNuOuP",
"uQuRb3b,b:bVbVbUbUbUbTblblblblbjbSbSbSbSbLbLbLbLbLclcEcVcVcVc4dkdkdkdkdSdScTcTcTefefefefeHeHeNeNeNeNeNc2e3e3fhfhfhfhfBfBfBfBfBg=sTuSi8izhXhShShShShShShShShSiAhWhWhWhWhWhWhWhWiBiBiBiBi7i7i7i7iGshp@uTuUlClGuVuWg9r8gfgfgff#f#f#f#f#f#f#f#f5f5fBfBfBfBfBfBfBfhfhfhfhe3e3e3c2eNeNeNeNeNeHeHefefefd6cTcTdSdSdSdkdkdkc4cVcVcVuXuYkLi5i5i5o0o0o0o0o0o0o0o0i6q9q9q9q9q9q9q9q9q9q9t7sHsHsHsHq9uZksu0k4l9u1u2d4sadGdIdId7d7egeieieWeWeYeYe4e5e5fpfqfqfqfYf6f6f8gggggggggRgRgRg-ihh8h8jpjpkflrlrlrnhnRnRnRpLpLpLpLq*rorotzs=s=uxu3rou4u5",
"u6u7dzu8b>bVbVbUbUbUbTbTblblblbkbSbSbSbSbSbLbLbLbLclcEcVcVcVc4c4dkdkdkdSdSdScTcTd6efefefeHeHeNeNeNeNeNc2e3e3e3fhfhfhfhfBfBfBfBg=iqu9h<ivhShShShShShShShShSiAhWhWhWhWhWhWhWhWiBiBiBiBi7i7i7i7i7iBu#u.u+u@lCt0u*k7gQgfgff#f#f#f#f#f#f#f#f#f5fBfBfBfBfBfBfBfBfhfhfhfhe3e3e3c2eNeNeNeNeNeHeHefefefefcTcTdSdSdSdkdkdkc4c4cVcVcVu=nwkLi5i5o0o0o0o0o0o0o0o0i6q9q9q9q9q9q9q9q9q9q9t7sHsHsHsHsHq9uZksu-k9lkl*u;dVtOd#dIdId7egegeieieWeWeYeYe4e5fpfpfqfqfqf6f6f6f8gggggggggRgRgRg-h8h8h8jpkfkflrlrnznhnRnRo<pLpLpLq*rororos=s=s=uxu:u:u>u,",
"u<dVcncmb>b:bVbVbUbUbUbTblblblblbjbSbSbSbSbLbLbLbLbLclcEcVcVcVc4c4dkdkdkdSdSdScTcTefefefefeHeHeNeNeNeNeNc2e3e3e3fhfhfhfhfBfBfBg=iqu1h<ivhShShShShShShShSiAhWhWhWhWhWhWhWhWiBiBiBiBi7i7i7i7i7i7iBu#u.u+u@lCu2u3r8hFf#f#f#f#f#f#f#f#f#f5f5fBfBfBfBfBfBfBfBfhfhfhfhe3e3e3c2eNeNeNeNeNeHeHefefefefcTcTcTdSdSdkdkdkdkc4c4cVcVcVu4nwkLi5o0o0o0o0o0o0o0o0i6q9q9q9q9q9q9q9q9q9q9t7sHsHsHsHsHsHq9uZu5u6k9lilNu7b6tOd#dIdId7egeieieieWeWeYeYe5e5fpfqfqfqfYf6f6f6f8gggggggLgRgRgRg-h8h8jpjpkfkflrlrnznRnRnRo<pLpLpLq*rororos=s=s=uxu:u8u9u0",
"vab4b<cmb>b:bVbVbUbUbUbTbTblblblbjbSbSbSbSbSbLbLbLbLclcEcVcVcVc4c4dkdkdkdkdSdScTcTcTefefefefeHeHeNeNeNeNeNc2e3e3e3fhfhfhfhfBfBg=iqu1h8ivhShShShShShShSiAhWhWhWhWhWhWhWhWiBiBiBiBi7i7i7i7i7i7hViBu#p@u+u@lCm0vbi0f#f#f#f#f#f#f#f#f#f5fBfBfBfBfBfBfBfBfBfhfhfhfhe3e3e3c2eNeNeNeNeNeHeHefefefefd6cTcTdSdSdSdkdkdkc4c4cVcVcVcEu4nwpGo0o0o0o0o0o0o0o0i6q9q9q9q9q9q9q9q9q9q9t7sHsHsHsHsHsHsHq9vcsAu6k9pXlLvdvetOdIdId7d7egeieieieWeYeYe4e5e5fpfqfqfqfYf6f6f8gggggggggLgRgRgRihh8h8jpjpkfkflrlrnhnRnRnRo<pLpLpLq*rorotzs=s=s=uxu:vfvgvh",
"viqgbZcmb>b>bVbVbVbUbUbUbTblblblblbjbSbSbSbSbLbLbLbLbLclcEcVcVcVc4c4dkdkdkdSdSdScTcTd6efefefefeHeHeNeNeNeNeNc2e3e3e3fhfhfhfhfhg=iqu9h8ivhShShShShShSiAhWhWhWhWhWhWhWhWiBiBiBiBi7i7i7i7i7i7hVhViBu#vju+u@lCvkvlg5f#f#f#f#f#f#f#f5f5fBfBfBfBfBfBfBfBfBfhfhfhfhe3e3e3c2eNeNeNeNeNeNeHeHefefefefcTcTdSdSdSdkdkdkdkc4cVcVcVcEcluXnwoJo0o0o0o0o0o0o0i6q9q9q9q9q9q9q9q9q9q9t7sHsHsHsHsHsHsHsHt7vmvnvok4pXlKvpvevqdIdId7egegeieieWeWeYeYe4e5e5fpfqfqfqf6f6f6f8gggggggggRgRgRg-ihh8h8jpjpkflrlrlrnhnRnRnRpLpLpLpLq*rorotzs=s=uxuxu:vrvsvt",
"vub5bZcmcmb>b:bVbVbUbUbUbTblblblblbjbSbSbSbSbSbLbLbLbLbLcEcEcVcVcVc4dkdkdkdkdSdSdScTcTd6efefefefeHeHeNeNeNeNeNc2e3e3e3fhfhfhfhm-sTvvjFivhShShShShSiAhWhWhWhWhWhWhWhWiBiBiBiBi7i7i7i7i7i7hVhVhViBu#r3uTuUlCvkvwg6fBf#f#f#f#f5f5fBfBfBfBfBfBfBfBfBfhfhfhfhfhe3e3e3c2eNeNeNeNeNeNeHeHefefefefcTcTcTdSdSdkdkdkdkc4c4cVcVcVcEvxuIs0oJo0o0o0o0o0o0i6q9q9q9q9q9q9q9q9q9q9t7sHsHsHsHsHsHsHsHt*sHtitWs.k4pXlKvyvzeYdIdId7egeieieieWeWeYeYe5e5fpfqfqfqfqf6f6f6f8gggggggLgRgRgRg-h8h8h8jpkfkflrlrnznhnRnRo<pLpLpLq*rororos=s=s=uxu:u:vAvBvC",
"vDb4vEcmcmb>b>bVbVbVbUbUbTbTblblblblbjbSbSbSbSbLbLbLbLbLclcEcVcVcVc4c4dkdkdkdkdSdScTcTcTefefefefeHeHeHeNeNeNeNeNc2e3e3e3e3fhfhm-hgvFjFivhShShShSiAhWhWhWhWhWhWhWhWiBiBiBiBi7i7i7i7i7i7hVhVhVhVi7vGvHvIlelCvkvJg6fBf#f5f5fBfBfBfBfBfBfBfBfBfBfBfhfhfhfhfhe3e3e3c2eNeNeNeNeNeNeHeHefefefefcTcTcTdSdSdSdkdkdkc4c4cVcVcVcEcEkevKo;oJo0o0o0o0o0i6q9q9q9q9q9q9q9q9q9q9t7sHsHsHsHsHsHsHsHt*t*t*vLj2kzk6ljlKvMvzeYdId7d7egeieieieWeYeYe4e5e5fpfqfqfqfYf6f6f8f8gggggggLgRgRgRg-h8h8jpjpkfkflrlrnhnRnRnRo<pLpLpLq*rororos=s=s=uxu:vNvOvPvQ",
"vRvSvEcmcmcmb>b:bVbVbUbUbUbTblblblblbkbSbSbSbSbSbLbLbLbLbLclcEcVcVcVc4c4dkdkdkdSdSdScTcTcTefefefefeHeHeNeNeNeNeNeNc2e3e3e3e3fhg=jxp5i8hRhShShSiAhWhWhWhWhWhWhWhWiBiBiBiBi7i7i7i7i7i7hVhVhVhVhVi7vTvUvVnZlCvkvJp.g*fBfBfBfBfBfBfBfBfBfBfBfBfBfhfhfhfhe3e3e3e3c2eNeNeNeNeNeNeHeHefefefefd6cTcTdSdSdSdkdkdkdkc4cVcVcVcVclcEbUvWo;oJo0o0o0o0i6q9q9q9q9q9q9q9q9q9q9t7sHsHsHsHsHsHsHsHt*t*t*uYs0j1s2k8ljlKvMvevXdId7egegeieieWeWeYeYe4e5e5fpfqfqfqfYf6f6f8gggggggggRgRgRg-ihh8h8jpjpkfkflrlrnhnRnRnRo<pLpLpLq*rorotzs=s=s=uxu:vNvfvYvZ",
"v0dVv1cmcmcmb>b>bVbVbUbUbUbTbTblblblblbjbSbSbSbSbLbLbLbLbLclcEcEcVcVcVc4dkdkdkdkdSdSdScTcTcTefefefefeHeHeNeNeNeNeNeNc2c2e3e3e3eNv2l0j0hRhShSiAhWhWhWhWhWhWhWhWiBiBiBiBi7i7i7i7i7i7hVhVhVhVhVhUi7iDv3v4v5lCvkv6g5fhfBfBfBfBfBfBfBfBfBfBfBfhfhfhfhfhe3e3e3e3c2eNeNeNeNeNeNeHeHefefefefd6cTcTdSdSdSdkdkdkdkc4c4cVcVcVcEbLcEv7v8rCoJo0o0o0i6q9q9q9q9q9q9q9q9q9q9t7sHsHsHsHsHsHsHsHt*t*t*uYnft6ttv9rylilKvyv#v.d7d7egeieieieWeWeYeYe5e5fpfqfqfqfqf6f6f6f8gggggggggRgRgRg-h8h8h8jpjpkflrlrlrnhnRnRnRpLpLpLpLq*rorotzs=s=uxuxu:vNv+v@v*",
"v=a5cXb2cmcmcmb>b:bVbVbUbUbUbTbTblblblbkbSbSbSbSbSbLbLbLbLbLclcEcVcVcVc4c4dkdkdkdkdSdSdScTcTd6efefefefeHeHeHeNeNeNeNeNeNc2e3e3eNhynth>hRhSiAhWhWhWhWhWhWhWhWiBiBiBiBi7i7i7i7i7i7hVhVhVhVhVhUhUhTi8rNv-v;pXm0v:g9fBfBfBfBfBfBfBfBfBfBfhfhfhfhfhfhe3e3e3c2c2eNeNeNeNeNeNeHeHefefefefd6cTcTdSdSdSdkdkdkdkc4c4cVcVcVcEclbLjKovv>sHo0o0o0i6q9q9q9q9q9q9q9q9q9q9t7sHsHsHsHsHsHsHsHt*t*t*uYuYqbv,s#v<pWlklKvpb6vXd7egegeieieWeWeYeYe4e5e5fpfqfqfqfYf6f6f6f8gggggggLgRgRgRg-h8h8jpjpkfkflrlrnznRnRnRo<pLpLpLq*rororos=s=s=uxu:u:v1v+r:v2",
"v3bkcXb2cmcmcmb>b>bVbVbVbUbUbUbTblblblblbjbSbSbSbSbSbLbLbLbLbLclcEcVcVcVc4c4dkdkdkdkdSdSdScTcTd6efefefefeHeHeHeNeNeNeNeNeNc2c2eNg4v4h3hSiAhWhWhWhWhWhWhWhWiBiBiBiBi7i7i7i7i7i7hVhVhVhVhVhUhUhUhUjXm5miv5lAu2vbsmfBfBfBfBfBfBfBfBfhfhfhfhfhfhe3e3e3e3c2eNeNeNeNeNeNeNeHeHefefefefd6cTcTcTdSdSdSdkdkdkc4c4cVcVcVcEcEbLbSdkv6v7q9o0o0i6q9q9q9q9q9q9q9q9q9q9t7sHsHsHsHsHsHsHsHt*t*t*uYuYsHsZv8v9v0lll9lOtMb6eYd7egeieieieWeWeYeYe4e5fpfpfqfqfqf6f6f6f8gggggggggLgRgRgRihh8h8jpjpkfkflrlrnhnRnRnRo<pLpLpLq*rororos=s=s=uxu:u:v1wawbwc",
"wdcqcXb2b2cmcmcmb>b:bVbVbUbUbUbTbTblblblblbSbSbSbSbSbLbLbLbLbLbLcEcEcVcVcVc4c4dkdkdkdkdSdSdScTcTd6efefefefeHeHeHeNeNeNeNeNeNeNeHh6r#nnk,hWhWhWhWhWhWhWhWiBiBiBiBi7i7i7i7i7i7hVhVhVhVhVhUhUhUhUh5nvwewfwgwht0wig*fBfBfBfBfBfBfhfhfhfhfhfhe3e3e3e3c2c2eNeNeNeNeNeNeNeHeHefefefefd6cTcTcTdSdSdSdkdkdkdkc4cVcVcVcVcEclbLbScTwjoIq9o0i6q9q9q9q9q9q9q9q9q9q9t7sHsHsHsHsHsHsHsHt*t*t*uYuYuYsHuZwkwlwmlAqplNu7dVeYegegeieieieWeWeYeYe5e5fpfqfqfqfqf6f6f6f8gggggggggRgRgRg-h8h8h8jpjpkflrlrlrnhnRnRnRpLpLpLpLq*rorotzs=s=s=uxu:vNv1wnvNwo",
"wpdzcWcWb2cmcmcmb>b>bVbVbVbUbUbUbTblblblblbjbSbSbSbSbSbLbLbLbLbLclcEcVcVcVcVc4c4dkdkdkdkdSdSdScTcTd6efefefefefeHeHeNeNeNeNeNeNeNfIdkr7h5hShWhWhWhWhWhWiBiBiBiBi7i7i7i7i7i7hVhVhVhVhVhUhUhUhUh5h5k>qsvnrPlDlGwqwrf#g*fBfhfhfhfhfhfhfhe3e3e3e3e3c2eNeNeNeNeNeNeNeHeHeHefefefefd6cTcTcTdSdSdSdkdkdkdkc4c4cVcVcVcEclbLbLbSa8wsq9o0i6q9q9q9q9q9q9q9q9q9q9t7sHsHsHsHsHsHsHsHt*t*t*uYuYuYuYsHwtwuwvwwlhplr9u;wxeYegegeieieWeWeYeYe4e5e5fpfqfqfqfYf6f6f8f8gggggggLgRgRgRg-h8h8jpjpkfkflrlrnznhnRnRo<pLpLpLpLrororotzs=s=uxu:u:vNv1wnv1wy",
"wzcmcWcWb2b2cmcmcmb>b:bVbVbUbUbUbTbTblblblblbjbSbSbSbSbSbLbLbLbLbLclcEcVcVcVcVc4c4dkdkdkdkdSdSdScTcTcTefefefefefeHeHeNeNeNeNeNeNeNkPwAjChShWhWhWhWhWiBiBiBiBi7i7i7i7i7i7hVhVhVhVhVhUhUhUhUh5h5h5h5hVvnwBpWujwCwDf#g=fhfhfhfhfhfhe3e3e3e3e3c2c2eNeNeNeNeNeNeNeHeHeHefefefefd6cTcTcTdSdSdSdkdkdkdkc4c4cVcVcVcEclbLbLbLbSwEwFm0o0q9q9q9q9q9q9q9q9q9q9t7sHsHsHsHsHsHsHsHt*t*t*uYuYuYuYuYwGwHkWp7k3lCmOm0wIsNeYegeieieieWeWeYeYe4e5fpfpfqfqfqf6f6f6f8gggggggggRgRgRgRihh8h8jpjpkfkflrlrnhnRnRnRo<pLpLpLq*rororos=s=s=uxu:u:v1v1wnwJwK",
"wLb2cWcWcWb2cmcmcmb>b>bVbVbVbUbUbUbTbTblblblblbSbSbSbSbSbLbLbLbLbLbLclcEcVcVcVc4c4dkdkdkdkdkdSdSdScTcTcTefefefefefeHeHeHeNeNeNeNefg5wMwNhShWhWhWhWiBiBiBiBi7i7i7i7i7i7hVhVhVhVhVhUhUhUhUh5h5h5h5h5jXvnlmk7m+wOwPhFg=fhfhfhfhe3e3e3e3e3c2c2eNeNeNeNeNeNeNeNeHeHefefefefefd6cTcTcTdSdSdSdkdkdkdkc4c4cVcVcVcEcEclbLbLbLbSwQiJwRo0q9q9q9q9q9q9q9q9q9t7sHsHsHsHsHsHsHsHt*t*t*uYuYuYuYuYuYsHwSwTq2k4lCn9wUwVwWeWeieieieWeWeYeYe4e5e5fpfqfqfqfYf6f6f6f8gggggggLgRgRgRg-h8h8h8jpjpkflrlrlrnhnRnRnRpLpLpLpLq*rorotzs=s=s=uxu:vNv1v1wnwJwJ",
"wXb2cWcWcWb2b2cmcmcmb>b:bVbVbUbUbUbUbTblblblblbjbSbSbSbSbSbLbLbLbLbLbLclcEcVcVcVc4c4dkdkdkdkdkdSdSdScTcTcTefefefefefefeHeHeNeNeNg9g7wYh9hRhWhWhWiBiBiBiBi7i7i7i7i7i7hVhVhVhVhVhUhUhUhUh5h5h5h5h5hVoJwZw0k5lFw1w2w3g=fhe3e3e3e3e3e3c2c2eNeNeNeNeNeNeNeNeHeHeHefefefefefcTcTcTdSdSdSdSdkdkdkdkc4c4cVcVcVcEcEclbLbLbLbLkefIw4w5w6q9q9q9q9q9q9q9q9t7sHsHsHsHsHsHsHsHt*t*t*uYuYuYuYuYuYuYrCs6j1w7k5w8ujw9uww#eWeieieieWeWeYeYe4e5fpfpfqfqfqfYf6f6f8gggggggggLgRgRgRg-h8h8jpjpkfkflrlrnznhnRnRnRpLpLpLpLq*rorotzs=s=uxuxu:vNv1v1wnwJwJ",
"w.cWcWcWcWcWb2cmcmcmb>b>b:bVbVbUbUbUbTbTblblblblbjbSbSbSbSbSbLbLbLbLbLclcEcEcVcVcVc4c4dkdkdkdkdkdSdSdScTcTcTd6efefefefefeHeHeHeNg9g6pah8hRhWhWiBiBiBiBi7i7i7i7i7i7hVhVhVhVhVhUhUhUhUh5h5h5h5h5h5hVi6wTw+k9l#rlw@hyeNe3e3e3e3c2c2c2eNeNeNeNeNeNeNeNeHeHeHefefefefefefcTcTcTdSdSdSdSdkdkdkdkc4c4cVcVcVcVcEclbLbLbLbLbLlqkPw*w=oJq9q9q9q9q9q9q9t7sHsHsHsHsHsHsHsHt*t*t*uYuYuYuYuYuYuYp1qbq9rww-ryljt0w;eYw:eieieieWeWeYeYe4e5e5fpfqfqfqfqf6f6f6f8gggggggggRgRgRg-ihh8h8jpjpkfkflrlrnhnRnRnRo<pLpLpLq*rororos=s=s=uxu:u:vNv1wnwnwJwJ",
"w.cWc5cWcWcWb2b2cmcmcmb>b>bVbVbVbUbUbUbTbTblblblblbjbSbSbSbSbSbLbLbLbLbLclcEcEcVcVcVc4c4dkdkdkdkdkdSdSdScTcTcTd6efefefefefefeHeHd6g3w>w,hWhWiBiBiBiBi7i7i7i7i7i7hVhVhVhVhVhUhUhUhUh5h5h5h5h5h5h5hUw<q5w1w2l9tym:w3mUe3c2c2c2eNeNeNeNeNeNeNeNeNeNeHeHeHefefefefefd6cTcTcTdSdSdSdSdkdkdkdkc4c4cVcVcVcVcEclbLbLbLbLbLbSlqkPw4w=oJq9q9q9q9q9q9t7sHsHsHsHsHsHsHsHt*t*t*uYuYuYuYuYuYuYp1rCtiw5w6w7lelil+w8w9eWeieieieWeWeYeYe4e5e5fpfqfqfqfYf6f6f6f8gggggggLgRgRgRg-h8h8h8jpjpkflrlrlrnhnRnRnRpLpLpLpLq*rorotzs=s=s=uxu:u:v1v1wnwnwJwJ",
"w0c=c6c5cWcWcWb2b2cmcmcmb>b:bVbVbUbUbUbUbTblblblblbkbSbSbSbSbSbSbLbLbLbLbLclcEcEcVcVcVc4c4dkdkdkdkdkdSdSdSdScTcTcTefefefefefefefd6fIxahYxbiGiBiBiBi7i7i7i7i7i7hVhVhVhVhVhUhUhUhUh5h5h5h5h5h5h5h1hUrTxcxdxelil*xfhed6c2eNeNeNeNeNeNeNeNeNeNeNeHeHeHefefefefefefd6cTcTcTdSdSdSdkdkdkdkdkc4c4cVcVcVcVcEclbLbLbLbLbLbLbSkee3xgxho0q9q9q9q9q9t7sHsHsHsHsHsHsHsHt*t*t*uYuYuYuYuYuYuYp1p1rCxixjr4k2lhlDlLxkxlxmeieieieWeWeYeYe5e5fpfqfqfqfqf6f6f6f8gggggggggLgRgRgRg-h8h8jpjpkfkflrlrnznhnRnRo<pLpLpLpLq*rorotzs=s=uxuxu:vNv1v1wnwJwJwK",
"xndxdlc5cWcWcWcWb2cmcmcmb>b>b:bVbVbUbUbUbTbTblblblblbjbSbSbSbSbSbSbLbLbLbLbLclcEcEcVcVcVc4c4c4dkdkdkdkdSdSdSdScTcTcTd6efefefefefefefopxoiDi5iBiBi7i7i7i7i7i7hVhVhVhVhVhUhUhUhUh5h5h5h5h5h5h5h1h1h5o0vHxpk+pXlLxqcRxreNeNeNeNeNeNeNeNeNeNeHeHeHefefefefefefd6cTcTcTdSdSdSdSdkdkdkdkdkc4c4cVcVcVcVcEclbLbLbLbLbLbLbSbSkecTxssZo0q9q9q9q9t7sHsHsHsHsHsHsHsHt*t*t*uYuYuYuYuYuYuYp1p1p1rCwSxtxuk3lgl9xvxwd9xxeieieWeWeYeYe4e5e5fpfqfqfqfYf6f6f6f8gggggggggRgRgRg-h8h8h8jpjpkfkflrlrnhnRnRnRo<pLpLpLq*rororos=s=s=uxu:u:vNv1wnwnwJv1xy",
"xztmxAc6c5cWcWcWb2b2cmcmcmb>b>bVbVbVbUbUbUbTbTblblblblbjbSbSbSbSbSbLbLbLbLbLbLclcEcEcVcVcVcVc4c4dkdkdkdkdkdSdSdScTcTcTcTd6efefefefhzg5xBw6r.iBi7i7i7i7i7i7hVhVhVhVhVhUhUhUhUh5h5h5h5h5h5h5h1h1k>k>kLxCxDm9w8xExFmvc4eNeNeNeNeNeNeNeHeHeHeHefefefefefefefcTcTcTcTdSdSdSdSdkdkdkdkdkc4c4cVcVcVcVcEclbLbLbLbLbLbLbSbSbSbLbUvWs0o0q9q9q9t7sHsHsHsHsHsHsHsHt*t*t*uYuYuYuYuYuYuYp1p1p1p1p1uZxGqok6lhpllKxHd,xmeieieWeWeYeYe5e5fpfpfqfqfqf6f6f6f8gggggggggLgRgRgRg-h8h8h8jpkfkflrlrlrnhnRnRnRpLpLpLpLq*rorotzs=s=s=uxu:u:v1v1wnwJwJv1xI",
"xJxKc7dlc5cWcWcWcWb2cmcmcmcmb>b:bVbVbUbUbUbUbTblblblblblbjbSbSbSbSbSbLbLbLbLbLbLclcEcEcVcVcVcVc4c4dkdkdkdkdkdSdSdSdScTcTcTcTefefefg9g9xLvGi5i7i7i7i7i7i7hVhVhVhVhVhUhUhUhUh5h5h5h5h5h5h5h1h1k>k>k>j0qss1qPlAlKxMmvc4eNeNeNeNeHeHeHeHeHefefefefefefefd6cTcTcTdSdSdSdSdkdkdkdkdkc4c4c4cVcVcVcVcEclbLbLbLbLbLbLbSbSbSkec4kOnusHq9q9q9t7sHsHsHsHsHsHsHsHt*t*t*uYuYuYuYuYuYuYp1p1p1p1p1r8xNlaqBpWwhoWxOxPw9eYeieWeWeYeYe4e5e5fpfqfqfqfYf6f6f6f8gggggggggRgRgRg-ihh8h8jpjpkfkflrlrnznRnRnRo<pLpLpLpLrororotzs=s=uxuxu:vNv1v1wnwJxQxRxS",
"xTeQc7dlc6c5cWcWcWcWb2cmcmcmb>b>b:bVbVbUbUbUbUbTblblblblblbjbSbSbSbSbSbLbLbLbLbLbLclcEcEcVcVcVcVc4c4dkdkdkdkdkdSdSdSdSdScTcTcTd6d6g9xUi+ivhUi7i7i7i7i7hVhVhVhVhVhUhUhUhUh5h5h5h5h5h5h5h1h1k>k>k>k>k>nuxVxWxXlHxYxZc4eHeHeHeHeHeHefefefefefefefefd6cTcTcTcTdSdSdSdSdkdkdkdkdkc4c4cVcVcVcVcEcEclbLbLbLbLbLbLbSbSbSbSkex0wFnfq9q9q9t7sHsHsHsHsHsHsHsHt*t*t*uYuYuYuYuYuYuYp1p1p1p1p1o;wHx1v9x2l7m#l7wOx3x4x5eWeWeWeYeYe5e5fpfpfqfqfqfYf6f6f8gggggggggLgRgRgRg-h8h8h8jpjpkflrlrlrnhnRnRnRo<pLpLpLq*rororos=s=s=uxu:u:vNv1wnwnwJwKx6x7",
"x8wxx9dldlc6cWcWcWcWb2b2cmcmcmb>b>bVbVbVbUbUbUbTbTblblblblblbjbSbSbSbSbSbLbLbLbLbLbLclclcEcVcVcVcVc4c4c4dkdkdkdkdkdSdSdSdScTcTcTcTcTg9fBx#jFiGi7i7i7hVhVhVhVhVhUhUhUhUh5h5h5h5h5h5h5h1h1k>k>k>k>k>h5i6j5x.k6vkx+x@hxeHeHeHefefefefefefefefefd6cTcTcTcTdSdSdSdSdkdkdkdkdkdkc4c4cVcVcVcVcEcEclbLbLbLbLbLbLbSbSbSbSbSmDaVx*xhoJq9t7sHsHsHsHsHsHsHsHt*t*t*uYuYuYuYuYuYuYp1p1p1p1p1s0o;x=x-x;k3lgl9mzx:w9eYeieWeWeYeYe4e5e5fpfqfqfqfYf6f6f6f8gggggggggRgRgRgRihh8h8jpjpkfkflrlrnznhnRnRnRpLpLpLpLq*rorotzs=s=s=uxu:u:v1v1wnwnwJwKs5x>",
"x,b6x<dldldlc5cWcWcWcWb2b2cmcmcmb>b>bVbVbVbUbUbUbTbTblblblblblbSbSbSbSbSbSbLbLbLbLbLbLbLclcEcVcVcVcVcVc4c4dkdkdkdkdkdkdSdSdSdScTcTcTcVdhx1x2i6i7i7hVhVhVhVhVhUhUhUhUh5h5h5h5h5h5h5h1h1k>k>k>k>k>k>h5kMokx3k9pcu3eHefefefefefefefefefefefd6cTcTcTcTdSdSdSdSdSdkdkdkdkdkc4c4c4cVcVcVcVcEcEclbLbLbLbLbLbLbSbSbSbSbSbSbVwQx4w=x5sHsHsHsHsHsHsHsHsHt*t*t*uYuYuYuYuYuYuYp1p1p1p1p1s0s0sGsHlax6k3lhl9xvx7x8xxeWeWeWeYeYe5e5fpfpfqfqfqfYf6f6f8gggggggggLgRgRgRg-h8h8h8jpjpkfkflrlrnhnRnRnRo<pLpLpLq*rororos=s=s=uxuxu:vNv1v1wnwJwJx9x0ya",
"ybv#dvdldldlc6c5cWcWcWcWb2cmcmcmcmb>b:bVbVbVbUbUbUbTbTblblblblbkbSbSbSbSbSbSbLbLbLbLbLbLbLclcEcEcVcVcVcVc4c4c4dkdkdkdkdkdSdSdSdSdSdSdkkPych1iBi7hVhVhVhVhVhUhUhUhUh5h5h5h5h5h5h5h1h1k>k>k>k>k>k>k>h5o0t1ydk6l.yeyffBg9efefefefefefd6cTcTcTcTcTdSdSdSdSdSdkdkdkdkdkdkc4c4cVcVcVcVcVcEclclbLbLbLbLbLbLbSbSbSbSbSbSbkbUcgygyhorsHsHsHsHsHsHsHsHt*t*t*uYuYuYuYuYuYuYp1p1p1p1p1s0s0o;yiyjl4yklAlDm.lLu7wxxmeWeWeYeYe4e5e5fpfqfqfqfYf6f6f6f8gggggggggRgRgRgRg-h8h8jpjpkfkflrlrlrnhnRnRnRpLpLpLpLq*rororos=s=s=uxu:u:v1v1wnwnwJwJylymyn",
"vuvzyodldldldlc6cWcWcWcWb2b2cmcmcmb>b>b:bVbVbUbUbUbUbTbTblblblblbkbSbSbSbSbSbSbLbLbLbLbLbLbLclcEcEcVcVcVcVc4c4c4dkdkdkdkdkdkdSdSdSdSdSdkr9ypiDiBhVhVhVhVhUhUhUhUh5h5h5h5h5h5h5h1h1k>k>k>k>k>k>k>k>k>iDjEyqyrlEsDysh7g9efefefd6cTcTcTcTcTcTdSdSdSdSdSdkdkdkdkdkdkc4c4c4cVcVcVcVcEcEclbLbLbLbLbLbLbLbSbSbSbSbSbSbjbla4b:ytsGq9sHsHsHsHsHsHsHt*t*t*uYuYuYuYuYuYuYp1p1p1p1p1s0s0s0o;yux-yvl6pDn@ujm.yww#e4eWeYeYe4e5e5fpfpfqfqfqfYf6f6f8f8gggggggLgRgRgRg-h8h8h8jpjpkfkflrlrnhnRnRnRo<pLpLpLpLq*rorotzs=s=s=uxu:vNv1v1wnwnwJwJyxyyyz",
"yAc0yodGdldldldlc5cWcWcWcWb2b2cmcmcmb>b>b:bVbVbUbUbUbUbTbTblblblblbkbSbSbSbSbSbSbSbLbLbLbLbLbLclclcEcVcVcVcVcVc4c4c4dkdkdkdkdkdkdSdSdSigg4yByCi5hVhVhVhUhUhUhUh5h5h5h5h5h5h5h1h1k>k>k>k>k>k>k>k>k>k>jXu#yDyEn@lHyFg@igd6cTcTcTcTcTcTdSdSdSdSdSdSdkdkdkdkdkdkc4c4c4cVcVcVcVcVcEcEclbLbLbLbLbLbLbLbSbSbSbSbSbSbjblbUjKyGsHsHsHsHsHsHsHsHsHt*t*t*uYuYuYuYuYuYuYp1p1p1p1p1s0s0s0m0rhyHn7yIk3lClEmzyJw9xmeWeWeYeYe4e5e5fpfqfqfqfYf6f6f6f8gggggggggLgRgRgRg-h8h8h8jpkfkflrlrlrnhnRnRnRo<pLpLpLq*rororos=s=s=uxu:u:vNv1wnwnwJwJyKyLvPyM",
"yNv#dvdGdldldldlc6c5cWcWcWcWb2b2cmcmcmb>b>b:bVbVbUbUbUbUbTbTblblblblbkbSbSbSbSbSbSbSbLbLbLbLbLbLbLclcEcEcVcVcVcVcVc4c4c4dkdkdkdkdkdkdkc4e3tZi5hUhVhVhUhUhUhUh5h5h5h5h5h5h5h1h1k>k>k>k>k>k>k>k>k>k>jXiCyOyPyQk5t3yRcRbLcTcTcTcTdSdSdSdSdSdSdSdkdkdkdkdkdkdkc4c4c4cVcVcVcVcVcEclclbLbLbLbLbLbLbLbSbSbSbSbSbSbjblblb:wEySw=o0sHsHsHsHsHsHt*t*t*uYuYuYuYuYuYuYp1p1p1p1p1s0s0s0s0o;yuyTyUqPlglDlExvyVx8fYeWeYeYe4e5e5fpfqfqfqfqfYf6f6f8gggggggggLgRgRgRg-ihh8h8jpjpkfkflrlrnznRnRnRnRpLpLpLpLq*rorotzs=s=s=uxu:u:v1v1wnwnwJwJyKyWyXyY",
"yZsNdHdGdGdldldldlc6c5cWcWcWcWb2cmcmcmcmb>b>bVbVbVbUbUbUbUbTbTblblblblblbjbSbSbSbSbSbSbLbLbLbLbLbLbLclcEcEcVcVcVcVcVc4c4c4c4dkdkdkdkdkdkcVtgy0w6iBhUhUhUhUh5h5h5h5h5h5h5h1h1k>k>k>k>k>k>k>k>k>k>jXjXiCw<y1sBk5vky2cScVdSdSdSdSdSdSdSdSdkdkdkdkdkdkdkdkc4c4c4cVcVcVcVcVcEcEclbLbLbLbLbLbLbLbSbSbSbSbSbSbSbjblblblb:wElpw=o0sHsHsHsHsHt*t*t*uYuYuYuYuYuYuYp1p1p1p1p1s0s0s0s0s0qbtiw6y3k3lBlEn9xOy4y5e4eYeYeYe4e5e5fpfqfqfqfYf6f6f6f8gggggggggLgRgRgRg-h8h8h8jpkfkflrlrlrnhnRnRnRo<pLpLpLq*rororos=s=s=uxuxu:vNv1v1wnwJwJwJy6y7y8y9",
"y#y.y+c7dGdGdldldldlc6cWcWcWcWcWb2cmcmcmcmb>b>bVbVbVbUbUbUbUbTbTblblblblblbjbSbSbSbSbSbSbLbLbLbLbLbLbLbLclcEcEcVcVcVcVcVc4c4c4c4dkdkdkdkcVkPy@kLi7hUhUhUh5h5h5h5h5h5h5h1h1k>k>k>k>k>k>k>k>k>k>jXjXjXjXvGj@y*v5ujy=c4dSdSdSdSdSdSdkdkdkdkdkdkdkdkdkc4c4c4cVcVcVcVcVcEcEclclbLbLbLbLbLbLbLbSbSbSbSbSbSbSbkblblblblblbTy-sGq9sHsHsHsHt*t*t*uYuYuYuYuYuYuYp1p1p1p1p1s0s0s0s0s0p1xiy;o6y:lflAlEl+y>w#y,eWeYeYe4e5e5fpfqfqfqfqf6f6f6f8gggggggggLgRgRgRg-ihh8h8jpjpkfkflrlrnznhnRnRnRpLpLpLpLq*rorotzs=s=s=uxu:u:vNv1wnwnwJwJyKy6y<y1y2",
"y3y4dzdHdGdGdGdldldldlc5cWcWcWcWb2b2cmcmcmcmb>b:bVbVbVbUbUbUbUbTbTblblblblblbjbSbSbSbSbSbSbSbLbLbLbLbLbLbLclclcEcEcVcVcVcVcVc4c4c4c4dkdkdkdkeHhNh8i7hUh5h5h5h5h5h5h5h1h1k>k>k>k>k>k>k>k>k>k>jXjXjXjXjXiCw6y5xWy6mmy7tgcVdSdkdkdkdkdkdkdkdkdkc4c4c4c4cVcVcVcVcVcVcEcEclbLbLbLbLbLbLbLbLbSbSbSbSbSbSbjbkblblblblbUy8y9uYsHsHsHsHsHt*t*t*uYuYuYuYuYuYuYp1p1p1p1p1s0s0s0s0s0qbp1y0tGp7zalBl9plzbyVxlf6eYeYeYe5e5fpfpfqfqfqfYf6f6f6f8gggggggggRgRgRgRg-h8h8h8jpkfkflrlrlrnhnRnRnRo<pLpLpLq*rororotzs=s=s=uxu:vNv1v1wnwnwJwJyKzczdzeu5",
"uAzfzgx<dGdGdGdldldldlc6c5cWcWcWcWb2b2cmcmcmb>b>b:bVbVbVbUbUbUbUbTbTblblblblblbjbSbSbSbSbSbSbSbLbLbLbLbLbLbLbLclcEcEcEcVcVcVcVcVcVc4c4c4c4jbh6zhx2iBh5h5h5h5h5h5h5h1h1k>k>k>k>k>k>k>k>k>k>jXjXjXjXjXjXiCyOu.kEk9r9ndcSvxdkdkdkdkdkdkdkdkc4c4c4c4cVcVcVcVcVcVcEcEclbLbLbLbLbLbLbLbLbSbSbSbSbSbSbSbjblblblblblbTziwEzjzko0sHsHsHt*t*t*uYuYuYuYuYuYuYp1p1p1p1p1s0s0s0s0s0qbp1xizlzmznu@zopluKuKzpzqe4eYeYe4e5e5fpfqfqfqfqf6f6f6f8gggggggggLgRgRgRg-ihh8h8jpjpkfkflrlrnznhnRnRnRpLpLpLpLq*rororos=s=s=uxu:u:vNv1wnwnwJwJyKy6zrzsztzu",
"aazvvedTdGdGdGdGdldldldlc6c5cWcWcWcWb2b2cmcmcmb>b>b:bVbVbVbUbUbUbUbTbTblblblblblbkbSbSbSbSbSbSbSbSbLbLbLbLbLbLbLbLclcEcEcEcVcVcVcVcVcVc4c4c4c4g9iHkLhVh5h5h5h5h5h1h1k>k>k>k>k>k>k>k>k>k>jXjXjXjXjXjXjXjXoJwezwlAmzzxzybSdkdkdkdkdkc4c4c4c4cVcVcVcVcVcVcVcEcEclclbLbLbLbLbLbLbLbLbSbSbSbSbSbSbSbjblblblblblbTbTzzclzAyhq9sHsHt*t*t*uYuYuYuYuYuYuYp1p1p1p1p1s0s0s0s0s0qbqbp1y0j1kZzBl8m#pllLzCeQzDeYeYe4e5e5fpfpfqfqfqfYf6f6f6f8gggggggggRgRgRgRg-h8h8h8jpkfkflrlrlrnhnRnRnRo<pLpLpLq*q*rorotzs=s=s=uxu:u:v1v1wnwnwJwJyKy6zEzFzGen",
"aazHdyzIdGdGdGdGdGdldldldlc6c5cWcWcWcWb2b2cmcmcmb>b>b:bVbVbVbUbUbUbUbTbTblblblblblblbjbSbSbSbSbSbSbSbLbLbLbLbLbLbLbLbLclcEcEcEcVcVcVcVcVcVcVi@f#idi6nOh5h5h5h5h1h1k>k>k>k>k>k>k>k>k>k>jXjXjXjXjXjXjXjXjXnvorzJzKzLzMefdkc4c4c4c4c4c4cVcVcVcVcVcVcVcVcEcEclclbLbLbLbLbLbLbLbLbSbSbSbSbSbSbSbSbkblblblblblbTbTb:cEzNq9sHsHsHt*t*t*uYuYuYuYuYuYuYp1p1p1p1p1s0s0s0s0s0qbqbp1wHzOzmzPuUlgl#l.lLzQzgzReYeYe5e5fpfpfqfqfqfYf6f6f6f8gggggggggLgRgRgRg-h8h8h8jpjpkfkflrlrnznhnRnRnRpLpLpLpLq*rororos=s=s=uxu:u:vNv1v1wnwJwJwJyKy6zSzTzUaa",
"aazVzWzXdIdGdGdGdGdGdldldldlc6c5cWcWcWcWb2b2cmcmcmb>b>b:bVbVbVbUbUbUbUbTbTblblblblblblbjbSbSbSbSbSbSbSbSbLbLbLbLbLbLbLbLbLclclcEcEcVcVcVcVcVcVjbc2zYi5iBh5h5h1h1k>k>k>k>k>k>k>k>k>k>jXjXjXjXjXjXjXjXjXnunvyOo:zZqurlz0iLz1c4c4cVcVcVcVcVcVcVcVcEcEcEclclbLbLbLbLbLbLbLbLbLbSbSbSbSbSbSbSbjblblblblblblbTbTbUn,wEz2zko0sHt*t*t*uYuYuYuYuYuYuYp1p1p1p1p1s0s0s0s0s0qbqbqbvLp1ktz3l6l8m#l#l+p,y+e4eYeYe4e5e5fpfqfqfqfqf6f6f6f8f8gggggggggRgRgRgRg-h8h8jpjpkfkflrlrlrnhnRnRnRo<pLpLpLpLq*rorotzs=s=s=uxu:u:v1v1wnwnwJwJyKy6y<z4z5z6aa",
"aaz7t5z8dId#dGdGdGdGdGdldldldlc6cWcWcWcWcWb2b2cmcmcmb>b>b:bVbVbVbUbUbUbUbTbTbTblblblblblbkbjbSbSbSbSbSbSbSbLbLbLbLbLbLbLbLbLbLclclcEcEcEcVcVcVjbc2z9jXh5h5h1h1k>k>k>k>k>k>k>k>k>k>jXjXjXjXjXjXjXjXjXnunuiDjFiCk-z#z.z+hekecVcVcVcVcVcVcVcEcEcEclclbLbLbLbLbLbLbLbLbLbLbSbSbSbSbSbSbSbSbjblblblblblblbTbTbUbUbUzzz@wRq9t*t*t*uYuYuYuYuYuYuYp1p1p1p1p1s0s0s0s0s0qbqbqbp1z*zJkYw7l7zoz=m.z-z;d,z:eYe4e5e5fpfpfqfqfqfYf6f6f6f8gggggggggLgRgRgRg-h8h8h8jpjpkfkflrlrnznhnRnRnRpLpLpLpLq*rororos=s=s=uxuxu:vNv1v1wnwJwJwJyKy6y<z>z,z<aa",
"aaz1z2z3dIdId#dGdGdGdGdldldldldlc6cWcWcWcWcWb2b2cmcmcmb>b>b>bVbVbVbUbUbUbUbUbTbTblblblblblblbjbSbSbSbSbSbSbSbSbLbLbLbLbLbLbLbLbLbLbLclclcEcEcEcVhmh6z4j1i7h1k>k>k>k>k>k>k>k>k>k>jXjXjXjXjXjXjXjXjXnunuiDiDjXyOkrkDz5z6z7i@cVcVcVcVcEcEcEcEclclbLbLbLbLbLbLbLbLbLbLbSbSbSbSbSbSbSbSbjbkblblblblblbTbTbTbUbUv7x0z8z9ort*t*t*uYuYuYuYuYuYuYp1p1p1p1p1s0s0s0s0s0qbqbqbp1y0z0Aaqomkl8m#l#lPy=egeYeYe4e5e5fpfpfqfqfqfYf6f6f6f8gggggggggLgRgRgRg-ihh8h8jpjpkfkflrlrlrnhnRnRnRo<pLpLpLpLq*rorotzs=s=s=uxu:u:v1v1wnwnwJwJyKy6y6y<AbzsAcaa",
"aad2AddxdmdIdIdGdGdGdGdGdldldldldlc5cWcWcWcWcWb2b2cmcmcmcmb>b>b:bVbVbVbUbUbUbUbTbTblblblblblblbkbjbSbSbSbSbSbSbSbSbLbLbLbLbLbLbLbLbLbLbLclclclclcljKvxr7h0h5k>k>k>k>k>k>k>k>k>jXjXjXjXjXjXjXjXjXnunuiDiDiDiDvGjZAel9mmAfAgjbcEcEcEcEclclbLbLbLbLbLbLbLbLbLbLbLbSbSbSbSbSbSbSbSbSbjblblblblblblbTbTbUbUbUbUzia2zAyht7t*t*uYuYuYuYuYuYuYp1p1p1p1p1s0s0s0s0s0qbqbqbqbAhvLAiAjyrl8lAl#l.xvAkAlz:eYe4e5e5fpfqfqfqfqfYf6f6f6f8gggggggggRgRgRgRg-h8h8h8jpjpkfkflrlrnznhnRnRnRpLpLpLpLq*rororos=s=s=uxuxu:vNv1v1wnwnwJwJyKy6y<zrAmAnAoaa",
"abaaApd,d:dIdId#dGdGdGdGdGdldldldldlc5cWcWcWcWcWb2b2cmcmcmcmb>b>b:bVbVbVbUbUbUbUbTbTbTblblblblblblbjbSbSbSbSbSbSbSbSbSbLbLbLbLbLbLbLbLbLbLbLbLbLclbSAqArkLk>k>k>k>k>k>k>k>k>jXjXjXjXjXjXjXjXjXnunuiDiDiDiDiDjXw<qTuvl8AsgAAtclclclbLbLbLbLbLbLbLbLbLbLbLbLbSbSbSbSbSbSbSbSbSbjblblblblblblblbTbTbUbUbUbUzia1iJyht7t*t*uYuYuYuYuYuYuYp1p1p1p1p1s0s0s0s0s0qbqbqbqbp1yuAuo6Avsqlgn@l#lMAwdxxmeYe4e5e5fpfpfqfqfqfYf6f6f6f8gggggggggLgRgRgRg-ihh8h8jpjpkfkflrlrlrnhnRnRnRo<pLpLpLpLq*rorotzs=s=s=uxu:u:v1v1wnwnwJwJyKyKy6y<Axy8AyabaK",
"emaaAzAAABd7dIdId#dGdGdGdGdGdldldldldlc5cWcWcWcWcWb2b2cmcmcmcmb>b>b:bVbVbVbUbUbUbUbUbTbTblblblblblblblbjbSbSbSbSbSbSbSbSbSbSbLbLbLbLbLbLbLbLbLbLbLbLketgw*nwhVk>k>k>k>k>k>jXjXjXjXjXjXjXjXjXnunuiDiDiDiDiDiDiDkLnvACADAEbLclbLbLbLbLbLbLbLbLbLbLbLbLbLbSbSbSbSbSbSbSbSbSbjbkblblblblblblbTbTbTbUbUbUbUbVzibcAFAGt7t*uYuYuYuYuYuYuYp1p1p1p1p1s0s0s0s0s0qbqbqbqbp1yuyjAHk0mkl8m#m.n9mPAIw9zRe4e5e5fpfpfqfqfqfYf6f6f6f8gggggggggggRgRgRgRg-h8h8h8jpjpkfkflrlrnznRnRnRnRpLpLpLpLq*rororos=s=s=uxuxu:vNv1v1wnwnwJwJyKy6y<y<AJAKALaaac",
"adaaAMANAOd7d7dIdId#dGdGdGdGdGdldldldldlc5cWcWcWcWcWb2b2cmcmcmcmb>b>b:bVbVbVbVbUbUbUbUbTbTbTblblblblblblblbjbSbSbSbSbSbSbSbSbSbSbLbLbLbLbLbLbLbLbLbLbLbcr9ibj1hVk>k>k>k>jXjXjXjXjXjXjXjXjXnunuiDiDiDiDiDiDiDiDoIt7o5yQAPAQARAtbLbLbLbLbLbLbLbLbLbSbSbSbSbSbSbSbSbSbSbjbkblblblblblblblbTbTbUbUbUbUbVbVASx0ATw=ort*uYuYuYuYuYuYuYp1p1p1p1p1s0s0s0s0s0qbqbqbqbp1AUh4AVAWlel8lfl#l#zbAXd,z:e4e4e5e5fpfqfqfqfqf6f6f6f6f8gggggggggLgRgRgRg-h8h8h8jpjpkfkflrlrlrnhnRnRnRo<pLpLpLq*q*rorotzs=s=s=uxu:u:vNv1wnwnwJwJyKyKy6y<AYAZzTA0aaad",
"iQaaA1w9A2egd7d7dIdId#dGdGdGdGdGdldldldldlc6cWcWcWcWcWb2b2cmcmcmcmb>b>b>b:bVbVbVbUbUbUbUbUbTbTblblblblblblblbkbjbSbSbSbSbSbSbSbSbSbSbSbLbLbLbLbLbLbLbLbSjKb:A3i5hVk>k>jXjXjXjXjXjXjXjXjXnunuiDiDiDiDiDiDiDiDoIoIoIo0A4A5A6eqjLbLbLbLbLbLbLbSbSbSbSbSbSbSbSbSbSbSbjbkblblblblblblblbTbTbUbUbUbUbUbVbVzibjv.A7qbt7uYuYuYuYuYuYuYp1p1p1p1p1s0s0s0s0s0qbqbqbqbp1tit6olmiA8lBzolEm.m0wOA9d7xme4e5e5fpfqfqfqfqfYf6f6f6f8gggggggggLgRgRgRg-ihh8h8jpjpkfkflrlrlrnhnRnRnRnRpLpLpLpLq*rororos=s=s=uxuxu:vNv1v1wnwnwJwJyKy6y<y<A#A.A+A@aaac",
"abaapiA*w#A=egd7dIdIdId#dGdGdGdGdGdldldldldlc6c5cWcWcWcWb2b2cmcmcmcmcmb>b>b:bVbVbVbUbUbUbUbUbTbTbTblblblblblblblblbjbSbSbSbSbSbSbSbSbSbSbSbSbLbLbLbLbLbLbSa8A-iAjFh5jXjXjXjXjXjXjXjXjXnunuiDiDiDiDiDiDiDiDoIoIoIoIi5k>A;m0A:aWAtbLbLbSbSbSbSbSbSbSbSbSbSbSbSbjbkblblblblblblblbTbTbTbUbUbUbUbUbVbVbVASjKA>wtoruYuYuYuYuYuYuYp1p1p1p1p1s0s0s0s0s0qbqbqbqbp1rhqbj1m7A,l7pDl9mOA<lLA1eQz:e4e5e5fpfpfqfqfqfYf6f6f6f8gggggggggggRgRgRgRg-h8h8h8jpjpkfkflrlrnznhnRnRnRo<pLpLpLq*rororotzs=s=s=uxu:u:v1v1wnwnwJwJyKyKy6y<y<A2AmA3pxaaa2",
"aaabaaA4d,d3eiegd7dIdIdId#dGdGdGdGdGdldldldldlc6c5cWcWcWcWcWb2b2cmcmcmcmb>b>b:bVbVbVbVbUbUbUbUbUbTbTbTblblblblblblblblbjbjbSbSbSbSbSbSbSbSbSbSbSbSbSbLbLbLkewQA5iCvGiCjXjXjXjXjXjXjXnunuiDiDiDiDiDiDiDiDoIoIoIoIkLkLi6hXA6A7aVkebSbSbSbSbSbSbSbSbSbSbSbSbjbkblblblblblblblbTbTbTbUbUbUbUbUbVbVbVbVpengA8A9oruYuYuYuYuYuYuYp1p1p1p1p1s0s0s0s0s0qbqbqbqbp1vLr8t8npA0lel8m#m.m.p=Bac0z:e4e5e5fpfpfqfqfqfqf6f6f6f8f8gggggggggLgRgRgRg-h8h8h8jpjpkfkflrlrlrnhnRnRnRo<pLpLpLpLq*rororos=s=s=uxuxu:vNv1v1wnwnwJwJyKy6y<y<A#Bbx0Bcaaabaa",
"aaadaaBdejeteiegegd7dIdIdId#dGdGdGdGdGdldldldldlc6c5cWcWcWcWcWb2b2cmcmcmcmb>b>b>b:bVbVbVbVbUbUbUbUbUbTbTbTblblblblblblblblbkbjbSbSbSbSbSbSbSbSbSbSbSbSbSbSbSlqfIqEiDvGiCjXjXjXjXjXnunuiDiDiDiDiDiDiDiDoIoIoIoIkLkLkLkLi5hWBeBfdRb:bSbSbSbSbSbSbSbSbjbjblblblblblblblblbTbTbTbUbUbUbUbUbUbVbVbVb:penyBgBht*uYuYuYuYuYuYuYp1p1p1p1p1s0s0s0s0s0qbqbqbqbp1rhrhwZBiBju@Bklll#m.lLBld#eYe4e5e5e5fpfqfqfqfqfYf6f6f6f8gggggggggLgRgRgRg-ihh8h8h8jpjpkfkflrlrnznhnRnRnRpLpLpLpLq*rororotzs=s=s=uxu:u:v1v1wnwnwJwJyKyKy6y<y<A#Bmz,Bnaaemaa",
"aaaLaaBoxlBpeieiegegd7dIdIdId#dGdGdGdGdGdldldldldlc6c5cWcWcWcWcWb2b2cmcmcmcmcmb>b>b:bVbVbVbVbUbUbUbUbUbUbTbTbTblblblblblblblblblbjbjbSbSbSbSbSbSbSbSbSbSbSbSbSlqfIthk>vGiCjXjXjXnunuiDiDiDiDiDiDiDiDoIoIoIoIkLkLkLkLkLpGoIsHBqBrx0kebSbSbSbSbjbjbkblblblblblblblblbTbTbTbUbUbUbUbUbUbVbVbVbVb:c5nyBst*nfsHuYuYuYuYuYuYp1p1p1p1p1s0s0s0s0s0qbqbqbqbBtvmqbvnBiBumkBellz=m.m0w1Bvw#zRe4e5e5fpfqfqfqfqfYf6f6f6f8gggggggggLgRgRgRgRg-h8h8h8jpjpkfkflrlrlrnhnRnRnRo<pLpLpLpLq*rorotzs=s=s=uxu:u:vNv1v1wnwnwJwJyKy6y<y<AYA#BwBxByaadNaa",
"aaa2aaBzBAd#eseieiegegd7dIdIdId#dGdGdGdGdGdldldldldlc6c5cWcWcWcWcWcWb2b2cmcmcmcmb>b>b>b:bVbVbVbVbUbUbUbUbUbUbTbTbTblblblblblblblblblblbjbjbSbSbSbSbSbSbSbSbSbSbSlqfIthk>vGiCjXnunuiDiDiDiDiDiDiDiDoIoIoIoIkLkLkLkLkLpGpGBBBCBDBEfIkemDbjbjblblblblblblblblblblbTbTbTbUbUbUbUbUbUbVbVbVbVb:b2b2a7Bgt*qbsHuYuYuYuYuYuYp1p1p1p1p1s0s0s0s0s0qbqbqbqbo;xiBBBFlbBGl6BelllEmOl7o8BHs0BIe4e5e5fpfqfqfqfqfYf6f6f6f8gggggggggggRgRgRgRg-h8h8h8jpjpkfkflrlrlrnhnRnRnRnRpLpLpLpLq*rororotzs=s=s=uxu:u:v1v1wnwnwJwJyKyKy6y<y<A#zry<BJBKaaa2aa",
"aaaaabaaBLAlBMeieieiegegd7dIdIdId#dGdGdGdGdGdGdldldldldlc5c5cWcWcWcWcWb2b2cmcmcmcmcmb>b>b>b:bVbVbVbVbUbUbUbUbUbUbTbTbTbTblblblblblblblblblblbkbjbjbSbSbSbSbSbSbSbSlqwQh=BNjXnunuiDiDiDiDiDiDiDiDoIoIoIoIkLkLkLkLkLpGpGpGpGBOiCz9itaZbLb:blblblblblblblblblbTbTbTbUbUbUbUbUbUbVbVbVbVbVb>c5a4BPqrBhBtsHuYuYuYuYuYuYp1p1p1p1p1s0s0s0s0s0qbqbqbs0p1wSBQBRp*BSu@v;lllEmOuKlLBTc0BIe4e5e5fpfpfqfqfqfYf6f6f6f8f8gggggggggLgRgRgRg-ihh8h8jpjpjpkfkflrlrnznhnRnRnRo<pLpLpLq*q*rorotzs=s=s=uxu:u:vNv1v1wnwJwJwJyKy6y<y<AYA#BbBUBVababaaaa",
"aaaaadaaBWANBXeWeieieiegegd7dIdIdId#dGdGdGdGdGdGdldldldldlc6c5cWcWcWcWcWb2b2b2cmcmcmcmcmb>b>b:b:bVbVbVbVbUbUbUbUbUbUbTbTbTbTblblblblblblblblblblblblbkbjbjbjbSbjbSbSlqaZBYBZhVu#iDiDiDiDiDiDiDoIoIoIoIkLkLkLkLkLpGpGpGpGpGpGi5jFs5B0v.wQa4b:bUblblbTbTbTbTbTbUbUbUbUbUbUbVbVbVbVb:b2c5B1nyB2B3A9t*sHuYuYuYuYuYuYp1p1p1p1p1s0s0s0s0s0qbqbqbp1vLwHB4lxB5B6leBkllplmOm+B7B8dVBIe4e5e5fpfpfqfqfqfqf6f6f6f6f8gggggggggLgRgRgRgRg-h8h8h8jpjpkfkflrlrlrnhnRnRnRo<pLpLpLpLq*rororos=s=s=uxuxu:vNv1v1wnwnwJwJyKyKy6y<y<A#A#B9z,B#aaemaaaa",
"aaaabFaaB.sNBMeWeieieieiegegd7dIdIdId#dGdGdGdGdGdGdldldldldlc6c5cWcWcWcWcWcWb2b2cmcmcmcmcmb>b>b>b:b:bVbVbVbVbUbUbUbUbUbUbUbTbTbTbTblblblblblblblblblblblblblblblblkebjbVa9B+B@jlshpGjXiDiDiDoIoIoIoIkLkLkLkLkLpGpGpGpGpGpGi5i5i5kLr8B*w*n,aVa2bVzibVbVbUbUbUbUbUbUbUbVbVbVzin,c5b2a4vSsaB=B-B;ort*uYuYuYuYuYuYp1p1p1p1p1s0s0s0s0s0qbqbs0p1xiuYyDB:y3k2m9lBlDl#mOuKB7B>dVBIe4e5e5fpfpfqfqfqfqfYf6f6f6f8gggggggggggRgRgRgRg-h8h8h8jpjpkfkflrlrlrnhnRnRnRnRpLpLpLpLq*rororotzs=s=s=uxu:u:vNv1v1wnwJwJwJyKy6y<y<AYA#A#BbB,B<aaacaaaa",
"aaaaabaaB1B2w#d8eWeieieieiegegd7dIdIdId#dGdGdGdGdGdGdldldldldlc6c6c5cWcWcWcWcWb2b2b2cmcmcmcmcmb>b>b>b:b:bVbVbVbVbUbUbUbUbUbUbUbUbTbTbTbTblblblblblblblblblblblblblblblblb:a9B3w-B4hSw<iDiDoIoIoIoIkLkLkLkLkLpGpGpGpGpGpGi5i5i5o0o0u#q9xhB5B6B2y8wEjKa4bUb:v7n,n,n,ASB7zibVblB8nya3B9x4nOA9BtoruYuYuYuYuYuYuYp1p1p1p1p1s0s0s0s0s0qbqbBttiyuB0laCaCbl6l8pDm#l#m.lGCcCdc0BIe4e5e5fpfpfqfqfqfqfYf6f6f6f8gggggggggggRgRgRgRg-ihh8h8jpjpkfkfkflrlrnznhnRnRnRo<pLpLpLpLq*rorotzs=s=s=uxuxu:vNv1v1wnwnwJwJyKy6y6y<AYA#A#A2AmCeCfaaabaaaa",
"aaaaaaiQaaCgd9BXeWeWeieieieiegegd7d7dIdId#dGdGdGdGdGdGdldldldldldlc6c5cWcWcWcWcWcWb2b2b2cmcmcmcmcmb>b>b>b:b:bVbVbVbVbVbUbUbUbUbUbUbUbUbTbTbTbTbTblblblblblblblblblblblblblv7a#ChCiCjmKo0q9nuoIoIkLkLkLkLkLpGpGpGpGpGpGi5i5i5i5o0o0o0o0u#o;xhu#CkA8Clv.bljKx0a8x0x0x0cgcEb:z:Cmz2Cnq9Coqbort*uYuYuYuYuYuYuYp1p1p1p1p1s0s0s0s0s0qbBtvLwSyHnonFp7CppWv;l7l9m.l#nat3Cqc0BIe4e5e5fpfpfqfqfqfqfYf6f6f6f8gggggggggggLgRgRgRg-ihh8h8h8jpjpkfkflrlrlrnhnRnRnRo<pLpLpLpLq*rororos=s=s=s=uxu:u:v1v1wnwnwJwJwJyKy6y<y<AYA#A#BwymCraacaaaaaaa",
"aaaaaaadaaCsdJeAeYeWeWeieieieiegegd7d7dIdIdId#dGdGdGdGdGdGdldldldldlc6c5c5cWcWcWcWcWcWb2b2cmcmcmcmcmcmb>b>b>b>b:bVbVbVbVbVbUbUbUbUbUbUbUbUbUbUbTbTbTbTbTbTblblblblblblblblblb2a9CtCuCvx1CwyOoriDkLkLkLkLpGpGpGpGpGpGi5i5i5i5o0o0o0o0o0o0oJvGkMsZxhs0v7CxCyy0CziIw4sFCACBCCnusZw=yhsHort7t*uYuYuYuYuYuYuYp1p1p1p1p1s0s0s0s0s0BtqbyuqbCDCEp*CFzBzol8lllEmOm.lKwOCGwxCHe4e5e5fpfpfqfqfqfqfYf6f6f6f8f8gggggggggLgRgRgRgRg-h8h8h8jpjpkfkflrlrlrnhnRnRnRnRpLpLpLpLq*rororotzs=s=s=uxu:u:vNv1v1wnwnwJwJyKy6y6y<AYA#A#A#CIvPCJaaemaaaaaa",
"aaaaaaabaaCKCLegCMeYeWeWeWeieieiegegd7d7dIdIdId#dGdGdGdGdGdGdldldldldldlc6c5cWcWcWcWcWcWcWb2b2cmcmcmcmcmcmb>b>b>b>b:bVbVbVbVbVbVbUbUbUbUbUbUbUbUbUbUbUbTbTbTbTbTbTbTbTbTbTbTblb2vSptCNCOCPuEj@CQkMiDiDpGpGpGpGpGpGi5i5i5i5o0o0o0o0o0o0o0o0i6q9o0oJo0uYsGyhxhxhwtA9w=w=z9sZuYq9o0q9t*t*t*uYuYuYuYuYuYuYp1p1p1p1p1s0s0s0o;o;rhwSqbwuktkYCRqPp8l8lCl9l#l#m+CSCuCTsNCHe4e5e5fpfpfqfqfqfqfYf6f6f6f8f8gggggggggLgRgRgRgRg-h8h8h8jpjpkfkflrlrlrnznhnRnRnRo<pLpLpLpLq*rororos=s=s=uxuxu:u:v1v1wnwnwJwJwJyKy6y<y<A#A#A#zrA#BJCUaabEaaaaaa",
"aaaaaaaacaaaCVe5CWeYeYeWeWeWeieieiegegd7d7dIdIdId#dGdGdGdGdGdGdGdldldldldlc6c6c5cWcWcWcWcWcWb2b2b2cmcmcmcmcmcmcmb>b>b>b>b:bVbVbVbVbVbVbVbUbUbUbUbUbUbUbUbUbUbUbUbUbUbTbTbTbTbTbTziCXARCYprCZCRC0pTkMp1BOoIpGpGpGi5i5i5i5o0o0o0o0o0o0o0o0i6q9q9q9q9q9q9o0o0oJx5o0o0o0o0q9q9sHsHsHt*t*t*uYuYuYuYuYuYuYp1p1p1p1p1s0m0uYm0vcwSt7yTkXnpC1tuk3pDlBlDlEm.m.oEl*C2tmy+BIe4e5e5fpfpfqfqfqfqfYf6f6f6f6f8gggggggggLgRgRgRgRg-h8h8h8jpjpkfkfkflrlrnznhnRnRnRo<pLpLpLpLq*rororotzs=s=s=uxu:u:vNv1v1wnwJwJwJyKy6y<y<AYA#A#A#C3C4C5aaa2aaaaaaaa",
"aaaaaaaaadaaC6d+fbe4eYeYeWeWeWeieieieiegegd7dIdIdIdId#dGdGdGdGdGdGdldldldldldlc6c5c5cWcWcWcWcWcWb2b2b2cmcmcmcmcmcmcmb>b>b>b>b:b:bVbVbVbVbVbVbVbVbUbUbUbUbUbUbUbUbUbUbUbUbUbUbUbUbUb:C7k5C8C9z.C#CRC.v3j0qbrCpGkLh0i5w6o0o0o0o0o0o0o0o0i6q9q9q9q9q9q9q9q9q9q9t7sHsHsHsHsHsHsHsHt*t*t*uYuYuYuYuYuYuYp1p1p1p1rCuYo;r8C+AUz0C@n7kuC*C=mkl7l8lAl9l#l#C-C;C:C>xlxmzRe4e5e5fpfpfqfqfqfqfYf6f6f6f6f8gggggggggggRgRgRgRg-ihh8h8h8jpjpkfkflrlrlrnhnRnRnRnRpLpLpLpLq*rororotzs=s=s=uxu:u:vNv1v1wnwnwJwJyKyKy6y<y<A#A#A#A#C,vgC<aaemaaaaaaaa",
"aaaaaaaabEaaC1C2C3C4e4eYeYeWeWeWeieieieiegegd7d7dIdIdId#dGdGdGdGdGdGdGdldldldldldlc6c5cWcWcWcWcWcWcWcWb2b2b2cmcmcmcmcmcmcmb>b>b>b>b>b:b:bVbVbVbVbVbVbVbVbVbUbUbUbUbUbUbUbUbUbUbUbUbUbUc5y8aVC5C6C7C8x3C9C0xCi5sGs0q9oJoJoJo0o0o0o0o0i6q9q9q9q9q9q9q9q9q9q9t7sHsHsHsHsHsHsHsHt*t*t*uYuYuYuYuYuYuYp1rCrCrCp1uZDayij0yTj<o6t.Dbv0k3lADclAl9l#l#y6lKC-DdegxKCHe4e4e5e5fpfpfqfqfqfqfYf6f6f6f6f8gggggggggggRgRgRgRg-ihh8h8h8jpjpkfkflrlrlrnhnRnRnRnRpLpLpLpLpLq*rororos=s=s=uxuxu:u:v1v1wnwnwJwJwJyKy6y<y<AYA#A#A#A2zrDeDfaabEaaaaaaaa",
"aaaaaaaaaacaaaDgDhDie5e4eYeYeWeWeWeieieieiegegd7d7dIdIdId#dGdGdGdGdGdGdGdldldldldldldlc6c5cWcWcWcWcWcWcWcWb2b2b2cmcmcmcmcmcmcmcmb>b>b>b>b>b:b:b:bVbVbVbVbVbVbVbVbVbVbVbVbVbUbUbUbUbUbUbUzin,sxDjDkDlDml8DnDoDpDqppnvqSDrDsDto0oJoJw6q9q9q9q9q9q9q9q9q9q9t7sHsHsHsHsHsHsHsHt*t*t*uYuYuYuYuYwGsHrCqbtixiwSsGqsDutGnpqODvznyrk3zolBlAn@plply6t3mPDwDxxleYzReYe4e5e5fpfpfqfqfqfqfYf6f6f6f6f8gggggggggggLgRgRgRg-g-h8h8h8jpjpkfkflrlrlrnznhnRnRnRo<pLpLpLpLq*rororotzs=s=s=uxu:u:vNv1v1wnwnwJwJyKy6y6y<AYA#A#A#DyCIB,DzaabEaaaaaaaaaa",
"aaaaaaaaaaadaaDAe@DBe5e5e4eYeYeYeWeWeieieieiegegd7d7dIdIdIdId#dGdGdGdGdGdGdGdldldldldldlc6c6c5cWcWcWcWcWcWcWcWb2b2b2b2cmcmcmcmcmcmcmcmb>b>b>b>b>b>b>b:b:b:bVbVbVbVbVbVbVbVbVbVbVbVbVbVbVbVbVc6bksxDCDDDlqGrkDEDFDoDGDHk;DIh5yOr+s@rhs0sHq9o0o0o0o0o0o0q9q9q9sHsHsHsHsHsHt*t*t*uYuYuYuYuYvLyiwSAUt*DJqcwTDKlar4y3uvmNk3pWlBpDlllElEplm+lLmPDLAIAldxCHeYeYe5e5e5fpfpfqfqfqfqfYf6f6f6f6f8gggggggggggLgRgRgRgRg-h8h8h8jpjpkfkflrlrlrnznhnRnRnRo<pLpLpLpLq*rororotzs=s=s=uxu:u:vNv1v1wnwnwJwJyKyKy6y<y<A#A#A#A#DyDMvPDNaaemaaaaaaaaaa",
"aaaaaaaaaaabaaDODPd7e;e5e5e4eYeYeYeWeWeWeieieieiegegd7d7dIdIdId#dGdGdGdGdGdGdGdGdldldldldldlc6c6c5cWcWcWcWcWcWcWcWcWb2b2b2b2cmcmcmcmcmcmcmcmcmcmb>b>b>b>b>b>b>b>b:b:b:b:b:bVbVbVbVbVbVbVbVbVbVzic6y8a+DQDRnrz.zLk5DSDTDUDVkHnoDWDXp2DYj0sHrhs@s6s6s6vcuZtitis0sHsHsHsHt*t*t*uYuYuYuYuYs0z0DZC@j:D0rwD1kwD2t9k2k6o7lCpDlAl9lElEm.n*xvt3D3D4D5D5zRxmeYe4e4e5e5fpfpfqfqfqfqfYf6f6f6f6f8gggggggggggLgRgRgRgRg-h8h8h8jpjpkfkfkflrlrlrnhnRnRnRnRpLpLpLpLq*q*rorotzs=s=s=uxuxu:u:v1v1wnwnwJwJwJyKy6y<y<AYA#A#A#DyD6y<D7D8aaabaaaaaaaaaa",
"aaaaaaaaaaaabFaaD9e@D#fpe5e5e4eYeYeYeWeWeWeieieieiegegd7d7dIdIdIdId#dGdGdGdGdGdGdGdldldldldldldldlc6c5c5cWcWcWcWcWcWcWcWcWb2b2b2b2cmcmcmcmcmcmcmcmcmcmcmcmb>b>b>b>b>b>b>b>b>b>b>b>b>b>b>b>b>b>b>b>b2D.D+a9D@D*D=m0q+D-k#pWv5xWqdD;kGkHD:D>D,j5D<D1yTD2D3D4D4D5uYsHsHt*t*t*uYuYuYuYuYsHr8D6D7x;kxD8C=k2k3k6uUlglgpXm#lEqpplC-lNB7wOD9D0eQD5zDzReYeYe4e5e5e5fpfpfqfqfqfqfYf6f6f6f6f8gggggggggggLgRgRgRgRg-h8h8h8jpjpjpkfkflrlrlrnhnRnRnRnRpLpLpLpLpLq*rororos=s=s=s=uxu:u:vNv1v1wnwnwJwJyKy6y6y<y<A#A#A#A#DyEayyEbaaiQaaaaaaaaaaaa",
"aaaaaaaaaaaaacaaEcEdEefpfpe5e5e4eYeYeYeWeWeWeieieieieiegegd7d7dIdIdId#d#dGdGdGdGdGdGdGdldldldldldldldlc6c5c5cWcWcWcWcWcWcWcWcWcWb2b2b2b2b2cmcmcmcmcmcmcmcmcmcmcmcmcmcmcmcmb>b>b>b>b>b>b>b>b>b>b>cmcmb>cWqha3rKcWEfEgEhl+lPm+Eik5k5k+EjEkxWw-Elx3EmEnxuyvkHEoEpuZq9t*t*t*uYuYuYuYuYuYuYp1qSEqlek.p8lllhlglhlll9l9lEl.srlLB7sLErEsEtxlEuzDzDeYeYeYe4e5e5e5fpfpfqfqfqfqfYf6f6f6f6f8gggggggggggLgRgRgRgRg-h8h8h8jpjpjpkfkflrlrlrnhnRnRnRnRo<pLpLpLpLq*rororotzs=s=s=uxu:u:vNv1v1wnwnwJwJyKyKy6y<y<AYA#A#A#DyDyEvA+Ewaaacaaaaaaaaaaaa",
"aaaaaaaaaaaaaaabadExEyEzfpfpe5e5e4e4eYeYeYeWeWeWeieieieiegegd7d7dIdIdIdId#dGdGdGdGdGdGdGdGdldldldldldldldlc6c6c5c5cWcWcWcWcWcWcWcWcWcWb2b2b2b2b2b2cmcmcmcmcmcmcmcmcmcmcmcmcmcmcmcmcmcmcmcmcmcmcmcmcmcmcmcmcWdGdzb4b5EAu7EBECxOlHu2sCn@llm#k7k4EDxek4k6u@sqEEv5EFq9EGt*uYuYuYuYuYuYuYp1p1p1ory0k@l#lDm#l9lElFl7lMxvmPwOEHEIEJeQc0w:f6e4eYeYeYeYe4e5e5e5fpfqfqfqfqfqfYf6f6f6f6f8gggggggggggLgRgRgRgRg-h8h8h8h8jpjpkfkflrlrlrnhnhnRnRnRo<pLpLpLpLq*rororotzs=s=s=uxuxu:u:v1v1wnwnwJwJwJyKy6y<y<AYA#A#A#A#DyEKELEMiPabaaaaaaaaaaaaaa",
"aaaaaaaaaaaaaaaeaaENd+fCfqfpfpe5e5e5e4eYeYeYeWeWeWeieieieieiegegd7d7dIdIdIdId#dGdGdGdGdGdGdGdGdldldldldldldldldlc6c6c5cWcWcWcWcWcWcWcWcWcWcWcWcWb2b2b2b2b2b2b2cmcmcmcmcmcmcmcmcmcmcmcmcmcmcmcmcmcmcmcmcmcmcmcmb2ovovbTa7pKsaEOEPzCEQl7lNlNlPujmOERpXlClglClClClDESpGBtuYuYuYuYuYuYp1p1p1p1qbsHBhETEUnalJxvlPtkEVEWEXx3wxc0w#xmzDe4eWeYeYeYe4e4e5e5fpfpfqfqfqfqfqfYf6f6f6f6f8gggggggggggLgRgRgRgRg-ihh8h8h8jpjpkfkflrlrlrnznhnRnRnRo<pLpLpLpLq*rororotzs=s=s=s=uxu:u:vNv1v1wnwnwJwJyKy6y6y<y<A#A#A#A#DyDyEYEZE0aaemaaaaaaaaaaaaaa",
"aaaaaaaaaaaaaaa2aaE1E2E3E4fqfpfpe5e5e5e4eYeYeYeWeWeWeWeieieieiegegd7d7d7dIdIdIdId#dGdGdGdGdGdGdGdGdGdldldldldldldldldlc6c5c5c5cWcWcWcWcWcWcWcWcWcWcWcWcWcWb2b2b2b2b2b2b2b2b2b2b2b2b2b2b2b2b2b2b2b2b2b2b2b2b2b2b2b2cWc5q8dGcmr-a8a@vqE5tME6ErE7ursDlMlKlOt3mzlPq+E8uYuYuYuYuYuYuYp1p1p1p1p1s0sGo;kME9E#E.oeE+E@sNd9eQx4xmxmeYeWeWeWeYeYeYe4e5e5e5fpfpfqfqfqfqfqfYf6f6f6f8f8gggggggggggLgRgRgRgRg-ihh8h8h8jpjpkfkflrlrlrnznhnRnRnRo<pLpLpLpLq*q*rororos=s=s=s=uxu:u:vNv1v1wnwnwJwJyKyKy6y<y<AYA#A#A#DyDyA2E*E=E-aaa2aaaaaaaaaaaaaa",
"aaaaaaaaaaaaaaaabFaaE;eBE:fqfqfqfpfpe5e5e4e4eYeYeYeWeWeWeieieieieiegegd7d7d7dIdIdIdId#dGdGdGdGdGdGdGdGdGdldldldldldldldldldlc6c6c5c5cWcWcWcWcWcWcWcWcWcWcWcWcWcWcWcWcWcWcWcWcWb2b2b2b2b2b2b2b2b2b2cWcWcWcWcWcWcWcWcWcWcWcWcWq8qwq8dzdVb4a8a1c6E>E,E<qHE1E2E3E4Awo2E5j1uYuYuYuYp1p1p1p1p1s0s0s0s0s0o;E6E7c0ejy5fpE8fYeYeieWeWeWeYeYeYeYe4e5e5e5fpfpfqfqfqfqfYf6f6f6f6f8f8gggggggggggLgRgRgRgRg-ihh8h8h8jpjpkfkflrlrlrnznhnRnRnRnRpLpLpLpLpLq*rororotzs=s=s=uxu:u:vNv1v1wnwnwJwJwJyKy6y<y<AYA#A#A#A#DyDyEYyXE9aaiQaaaaaaaaaaaaaaaa",
"aaaaaaaaaaaaaaaaacaaE0FaFbfqfqfqfqfpfpe5e5e5e4eYeYeYeWeWeWeWeieieieiegegegd7d7dIdIdIdIdId#dGdGdGdGdGdGdGdGdGdGdldldldldldldldldldlc6c6c6c5c5cWcWcWcWcWcWcWcWcWcWcWcWcWcWcWcWcWcWcWcWcWcWcWcWcWcWcWcWcWcWcWcWcWcWcWcWcWcWcWcWcWcWcWc5ovqIsaqwc6xKwxvet5b4t5vedVxKs0CmnfuYuYuYp1p1p1p1p1s0s0s0s0s0qbqbwtFcFdFeFfFgFhc=d7e4zDzDxmxmxmxme5e5e5fpfpfqfqfqfqfqfYf6f6f6f6f8f8gggggggggggLgRgRgRgRg-ihh8h8h8jpjpkfkflrlrlrlrnhnRnRnRnRpLpLpLpLpLq*rororotzs=s=s=uxuxu:u:v1v1wnwnwJwJwJyKy6y6y<y<A#A#A#A#DyDyDyFiFjFkaaiQaaaaaaaaaaaaaaaa",
"aaaaaaaaaaaaaaaaaacaaaFlfdFmfqfqfqfqfpfpe5e5e5e4e4eYeYeYeWeWeWeieieieieiegegegd7d7dIdIdIdIdId#dGdGdGdGdGdGdGdGdGdGdldldldldldldldldldldldlc6c6c6c5c5c5c5cWcWcWcWcWcWcWcWcWcWcWcWcWcWcWcWcWcWcWcWcWcWcWcWcWcWcWcWcWcWcWcWcWc5c5c5c6c6c6dldldldldGqwdIsaFnsadIdIdIFornFpFqq9p1p1p1p1p1s0s0s0s0s0qbqbqbp1rCvcFrrCCnFsFtFuw#wWcqtmw#w:fcFvFvFwfpfqfqfqfqf6CHf6f6f6f6f8gggggggggggggLgRgRgRgRg-ihh8h8h8jpjpkfkfkflrlrlrnhnRnRnRnRo<pLpLpLpLq*rororotzs=s=s=uxuxu:u:vNv1v1wnwnwJwJyKyKy6y<y<AYA#A#A#DyDyDyFxFyFzaaa2aaaaaaaaaaaaaaaaaa",
"aaaaaaaaaaaaaaaaaabFaaFAFBFCfYfqfqfqfqfqfpfpe5e5e5e4eYeYeYeWeWeWeWeieieieieiegegegd7d7dIdIdIdIdId#d#dGdGdGdGdGdGdGdGdGdGdGdldldldldldldldldldldldldlc6c6c6c6c5c5c5c5c5c5cWcWcWcWcWcWcWcWcWcWcWcWcWcWcWcWcWc5c5c5c5c5c6c6c6c6dldldldldldldldldldldldldlqhdGdGdGdGdIdlzRkarhrCp1p1p1s0s0s0s0s0qbqbqbqbqbqbs0o;sZFDFrAGA7FEFFFsFGFHFIFJFKFLCHf6fqfqfqf6d7e5Fuf6f8f8gggggggggggggLgRgRgRgRg-h8h8h8h8jpjpkfkfkflrlrlrnhnRnRnRnRo<pLpLpLpLq*rororotzs=s=s=s=uxu:u:vNv1v1wnwnwJwJwJyKy6y<y<AYA#A#A#A#DyDyDyFMFNFOaadNaaaaaaaaaaaaaaaaaa",
"aaaaaaaaaaaaaaaaaaaabEcaFPFQf0f6fqfqfqfqfqfpfpe5e5e5e4e4eYeYeYeWeWeWeWeieieieieiegegegd7d7d7dIdIdIdId#d#dGdGdGdGdGdGdGdGdGdGdGdGdldldldldldldldldldldldldldldldldlc6c6c6c6c6c6c6c6c6c6c6c6c6c6c6c6c6c6c6c6c6c6dldldldldldldldldldldldldldldldldldGdGdGdGdGdGdGdGdGtOb3FRwHDtp1p1s0s0s0s0s0qbqbqbqbqbqbqbsGsGsGqbp1vLvcFDFSFrFTwtvLt7FUA7FVFWFXFYFZF0F1F2F3gRf8gggggggggggLgRgRgRgRgRg-h8h8h8h8jpjpkfkfkflrlrlrnhnRnRnRnRo<pLpLpLpLq*q*rororos=s=s=s=uxu:u:vNv1v1wnwnwJwJwJyKy6y<y<AYA#A#A#A#DyDyDyFxF4F5adabaaaaaaaaaaaaaaaaaaaa",
"aaaaaaaaaaaaaaaaaaaadNaaF6d.gmf6f6fqfqfqfqfqfqfpfpe5e5e5e4eYeYeYeYeWeWeWeWeieieieieiegegegd7d7d7dIdIdIdIdId#d#dGdGdGdGdGdGdGdGdGdGdGdGdGdldldldldldldldldldldldldldldldldldldldldldldldldldldldldldldldldldldldldldldldldldldldldldldldldGdGdGdGdGdGdGdGdGdGdGdGdGd#tObTA>z*Dts0s0s0s0s0qbqbqbqbqbqbqbsGsGsGvLvLvLvLqbqbp1p1qbsZBhAGB;A9A9A9F7F8F9yqF#F.ggF+F@gggggggggLgRgRgRgRgRg-h8h8h8h8jpjpkfkfkflrlrlrnhnRnRnRnRo<pLpLpLpLq*q*rororos=s=s=s=uxu:u:vNv1v1wnwnwJwJwJyKy6y6y<y<A#A#A#A#DyDyDyF*F=F-F;aaemaaaaaaaaaaaaaaaaaaaa",
"aaaaaaaaaaaaaaaaaaaaaaa2F:F>F,f0f6f6fYfqfqfqfqfqfpfpe5e5e5e5e4eYeYeYeYeWeWeWeWeieieieieiegegegd7d7d7dIdIdIdIdIdId#d#dGdGdGdGdGdGdGdGdGdGdGdGdGdGdGdldldldldldldldldldldldldldldldldldldldldldldldldldldldldldldldldldldldldldldldGdGdGdGdGdGdGdGdGdGdGdGdGdGdGd#d#dItOc6BIB*uZo;s0s0s0qbqbqbqbqbqbqbsGsGsGvLvLvLvLvLvLvLvLvLBhBhBhBhvLvLvLvLvLqbF<F1F2F3F4F5fcF6gggggLgRgRgRgRg-g-h8h8h8h8jpjpkfkfkflrlrlrnhnRnRnRnRo<pLpLpLpLq*q*rororotzs=s=s=uxuxu:u:v1v1wnwnwnwJwJyKyKy6y<y<AYA#A#A#A#DyDyDyF7F8F9F0a2aKaaaaaaaaaaaaaaaaaaaa",
"aaaaaaaaaaaaaaaaaaaaaadNaaGaGbgmf6f6f6fYfqfqfqfqfqfqfpfpe5e5e5e4e4eYeYeYeYeWeWeWeWeieieieieiegegegegd7d7d7dIdIdIdIdIdId#d#dGdGdGdGdGdGdGdGdGdGdGdGdGdGdGdGdGdGdldldldldldldldldldldldldldldldldldldldldldldldldldldGdGdGdGdGdGdGdGdGdGdGdGdGdGdGdGdGdGdGd#d#dIdIdIdIdIx5GcGduZs0s0s0qbqbqbqbqbqbqbsGsGsGvLvLvLvLvLvLvLvLvLBhBhBhBhBhBhBhBhBhBhGeGfF1Ggk3sVGhGiGjgRgLgRgRgRgRg-g-h8h8h8jpjpjpkfkflrlrlrlrnhnRnRnRnRo<pLpLpLpLpLq*rororotzs=s=s=uxuxu:u:vNv1v1wnwnwJwJyKyKy6y<y<AYA#A#A#A#DyDyDyGkF=yXGlaaemaaaaaaaaaaaaaaaaaaaaaa",
"aaaaaaaaaaaaaaaaaaaaaaaabEF:GmGnf0f6f6f6f6fYfqfqfqfqfqfpfpfpe5e5e5e4e4eYeYeYeWeWeWeWeWeieieieieieiegegegd7d7d7d7dIdIdIdIdIdId#d#dGdGdGdGdGdGdGdGdGdGdGdGdGdGdGdGdGdGdGdGdGdGdGdGdGdGdGdGdGdGdGdGdGdGdGdGdGdGdGdGdGdGdGdGdGdGdGdGdGdGdGdGdGdGdGdGd#d#dIdIdIdIdIdIdId7d7d7e4zgGoGprCqbqbqbqbqbqbqbsGsGsGvLvLvLvLvLvLvLvLvLBhBhBhBhBhBhBhBhBhBhvmGqGrF1GgEDDcCSD9gaGsgRgRgRgRg-ihh8h8h8jpjpjpkfkflrlrlrlrnhnRnRnRnRo<pLpLpLpLpLq*rororotzs=s=s=uxuxu:u:vNv1v1wnwnwJwJwJyKy6y<y<AYA#A#A#A#DyDyDyF*GtF8GuF0a2dqaaaaaaaaaaaaaaaaaaaaaa",
"aaaaaaaaaaaaaaaaaaaaaaaadNaaGvGwijf8f6f6f6f6fYfqfqfqfqfqfqfpfpe5e5e5e5e4eYeYeYeYeYeWeWeWeWeieieieieieiegegegegd7d7d7d7dIdIdIdIdIdIdId#d#d#dGdGdGdGdGdGdGdGdGdGdGdGdGdGdGdGdGdGdGdGdGdGdGdGdGdGdGdGdGdGdGdGdGdGdGdGdGdGdGdGdGdGdGdGdGdGdGd#d#dIdIdIdIdIdIdIdId7d7d7egegegeieYwWGxFrrCqbqbqbqbqbsGsGsGvLvLvLvLvLvLvLvLvLBhBhBhBhBhBhBhBhBhBhvmvmBhGfF1GgEDlClNGyEyGsgRgRgRg-ihh8h8h8jpjpjpkfkflrlrlrlrnhnRnRnRnRo<pLpLpLpLpLq*rororotzs=s=s=s=uxu:u:vNv1v1wnwnwJwJwJyKy6y6y<y<A#A#A#A#DyDyDyDyGkGzF-GAaadNaaaaaaaaaaaaaaaaaaaaaaaa",
"aaaaaaaaaaaaaaaaaaaaaaaaaacacaGBEyGCf8f6f6f6f6f6fYfqfqfqfqfqfqfpfpe5e5e5e5e4eYeYeYeYeYeWeWeWeWeieieieieieieiegegegegd7d7d7d7dIdIdIdIdIdIdIdId#d#d#d#dGdGdGdGdGdGdGdGdGdGdGdGdGdGdGdGdGdGdGdGdGdGdGdGdGdGdGdGdGdGdGdGdGdGdGdGd#d#d#d#dIdIdIdIdIdIdIdId7d7d7d7egegegegeieieix5eidlxsFrrCqbqbqbsGsGsGvLvLvLvLvLvLvLvLvLBhBhBhBhBhBhBhBhBhBhvmvmvcBhGfF1GgEDlClLCNEyGsgRgRg-h8h8h8h8jpjpjpkfkflrlrlrlrnhnRnRnRnRo<pLpLpLpLpLq*rororotzs=s=s=s=uxu:u:vNv1v1wnwnwJwJwJyKy6y6y<y<AYA#A#A#A#DyDyDyGkDMGDGEaebEenaaaaaaaaaaaaaaaaaaaaaaaa",
"aaaaaaaaaaaaaaaaaaaaaaaaaabFaaGFEyGCggf8f8f6f6f6f6fYfYfqfqfqfqfqfqfpfpe5e5e5e5e4e4eYeYeYeYeWeWeWeWeWeieieieieieieiegegegegd7d7d7d7d7dIdIdIdIdIdIdIdIdIdId#d#d#d#d#d#dGdGdGdGdGdGdGdGdGdGdGdGdGdGdGdGdGdGdGdGdGd#d#d#d#d#dIdIdIdIdIdIdIdIdIdId7d7d7d7d7egegegegeieieieieieieie4egeYGGGHrCqbsGsGsGvLvLvLvLvLvLvLvLvLBhBhBhBhBhBhBhBhBhBhvmvmvcvcBhGfF1GgEDlClLCNEyGsg-g-h8h8h8h8jpjpkfkfkflrlrlrnznhnRnRnRnRo<pLpLpLpLpLq*rororotzs=s=s=s=uxu:u:vNv1v1wnwnwJwJwJyKyKy6y<y<AYA#A#A#A#DyDyDyF*GIDMA+GJaaiQaaaaaaaaaaaaaaaaaaaaaaaaaa",
"aaaaaaaaaaaaaaaaaaaaaaaaaaaaiQaaGKi=GLggggf8f6f6f6f6f6fYfqfqfqfqfqfqfpfpfpe5e5e5e5e4e4eYeYeYeYeWeWeWeWeWeieieieieieieieiegegegegegd7d7d7d7d7d7dIdIdIdIdIdIdIdIdIdIdIdIdIdIdIdId#d#d#d#d#d#d#d#d#d#dIdIdIdIdIdIdIdIdIdIdIdIdIdIdIdIdId7d7d7d7d7egegegegegeieieieieieieieieWeWeWe4w:eYGMGHs0sGvLvLvLvLvLvLvLvLvLvLBhBhBhBhBhBhBhBhBhBhvmvmvcvcvcBhGfF1GgEDlClLCNEyGNihh8h8h8h8jpjpkfkfkflrlrlrnznhnRnRnRnRo<pLpLpLpLpLq*rororotzs=s=s=s=uxu:u:vNv1v1wnwnwnwJwJyKyKy6y<y<AYA#A#A#A#DyDyDyF*GIGOFNGPaaiQaaaaaaaaaaaaaaaaaaaaaaaaaaaa",
"aaaaaaaaaaaaaaaaaaaaaaaaaaaacadqg1GQGRf;ggggf8f8f6f6f6f6f6fYfqfqfqfqfqfqfpfpfpe5e5e5e5e4e4eYeYeYeYeYeWeWeWeWeWeieieieieieieieieiegegegegegegd7d7d7d7d7d7d7dIdIdIdIdIdIdIdIdIdIdIdIdIdIdIdIdIdIdIdIdIdIdIdIdIdIdIdIdIdId7d7d7d7d7d7d7d7egegegegegeieieieieieieieieieWeWeWeWeWeYeYxmd7vqGSGTqbvLvLvLvLvLvLvLvLvLBhBhBhBhBhBhBhBhBhBhvmvmvcvcvcvcBhGfF1GgEDlClLGyGUnhh8h8h8jpjpjpkfkfkflrlrlrnznhnRnRnRnRo<pLpLpLpLpLq*rororotzs=s=s=s=uxu:u:vNv1v1v1wnwnwJwJwJyKy6y<y<AYA#A#A#A#DyDyDyDyGkGVGWGXGYaaiQaaaaaaaaaaaaaaaaaaaaaaaaaaaa",
"aaaaaaaaaaaaaaaaaaaaaaaaaaaaaaacaaGZgMG0ggggggggf8f8f6f6f6f6f6fYfqfqfqfqfqfqfpfpfpe5e5e5e5e5e4eYeYeYeYeYeYeWeWeWeWeWeWeieieieieieieieieieiegegegegegegegd7d7d7d7d7d7d7d7d7d7d7d7d7d7dIdIdIdId7d7d7d7d7d7d7d7d7d7d7d7d7d7d7egegegegegegegeieieieieieieieieieieWeWeWeWeWeWeYeYeYeYeYzDegf6G1G2rhBhqbvLvLvLvLvLBhBhBhBhBhBhBhBhBhBhvmvmvcvcvcvcvcBhGfF1GgEDlCt3GyhBG3h8h8jpjpjpkfkfkflrlrlrnznhnRnRnRnRo<pLpLpLpLpLq*rororotzs=s=s=s=uxu:u:u:v1v1v1wnwnwJwJwJyKy6y<y<y<A#A#A#A#DyDyDyDyGkGIG4G5G6aaacaaaaaaaaaaaaaaaaaaaaaaaaaaaaaa",
"aaaaaaaaaaaaaaaaaaaaaaaaaaaaaaabbEd2G7E3G8ggggggggf8f8f6f6f6f6f6f6fYfqfqfqfqfqfqfqfpfpfpe5e5e5e5e4e4eYeYeYeYeYeYeWeWeWeWeWeWeieieieieieieieieieieieiegegegegegegegegegegegd7d7d7d7d7d7d7d7d7d7d7d7d7d7egegegegegegegegegegegeieieieieieieieieieieieieWeWeWeWeWeWeWeYeYeYeYeYe4e4e5e5fqd7FKG9G#o0wHqbsGvLvLBhBhBhBhBhBhBhBhBhBhvmvmvcvcvcvcvcvcBhGfAuGgEDlCt3GyG.G3jpjpjpjpkfkflrlrlrlrnhnhnRnRnRnRo<pLpLpLpLpLq*rororotzs=s=s=s=uxu:u:u:v1v1v1wnwnwJwJwJyKy6y6y<y<A#A#A#A#A#DyDyDyF*GIF7G+G@G*a2a2aaaaaaaaaaaaaaaaaaaaaaaaaaaaaa",
"aaaaaaaaaaaaaaaaaaaaaaaaaaaaaaaadNaaG=i=GLggggggggggggf8f8f6f6f6f6f6fYfYfqfqfqfqfqfqfqfpfpfpe5e5e5e5e5e4e4eYeYeYeYeYeYeWeWeWeWeWeWeWeieieieieieieieieieieieieieieieiegegegegegegegegegegegegegegegegegegegegeieieieieieieieieieieieieieieieieWeWeWeWeWeWeWeYeYeYeYeYeYe4e4e4e5e5e5e5fpG-w:G;G:G>G,y0G<sGvLBhBhBhBhBhBhBhBhBhvmvmvcvcvcvcvcvcvcBhG1AuGgEDlCt3GyG.G2jpjpkfkfkflrlrlrlrnhnRnRnRnRnRo<pLpLpLpLpLq*rororotzs=s=s=s=uxuxu:u:vNv1v1wnwnwJwJwJyKy6y6y<y<AYA#A#A#A#DyDyDyF*GIGIG4G5G3aaacaaaaaaaaaaaaaaaaaaaaaaaaaaaaaaaa",
"aaaaaaaaaaaaaaaaaaaaaaaaaaaaaaaaaaacaaG4EdG5ggggggggggggggf8f8f6f6f6f6f6f6fYfqfqfqfqfqfqfqfpfpfpfpe5e5e5e5e5e4e4eYeYeYeYeYeYeYeWeWeWeWeWeWeWeWeieieieieieieieieieieieieieieieieieieieieieieieieieieieieieieieieieieieieieieieieieieWeWeWeWeWeWeWeWeWeYeYeYeYeYeYe4e4e4e5e5e5e5e5fpfpfqfqFuF3F6G6G7B4G8z*G9BhvLBhBhBhBhBhBhvmvmvcvcvcvcvcvcvcvcG0G1AuGgEDlCt3GyjrHajpkfkfkflrlrlrnznhnRnRnRnRnRpLpLpLpLpLq*q*rororotzs=s=s=s=uxuxu:u:vNv1v1wnwnwJwJwJyKy6y6y<y<AYA#A#A#A#DyDyDyF*GIGIGOA+HbabiQaaaaaaaaaaaaaaaaaaaaaaaaaaaaaaaaaa",
"aaaaaaaaaaaaaaaaaaaaaaaaaaaaaaaaaacaaaHcHdHegYgLggggggggggggggf8f8f6f6f6f6f6f6fYfqfqfqfqfqfqfqfqfpfpfpe5e5e5e5e5e5e4e4eYeYeYeYeYeYeYeYeWeWeWeWeWeWeWeWeWeWeWeieieieieieieieieieieieieieieieieieieieieieieieieieieieieWeWeWeWeWeWeWeWeWeWeWeYeYeYeYeYeYeYeYe4e4e4e5e5e5e5e5fpfpfpfqfqfqfqfqFuegHfHgHhDUHiHjBhHkF7BhvLvLBhvmvmvcvcvcvcvcvcvcvcy0G0G1AuGgEDlCt3GyjrG2kfkflrlrlrlrnznhnRnRnRnRo<pLpLpLpLpLq*q*rororotzs=s=s=s=uxu:u:u:vNv1v1wnwnwJwJwJyKy6y6y<y<AYA#A#A#A#DyDyDyF*GkGIGVHlHmGYaaiQaaaaaaaaaaaaaaaaaaaaaaaaaaaaaaaaaa",
"aaaaaaaaaaaaaaaaaaaaaaaaaaaaaaaaaaaaaLaaHnfUgHgRgRggggggggggggggggf8f8f6f6f6f6f6f6fYfqfqfqfqfqfqfqfqfqfpfpfpe5e5e5e5e5e5e4e4e4eYeYeYeYeYeYeYeYeYeWeWeWeWeWeWeWeWeWeWeWeWeWeWeWeWeWeWeWeWeWeWeWeWeWeWeWeWeWeWeWeWeWeWeWeWeWeWeWeWeYeYeYeYeYeYeYeYeYe4e4e4e5e5e5e5e5e5fpfpfpfpfqfqfqfqfqfqfqfqCHf6zgHoHpHqHrC9HsHtvcHuHvxivmtiBhtitivcvcvcvcy0y0G0HwAuGgEDlCt3GyHxHykflrlrlrlrnhnhnRnRnRnRo<pLpLpLpLpLq*q*rororotzs=s=s=s=uxu:u:u:vNv1v1wnwnwJwJwJyKyKy6y<y<AYA#A#A#A#DyDyDyDyGkGIGIHzHAHBaaacaaaaaaaaaaaaaaaaaaaaaaaaaaaaaaaaaaaa",
"aaaaaaaaaaaaaaaaaaaaaaaaaaaaaaaaaaaaabacF:HCHDHEgRgRgLggggggggggggggggf8f8f6f6f6f6f6f6fYfYfqfqfqfqfqfqfqfqfqfpfpfpfpe5e5e5e5e5e5e4e4e4e4eYeYeYeYeYeYeYeYeYeYeYeWeWeWeWeWeWeWeWeWeWeWeWeWeWeWeWeWeWeWeWeWeWeWeWeWeWeYeYeYeYeYeYeYeYeYeYeYeYe4e4e4e5e5e5e5e5e5e5fpfpfpfpfqfqfqfqfqfqfqfqfYfYf6f6f6HFfPHGHHAPBeHIDvHJHKHLoIwtHkHMHNHOz*wHwty0y0y0G0HPAuGgEDlCt3HQHxFJlrlrlrnznhnRnRnRnRnRo<pLpLpLpLpLq*rorororotzs=s=s=s=uxu:u:u:vNv1v1wnwnwJwJwJyKyKy6y<y<AYA#A#A#A#DyDyDyDyGkGIGIDMHRHSuAiQabaaaaaaaaaaaaaaaaaaaaaaaaaaaaaaaaaaaa",
"aaaaaaaaaaaaaaaaaaaaaaaaaaaaaaaaaaaaaaiQaaHTHUf0HVgRgRgRgLggggggggggggggggf8f8f6f6f6f6f6f6f6fYfqfqfqfqfqfqfqfqfqfqfpfpfpfpe5e5e5e5e5e5e5e5e4e4e4e4eYeYeYeYeYeYeYeYeYeYeYeYeYeYeYeYeYeYeYeYeYeYeYeYeYeYeYeYeYeYeYeYeYeYeYeYeYeYe4e4e4e4e5e5e5e5e5e5e5e5fpfpfpfpfqfqfqfqfqfqfqfqfqfqfYfYf6f6f6f6f6f6F6HWHWHXHYHZw2t-qdH0H1H2H3DuH4D6t0t6AhvmG<yuA9H5q5GgEDlCt3HQH6FJlrlrnznhnRnRnRnRnRpLpLpLpLpLpLq*rorororotzs=s=s=s=uxu:u:u:v1v1v1wnwnwJwJwJyKyKy6y<y<AYA#A#A#A#DyDyDyDyF*GIGIGVFxH7FkaaiQaaaaaaaaaaaaaaaaaaaaaaaaaaaaaaaaaaaaaa",
"aaaaaaaaaaaaaaaaaaaaaaaaaaaaaaaaaaaaaaaaaeaaH8H9H#gRgRgRgRgRgLggggggggggggggggf8f8f8f6f6f6f6f6f6fYfYfqfqfqfqfqfqfqfqfqfqfpfpfpfpfpfpe5e5e5e5e5e5e5e5e5e4e4e4e4e4e4eYeYeYeYeYeYeYeYeYeYeYeYeYeYeYeYeYeYeYeYeYeYe4e4e4e4e4e4e5e5e5e5e5e5e5e5e5e5fpfpfpfpfpfqfqfqfqfqfqfqfqfqfqfYfYf6f6f6f6f6f6f6f8f8ggF6gREdH.H+H@lHlQk5q.yEkzx3C1p7m7t1wft8H*vnj3H=n7D;k4lCt3H-H6H;nznhnhnRnRnRnRo<pLpLpLpLpLpLq*rorororotzs=s=s=s=uxu:u:vNv1v1v1wnwnwJwJwJyKyKy6y<y<AYA#A#A#A#DyDyDyDyF*GIGIGIH:HAHBaaacaaaaaaaaaaaaaaaaaaaaaaaaaaaaaaaaaaaaaaaa",
"aaaaaaaaaaaaaaaaaaaaaaaaaaaaaaaaaaaaaaaadqacaLH>H,H<gRgRgRgRgRgRgLggggggggggggggggf8f8f8f6f6f6f6f6f6f6fYfYfqfqfqfqfqfqfqfqfqfqfqfqfpfpfpfpfpfpe5e5e5e5e5e5e5e5e5e5e5e5e5e5e4e4e4e4e4e4e4e4e4e4e4e4e4e4e5e5e5e5e5e5e5e5e5e5e5e5e5e5e5fpfpfpfpfpfpfqfqfqfqfqfqfqfqfqfqfqfYfYf6f6f6f6f6f6f6f8f8f8ggggggggggH1e5gaH2H3H4lPu2H5k4k9k5pWl8wgt-xWH6H7s2s2s2w7lgwht3H-H6H8nhnRnRnRnRnRo<pLpLpLpLpLq*q*rororotzs=s=s=s=s=uxu:u:vNv1v1v1wnwnwJwJwJyKyKy6y<y<AYA#A#A#A#DyDyDyDyF*GIGIGIGzH9H0F:acabaaaaaaaaaaaaaaaaaaaaaaaaaaaaaaaaaaaaaaaa",
"aaaaaaaaaaaaaaaaaaaaaaaaaaaaaaaaaaaaaaaaaacaaaIaIbIcIdgRgRgRgRgRgRgRgLggggggggggggggggggf8f8f8f6f6f6f6f6f6f6f6fYfYfqfqfqfqfqfqfqfqfqfqfqfqfpfpfpfpfpfpfpfpe5e5e5e5e5e5e5e5e5e5e5e5e5e5e5e5e5e5e5e5e5e5e5e5e5e5e5e5e5e5fpfpfpfpfpfpfpfpfqfqfqfqfqfqfqfqfqfqfqfqfqfYfYf6f6f6f6f6f6f6f6f8f8f8gggggggggggggggggRkfIeEdHyIfIgnrl+lPIhlEwhlAllpWryk8k8k8k8lllgwht3H-IiIjnRnRnRnRnRo<pLpLpLpLpLq*q*rororotzs=s=s=s=uxuxu:u:vNv1v1v1wnwnwJwJwJyKyKy6y<y<AYA#A#A#A#A#DyDyDyF*GkGIGIIkIlImInaacaaaaaaaaaaaaaaaaaaaaaaaaaaaaaaaaaaaaaaaaaaa",
"aaaaaaaaaaaaaaaaaaaaaaaaaaaaaaaaaaaaaaaaaaaaacaaIoIpgHihg-gRgRgRgRgRgRgRgLggggggggggggggggggf8f8f8f6f6f6f6f6f6f6f6f6fYfYfqfqfqfqfqfqfqfqfqfqfqfqfqfqfqfqfpfpfpfpfpfpfpfpfpfpfpfpfpfpfpfpfpfpfpfpfpfpfpfpfpfpfpfpfpfpfpfpfpfqfqfqfqfqfqfqfqfqfqfqfqfqfqfqfYfYf6f6f6f6f6f6f6f6f6f8f8f8gggggggggggggggggggLgRgRgRF@GsggIqIrIsItIuIvDlmPlNl+t0IwoWl#lEl9l9lEljmzIxnTIynRnRnRo<pLpLpLpLpLpLq*rorororotzs=s=s=s=uxuxu:u:vNv1v1v1wnwnwJwJwJyKyKy6y<y<AYA#A#A#A#A#DyDyDyF*GkGIGIGIIzF-IAaaacaaaaaaaaaaaaaaaaaaaaaaaaaaaaaaaaaaaaaaaaaaaa",
"aaaaaaaaaaaaaaaaaaaaaaaaaaaaaaaaaaaaaaaaaaaaaaemaaIBgIh9ihihg-gRgRgRgRgRgRgRgLgLggggggggggggggggggf8f8f8f6f6f6f6f6f6f6f6f6f6fYfYfqfqfqfqfqfqfqfqfqfqfqfqfqfqfqfqfqfqfqfqfqfqfqfqfpfpfpfpfpfpfpfpfqfqfqfqfqfqfqfqfqfqfqfqfqfqfqfqfqfqfqfqfqfqfqfqfYfYfYf6f6f6f6f6f6f6f6f6f8f8f8gggggggggggggggggggggLgRgRgRgRgRgRgRg-lrlrf8HxG.h8ICIDIEIFE#IGuruKxOnal*mPlPIHIIiNIynRnRo<pLpLpLpLpLq*q*rorororotzs=s=s=s=uxuxu:u:vNv1v1wnwnwnwJwJwJyKyKy6y<y<AYA#A#A#A#A#DyDyDyF*GkGIGIGIIJF-IKaaemaaaaaaaaaaaaaaaaaaaaaaaaaaaaaaaaaaaaaaaaaaaaaa",
"aaaaaaaaaaaaaaaaaaaaaaaaaaaaaaaaaaaaaaaaaaaaaaabiQgyGmH6ILh8h8g-g-gRgRgRgRgRgRgRgLgLggggggggggggggggggggf8f8f8f8f6f6f6f6f6f6f6f6f6f6fYfYfYfqfqfqfqfqfqfqfqfqfqfqfqfqfqfqfqfqfqfqfqfqfqfqfqfqfqfqfqfqfqfqfqfqfqfqfqfqfqfqfqfqfqfqfqfqfqfYfYfYf6f6f6f6f6f6f6f6f6f6f6f8f8f8gggggggggggggggggggggLgLgRgRgRgRgRgRgRg-g-h8h8h8kfnzHajpIMgvjrINf8IOIPIQIRISITIUIUIVIWiho<o<pLpLpLpLpLpLq*q*rorororos=s=s=s=s=uxu:u:u:vNv1v1wnwnwnwJwJwJyKy6y6y<y<AYA#A#A#A#A#DyDyDyF*GkGIGIGIGzIXIYIZbEabaaaaaaaaaaaaaaaaaaaaaaaaaaaaaaaaaaaaaaaaaaaaaa",
"aaaaaaaaaaaaaaaaaaaaaaaaaaaaaaaaaaaaaaaaaaaaaaaacaaaI0I1ghjch8h8h8g-g-gRgRgRgRgRgRgRgRgLgLggggggggggggggggggggggf8f8f8f6f6f6f6f6f6f6f6f6f6f6f6f6fYfYfYfYfqfqfqfqfqfqfqfqfqfqfqfqfqfqfqfqfqfqfqfqfqfqfqfqfqfqfqfqfqfqfqfqfYfYfYfYfYf6f6f6f6f6f6f6f6f6f6f6f6f8f8f8f8gggggggggggggggggggggggLgRgRgRgRgRgRgRgRg-g-ihh8h8h8h8jpjpjpjpnzG2I2G2HajpgLI3I4I5I6I6I6I7I8pLo<pLpLpLpLpLpLq*rorororotzs=s=s=s=s=uxu:u:u:vNv1v1wnwnwnwJwJwJyKy6y6y<y<AYA#A#A#A#A#DyDyDyF*GkGIGIGII9I#I.I+aacaaaaaaaaaaaaaaaaaaaaaaaaaaaaaaaaaaaaaaaaaaaaaaaaa",
"aaaaaaaaaaaaaaaaaaaaaaaaaaaaaaaaaaaaaaaaaaaaaaaaaadNaaI@k2g;h8h8h8h8h8ihg-g-gRgRgRgRgRgRgRgRgLggggggggggggggggggggggggf8f8f8f8f8f6f6f6f6f6f6f6f6f6f6f6f6f6f6f6f6fYfYfYfYfYfYfYfYfYfYfqfqfqfqfYfYfYfYfYfYfYfYfYfYfYf6f6f6f6f6f6f6f6f6f6f6f6f6f6f6f6f8f8f8f8gggggggggggggggggggggggggLgLgRgRgRgRgRgRgRgRg-g-h8h8h8h8h8h8jpjpjpjpkfkfkflrlrlrlrHao<H8H8q*q*q*q*H8pLpLpLpLpLpLq*q*rorororotzs=s=s=s=uxuxu:u:vNv1v1v1wnwnwJwJwJwJyKy6y6y<y<AYA#A#A#A#A#DyDyDyF*GkGIGIGII*I=FNI-aaI;aaaaaaaaaaaaaaaaaaaaaaaaaaaaaaaaaaaaaaaaaaaaaaaaaa",
"aaaaaaaaaaaaaaaaaaaaaaaaaaaaaaaaaaaaaaaaaaaaaaaaaaaaemaaI:I>I,jph8h8h8h8h8ihg-g-gRgRgRgRgRgRgRgRgLgLggggggggggggggggggggggggggggf8f8f8f8f6f6f6f6f6f6f6f6f6f6f6f6f6f6f6f6f6f6f6f6f6f6f6f6f6f6f6f6f6f6f6f6f6f6f6f6f6f6f6f6f6f6f6f6f6f6f6f6f8f8f8f8f8gggggggggggggggggggggggggggLgLgRgRgRgRgRgRgRgRg-g-ihh8h8h8h8h8h8jpjpjpjpkfkfkflrlrlrlrlrnznhnRnRnRnRnRo<pLpLpLpLpLpLpLq*rororororos=s=s=s=s=uxuxu:u:vNv1v1v1wnwnwJwJwJwJyKy6y6y<y<AYA#A#A#A#A#DyDyDyF*GkGIGIGII*I<I1I2aaemaaaaaaaaaaaaaaaaaaaaaaaaaaaaaaaaaaaaaaaaaaaaaaaaaaaa",
"aaaaaaaaaaaaaaaaaaaaaaaaaaaaaaaaaaaaaaaaaaaaaaaaaaaaaKemaaI3I4i*jpjph8h8h8h8h8h8g-g-g-gRgRgRgRgRgRgRgRgRgLgLggggggggggggggggggggggggggggggf8f8f8f8f8f8f6f6f6f6f6f6f6f6f6f6f6f6f6f6f6f6f6f6f6f6f6f6f6f6f6f6f6f6f6f6f6f6f6f6f6f8f8f8f8f8f8gggggggggggggggggggggggggggggggLgLgRgRgRgRgRgRgRgRgRg-g-ihh8h8h8h8h8h8jpjpjpjpkfkfkflrlrlrlrlrnznhnhnRnRnRnRnRo<pLpLpLpLpLpLq*q*rorororotzs=s=s=s=s=uxu:u:u:vNv1v1v1wnwnwJwJwJyKyKy6y6y<y<AYA#A#A#A#DyDyDyDyF*GkGIGIGII*I5zFI6aaacaKaaaaaaaaaaaaaaaaaaaaaaaaaaaaaaaaaaaaaaaaaaaaaaaaaaaa",
"aaaaaaaaaaaaaaaaaaaaaaaaaaaaaaaaaaaaaaaaaaaaaaaaaaaaaaaba2flI7jrI8jpjpjph8h8h8h8h8h8ihg-g-gRgRgRgRgRgRgRgRgRgRgLgLggggggggggggggggggggggggggggggggggggf8f8f8f8f8f8f8f8f8f8f8f6f6f6f6f6f6f6f6f6f6f6f6f8f8f8f8f8f8f8f8f8f8f8gggggggggggggggggggggggggggggggggggggLgLgRgRgRgRgRgRgRgRgRgRg-g-ihh8h8h8h8h8h8jpjpjpjpkfkfkfkflrlrlrlrlrnznhnhnRnRnRnRnRo<pLpLpLpLpLpLpLq*rororororotzs=s=s=s=uxuxu:u:u:vNv1v1wnwnwnwJwJwJyKyKy6y<y<y<AYA#A#A#A#DyDyDyDyF*GkGIGIGIGII9I0JaJbababaaaaaaaaaaaaaaaaaaaaaaaaaaaaaaaaaaaaaaaaaaaaaaaaaaaaaa",
"aaaaaaaaaaaaaaaaaaaaaaaaaaaaaaaaaaaaaaaaaaaaaaaaaaaaaaaacaaaC1JcI5Jdjpjpjpjph8h8h8h8h8h8h8ihg-g-gRgRgRgRgRgRgRgRgRgRgRgLgLggggggggggggggggggggggggggggggggggggggggggggggggggggf8f8f8f8f8f8f8f8f8f8f8gggggggggggggggggggggggggggggggggggggggggggggggggggLgLgLgRgRgRgRgRgRgRgRgRgRg-g-g-h8h8h8h8h8h8h8jpjpjpjpkfkfkfkflrlrlrlrlrnznhnhnRnRnRnRnRnRo<pLpLpLpLpLpLq*q*rorororotzs=s=s=s=s=uxuxu:u:vNv1v1v1wnwnwnwJwJwJyKyKy6y<y<y<AYA#A#A#A#DyDyDyDyF*GkGIGIGII*JeAmJfJgaacaaaaaaaaaaaaaaaaaaaaaaaaaaaaaaaaaaaaaaaaaaaaaaaaaaaaaaaaa",
"aaaaaaaaaaaaaaaaaaaaaaaaaaaaaaaaaaaaaaaaaaaaaaaaaaaaaaaaaaacaaJhJiJjJkkfkfjpjpjpjph8h8h8h8h8h8h8ihg-g-g-gRgRgRgRgRgRgRgRgRgRgRgLgLgLgggggggggggggggggggggggggggggggggggggggggggggggggggggggggggggggggggggggggggggggggggggggggggggggggggggggggggLgLgLgRgRgRgRgRgRgRgRgRgRgRg-g-g-ihh8h8h8h8h8h8jpjpjpjpjpkfkfkfkflrlrlrlrlrnznhnhnRnRnRnRnRnRo<pLpLpLpLpLpLpLq*rororororotzs=s=s=s=s=uxu:u:u:vNv1v1v1wnwnwJwJwJwJyKy6y6y<y<y<A#A#A#A#A#DyDyDyDyF*GkGIGIGII*JlJmJnJoaaacaaaaaaaaaaaaaaaaaaaaaaaaaaaaaaaaaaaaaaaaaaaaaaaaaaaaaaaaaa",
"aaaaaaaaaaaaaaaaaaaaaaaaaaaaaaaaaaaaaaaaaaaaaaaaaaaaaaaaaaaaemaaJpJqJrJskfkfkfjpjpjpjpjph8h8h8h8h8h8h8ihg-g-g-gRgRgRgRgRgRgRgRgRgRgRgRgRgLgLgLgggggggggggggggggggggggggggggggggggggggggggggggggggggggggggggggggggggggggggggggggggggLgLgLgLgRgRgRgRgRgRgRgRgRgRgRgRg-g-g-ihh8h8h8h8h8h8h8h8jpjpjpjpkfkfkfkfkflrlrlrlrlrnznhnhnRnRnRnRnRnRo<pLpLpLpLpLpLpLq*q*rorororotzs=s=s=s=s=uxuxu:u:u:vNv1v1wnwnwnwJwJwJwJyKy6y6y<y<AYA#A#A#A#A#DyDyDyDyF*GkGIGIGII*JtFxF8Juaaemaaaaaaaaaaaaaaaaaaaaaaaaaaaaaaaaaaaaaaaaaaaaaaaaaaaaaaaaaaaa",
"aaaaaaaaaaaaaaaaaaaaaaaaaaaaaaaaaaaaaaaaaaaaaaaaaaaaaaaaaaaaaaadaaJvJwJxJskfkfkfkfjpjpjpjpjpjph8h8h8h8h8h8h8ihg-g-g-g-gRgRgRgRgRgRgRgRgRgRgRgRgRgRgRgLgLgLgLgLgggggggggggggggggggggggggggggggggggggggggggggggggggggLgLgLgLgLgRgRgRgRgRgRgRgRgRgRgRgRgRgRgRgRg-g-g-ihh8h8h8h8h8h8h8h8jpjpjpjpjpkfkfkfkfkflrlrlrlrlrnznhnhnRnRnRnRnRnRo<pLpLpLpLpLpLpLq*q*rororororotzs=s=s=s=s=uxuxu:u:vNv1v1v1wnwnwnwJwJwJyKyKy6y6y<y<AYA#A#A#A#A#DyDyDyDyF*GIGIGIGII*I9JyFNJzaarIaaaaaaaaaaaaaaaaaaaaaaaaaaaaaaaaaaaaaaaaaaaaaaaaaaaaaaaaaaaaaa",
"aaaaaaaaaaaaaaaaaaaaaaaaaaaaaaaaaaaaaaaaaaaaaaaaaaaaaaaaaaaaaaaaadaaJAH,JBJslrlrkfkfkfkfjpjpjpjpjpjph8h8h8h8h8h8h8h8ihg-g-g-g-gRgRgRgRgRgRgRgRgRgRgRgRgRgRgRgRgRgRgRgRgRgRgLgLgLgLgLgLgLgLgLgLgLgLgLgLgRgRgRgRgRgRgRgRgRgRgRgRgRgRgRgRgRgRgRgRgRgRg-g-g-g-ihh8h8h8h8h8h8h8h8h8jpjpjpjpjpkfkfkfkfkflrlrlrlrlrlrnznhnhnRnRnRnRnRnRo<pLpLpLpLpLpLpLq*q*rororororotzs=s=s=s=s=uxuxu:u:u:vNv1v1v1wnwnwJwJwJwJyKyKy6y<y<y<AYA#A#A#A#A#DyDyDyDyF*GIGIGIGII*IkI=F-JCaarIaaaaaaaaaaaaaaaaaaaaaaaaaaaaaaaaaaaaaaaaaaaaaaaaaaaaaaaaaaaaaaaa",
"aaaaaaaaaaaaaaaaaaaaaaaaaaaaaaaaaaaaaaaaaaaaaaaaaaaaaaaaaaaaaaaaaaadaaJDjNjMJElrlrlrkfkfkfkfkfjpjpjpjpjpjph8h8h8h8h8h8h8h8h8ihihg-g-g-g-gRgRgRgRgRgRgRgRgRgRgRgRgRgRgRgRgRgRgRgRgRgRgRgRgRgRgRgRgRgRgRgRgRgRgRgRgRgRgRgRgRgRgRgRgRgRgRgRg-g-g-g-ihihh8h8h8h8h8h8h8h8h8jpjpjpjpjpjpkfkfkfkfkflrlrlrlrlrlrlrnhnhnRnRnRnRnRnRnRo<pLpLpLpLpLpLpLpLq*q*rorororotzs=s=s=s=s=s=uxuxu:u:vNv1v1v1wnwnwnwJwJwJwJyKy6y6y<y<y<AYA#A#A#A#A#DyDyDyDyGkGIGIGIGII*IkHzG5JFaaemaaaaaaaaaaaaaaaaaaaaaaaaaaaaaaaaaaaaaaaaaaaaaaaaaaaaaaaaaaaaaaaaaa",
"aaaaaaaaaaaaaaaaaaaaaaaaaaaaaaaaaaaaaaaaaaaaaaaaaaaaaaaaaaaaaaaaaadqemaaJGJHjMJElrlrlrlrlrkfkfkfkfkfjpjpjpjpjpjpjph8h8h8h8h8h8h8h8h8h8ihihg-g-g-g-g-g-gRgRgRgRgRgRgRgRgRgRgRgRgRgRgRgRgRgRgRgRgRgRgRgRgRgRgRgRgRgRgRgRgRgRg-g-g-g-g-g-ihihh8h8h8h8h8h8h8h8h8h8h8jpjpjpjpjpjpkfkfkfkfkfkflrlrlrlrlrlrnznhnhnRnRnRnRnRnRnRo<pLpLpLpLpLpLpLpLq*q*rororororotzs=s=s=s=s=uxuxu:u:u:vNv1v1v1wnwnwnwJwJwJyKyKy6y6y<y<AYA#A#A#A#A#DyDyDyDyF*GkGIGIGIGII*JIHzG5JJaaemdqaaaaaaaaaaaaaaaaaaaaaaaaaaaaaaaaaaaaaaaaaaaaaaaaaaaaaaaaaaaaaaaaaa",
"aaaaaaaaaaaaaaaaaaaaaaaaaaaaaaaaaaaaaaaaaaaaaaaaaaaaaaaaaaaaaaaaaaaaabemaaJKJLJMJNlrlrlrlrlrlrlrkfkfkfkfkfkfjpjpjpjpjpjpjph8h8h8h8h8h8h8h8h8h8h8h8h8ihihihg-g-g-g-g-g-g-g-g-g-g-g-gRgRgRgRgRgRgRg-g-g-g-g-g-g-g-g-g-g-g-ihihh8h8h8h8h8h8h8h8h8h8h8h8h8h8jpjpjpjpjpjpjpkfkfkfkfkflrlrlrlrlrlrlrnznhnhnhnRnRnRnRnRnRnRo<pLpLpLpLpLpLpLpLq*q*rororororotzs=s=s=s=s=uxuxu:u:u:vNv1v1v1wnwnwnwJwJwJwJyKyKy6y<y<y<AYA#A#A#A#A#DyDyDyDyF*GkGIGIGIGII*JIHzG5JOaaemabaaaaaaaaaaaaaaaaaaaaaaaaaaaaaaaaaaaaaaaaaaaaaaaaaaaaaaaaaaaaaaaaaaaa",
"aaaaaaaaaaaaaaaaaaaaaaaaaaaaaaaaaaaaaaaaaaaaaaaaaaaaaaaaaaaaaaaaaaaaaaabemaaJPJQI8ownhnhlrlrlrlrlrlrlrkfkfkfkfkfkfkfjpjpjpjpjpjpjpjph8h8h8h8h8h8h8h8h8h8h8h8h8h8h8h8h8h8h8ihihihihihihihihihihihihihihihh8h8h8h8h8h8h8h8h8h8h8h8h8h8h8h8h8h8h8jpjpjpjpjpjpjpjpkfkfkfkfkfkflrlrlrlrlrlrlrlrnznhnhnRnRnRnRnRnRnRo<o<pLpLpLpLpLpLpLpLq*q*rororororotzs=s=s=s=s=s=uxuxu:u:u:vNv1v1v1wnwnwnwJwJwJyKyKy6y6y<y<y<AYA#A#A#A#A#DyDyDyDyF*GkGIGIGII*I*JtI=G5JRaaacabaaaaaaaaaaaaaaaaaaaaaaaaaaaaaaaaaaaaaaaaaaaaaaaaaaaaaaaaaaaaaaaaaaaaaa",
"aaaaaaaaaaaaaaaaaaaaaaaaaaaaaaaaaaaaaaaaaaaaaaaaaaaaaaaaaaaaaaaaaaaaaaaadqdNaaJSmbJTJUnhnhnhnzlrlrlrlrlrlrlrlrkfkfkfkfkfkfkfjpjpjpjpjpjpjpjpjpjph8h8h8h8h8h8h8h8h8h8h8h8h8h8h8h8h8h8h8h8h8h8h8h8h8h8h8h8h8h8h8h8h8h8h8h8h8h8h8h8h8jpjpjpjpjpjpjpjpjpkfkfkfkfkfkfkfkflrlrlrlrlrlrlrlrnznhnhnRnRnRnRnRnRnRnRo<o<pLpLpLpLpLpLpLpLq*q*rororororotzs=s=s=s=s=s=uxuxu:u:u:vNv1v1v1wnwnwnwJwJwJwJyKyKy6y6y<y<AYA#A#A#A#A#A#DyDyDyDyF*GIGIGIGII*I*JtGOzFJFaaacdqaaaaaaaaaaaaaaaaaaaaaaaaaaaaaaaaaaaaaaaaaaaaaaaaaaaaaaaaaaaaaaaaaaaaaaaa",
"aaaaaaaaaaaaaaaaaaaaaaaaaaaaaaaaaaaaaaaaaaaaaaaaaaaaaaaaaaaaaaaaaaaaaaaaaaaKemaaJVnTJWJXnRnRnhnhnhnzlrlrlrlrlrlrlrlrlrkfkfkfkfkfkfkfkfjpjpjpjpjpjpjpjpjpjpjpjpjpjph8h8h8h8h8h8h8h8h8h8h8h8h8h8h8h8h8h8h8h8h8h8h8jpjpjpjpjpjpjpjpjpjpjpjpjpkfkfkfkfkfkfkfkfkflrlrlrlrlrlrlrlrnznhnhnhnRnRnRnRnRnRnRnRnRo<pLpLpLpLpLpLpLpLpLq*q*rororororotzs=s=s=s=s=s=uxuxu:u:u:vNvNv1v1v1wnwnwnwJwJwJwJyKy6y6y<y<y<AYA#A#A#A#A#DyDyDyDyDyGkGIGIGIGII*I*JeF7A+JYaaI;dqaaaaaaaaaaaaaaaaaaaaaaaaaaaaaaaaaaaaaaaaaaaaaaaaaaaaaaaaaaaaaaaaaaaaaaaaaa",
"aaaaaaaaaaaaaaaaaaaaaaaaaaaaaaaaaaaaaaaaaaaaaaaaaaaaaaaaaaaaaaaaaaaaaaaaaaaaaaemaaJZJ0ihnSnRnRnRnRnhnhnhnznzlrlrlrlrlrlrlrlrlrkfkfkfkfkfkfkfkfkfkfkfjpjpjpjpjpjpjpjpjpjpjpjpjpjpjpjpjpjpjpjpjpjpjpjpjpjpjpjpjpjpjpjpjpjpjpjpjpkfkfkfkfkfkfkfkfkfkflrlrlrlrlrlrlrlrlrlrnznhnhnhnRnRnRnRnRnRnRnRnRo<pLpLpLpLpLpLpLpLpLq*q*q*rororororotzs=s=s=s=s=s=uxuxuxu:u:u:vNv1v1v1wnwnwnwJwJwJwJyKyKy6y6y<y<y<AYA#A#A#A#A#DyDyDyDyF*GkGIGIGIGII*I*J1F*J2J3aaemaaaaaaaaaaaaaaaaaaaaaaaaaaaaaaaaaaaaaaaaaaaaaaaaaaaaaaaaaaaaaaaaaaaaaaaaaaaaaa",
"aaaaaaaaaaaaaaaaaaaaaaaaaaaaaaaaaaaaaaaaaaaaaaaaaaaaaaaaaaaaaaaaaaaaaaaaaaaaaaaaadaaJ4J5J6J7nRnRnRnRnRnRnRnhnhnhnzlrlrlrlrlrlrlrlrlrlrlrlrkfkfkfkfkfkfkfkfkfkfkfkfkfkfkfkfjpjpjpjpjpjpjpjpjpjpjpjpjpjpkfkfkfkfkfkfkfkfkfkfkfkfkfkfkfkflrlrlrlrlrlrlrlrlrlrlrlrnznhnhnhnRnRnRnRnRnRnRnRnRnRo<o<pLpLpLpLpLpLpLpLpLq*q*rorororororotzs=s=s=s=s=s=uxuxuxu:u:u:vNv1v1v1wnwnwnwnwJwJwJwJyKy6y6y<y<y<AYA#A#A#A#A#A#DyDyDyDyF*GkGIGIGIGII*I*I9AmJ8J9aaemaaaaaaaaaaaaaaaaaaaaaaaaaaaaaaaaaaaaaaaaaaaaaaaaaaaaaaaaaaaaaaaaaaaaaaaaaaaaaaaa",
"aaaaaaaaaaaaaaaaaaaaaaaaaaaaaaaaaaaaaaaaaaaaaaaaaaaaaaaaaaaaaaaaaaaaaaaaaaaaaaaaaaemaaJ#J.I7J+nRnRnRnRnRnRnRnRnRnRnhnhnhnznzlrlrlrlrlrlrlrlrlrlrlrlrlrlrkfkfkfkfkfkfkfkfkfkfkfkfkfkfkfkfkfkfkfkfkfkfkfkfkfkfkfkfkfkfkfkflrlrlrlrlrlrlrlrlrlrlrlrlrlrnznznhnhnhnhnRnRnRnRnRnRnRnRnRnRo<o<pLpLpLpLpLpLpLpLpLq*q*q*rorororororotzs=s=s=s=s=s=uxuxuxu:u:u:vNv1v1v1v1wnwnwnwJwJwJwJyKyKy6y6y<y<y<AYA#A#A#A#A#DyDyDyDyDyF*GIGIGIGII*I*JIJ@I0J*J=aarIaaaaaaaaaaaaaaaaaaaaaaaaaaaaaaaaaaaaaaaaaaaaaaaaaaaaaaaaaaaaaaaaaaaaaaaaaaaaaaaaaa",
"aaaaaaaaaaaaaaaaaaaaaaaaaaaaaaaaaaaaaaaaaaaaaaaaaaaaaaaaaaaaaaaaaaaaaaaaaaaaaaaaaaaaadaaJ-J;mbJ+pLo<o<nRnRnRnRnRnRnRnRnRnRnhnhnhnhnznzlrlrlrlrlrlrlrlrlrlrlrlrlrlrlrlrlrlrlrlrlrlrlrlrlrlrlrlrlrlrlrlrlrlrlrlrlrlrlrlrlrlrlrlrlrlrlrlrlrlrnznznhnhnhnhnRnRnRnRnRnRnRnRnRnRnRnRo<o<pLpLpLpLpLpLpLpLpLpLq*q*rororororororotzs=s=s=s=s=s=uxuxuxu:u:u:vNvNv1v1v1wnwnwnwJwJwJwJyKyKy6y6y<y<y<AYA#A#A#A#A#A#DyDyDyDyF*GkGIGIGIGII*I*JIJ:J>J,J<aaemaaaaaaaaaaaaaaaaaaaaaaaaaaaaaaaaaaaaaaaaaaaaaaaaaaaaaaaaaaaaaaaaaaaaaaaaaaaaaaaaaaaa",
"aaaaaaaaaaaaaaaaaaaaaaaaaaaaaaaaaaaaaaaaaaaaaaaaaaaaaaaaaaaaaaaaaaaaaaaaaaaaaaaaaaaaaaacaagFJ1JQJ2J3pLpLo<nRnRnRnRnRnRnRnRnRnRnRnRnRnhnhnhnhnhnhnznzlrlrlrlrlrlrlrlrlrlrlrlrlrlrlrlrlrlrlrlrlrlrlrlrlrlrlrlrlrlrlrlrlrlrlrlrnznznznhnhnhnhnhnRnRnRnRnRnRnRnRnRnRnRnRnRo<o<pLpLpLpLpLpLpLpLpLpLpLq*q*q*rorororororotztzs=s=s=s=s=s=uxuxuxu:u:u:vNvNv1v1v1wnwnwnwJwJwJwJwJyKyKy6y6y<y<y<AYA#A#A#A#A#DyDyDyDyDyF*GkGIGIGIGII*I*JtGzHAJ4J5aaemaaaaaaaaaaaaaaaaaaaaaaaaaaaaaaaaaaaaaaaaaaaaaaaaaaaaaaaaaaaaaaaaaaaaaaaaaaaaaaaaaaaaaa",
"aaaaaaaaaaaaaaaaaaaaaaaaaaaaaaaaaaaaaaaaaaaaaaaaaaaaaaaaaaaaaaaaaaaaaaaaaaaaaaaaaaaaaaaacaaaaagNJ6uNJ7pLpLpLpLo<o<nRnRnRnRnRnRnRnRnRnRnRnRnRnRnRnRnhnhnhnhnhnhnhnhnznznznznznzlrlrlrlrlrlrlrlrlrlrlrnznznznznznhnhnhnhnhnhnhnhnRnRnRnRnRnRnRnRnRnRnRnRnRnRnRnRo<o<pLpLpLpLpLpLpLpLpLpLpLpLq*q*q*rororororororotzs=s=s=s=s=s=s=uxuxuxu:u:u:vNvNv1v1v1wnwnwnwnwJwJwJwJyKyKy6y6y<y<y<AYA#A#A#A#A#A#DyDyDyDyDyGkGIGIGIGII*I*I*G4J8J9J0aaaacaaaaaaaaaaaaaaaaaaaaaaaaaaaaaaaaaaaaaaaaaaaaaaaaaaaaaaaaaaaaaaaaaaaaaaaaaaaaaaaaaaaaaaaaa",
"aaaaaaaaaaaaaaaaaaaaaaaaaaaaaaaaaaaaaaaaaaaaaaaaaaaaaaaaaaaaaaaaaaaaaaaaaaaaaaaaaaaaaaaaaaabbEaaKaKbo2J+pLpLpLpLpLpLpLo<o<o<nRnRnRnRnRnRnRnRnRnRnRnRnRnRnRnRnRnRnRnRnRnRnhnhnhnhnhnhnhnhnhnhnhnhnhnhnhnhnRnRnRnRnRnRnRnRnRnRnRnRnRnRnRnRnRnRnRnRnRnRo<o<o<pLpLpLpLpLpLpLpLpLpLpLpLpLq*q*q*rororororororotztzs=s=s=s=s=s=s=uxuxuxu:u:u:vNvNv1v1v1wnwnwnwnwJwJwJwJyKyKy6y6y<y<y<y<AYA#A#A#A#A#DyDyDyDyDyF*GkGIGIGIGII*I*JIJ:IXKcz<aaababaaaaaaaaaaaaaaaaaaaaaaaaaaaaaaaaaaaaaaaaaaaaaaaaaaaaaaaaaaaaaaaaaaaaaaaaaaaaaaaaaaaaaaaaaa",
"aaaaaaaaaaaaaaaaaaaaaaaaaaaaaaaaaaaaaaaaaaaaaaaaaaaaaaaaaaaaaaaaaaaaaaaaaaaaaaaaaaaaaaaaaaaaaaaeaaKdKeoPJ7pupLpLpLpLpLpLpLpLpLpLo<o<o<nRnRnRnRnRnRnRnRnRnRnRnRnRnRnRnRnRnRnRnRnRnRnRnRnRnRnRnRnRnRnRnRnRnRnRnRnRnRnRnRnRnRnRnRnRnRnRnRnRnRo<o<o<pLpLpLpLpLpLpLpLpLpLpLpLpLpLpLq*q*q*rororororororotztzs=s=s=s=s=s=s=s=uxuxu:u:u:u:vNvNv1v1v1wnwnwnwnwJwJwJwJyKyKyKy6y6y<y<y<AYA#A#A#A#A#A#DyDyDyDyDyF*GIGIGIGIGII*I*JtI9F-KfKgaaemaKaaaaaaaaaaaaaaaaaaaaaaaaaaaaaaaaaaaaaaaaaaaaaaaaaaaaaaaaaaaaaaaaaaaaaaaaaaaaaaaaaaaaaaaaaaaa",
"aaaaaaaaaaaaaaaaaaaaaaaaaaaaaaaaaaaaaaaaaaaaaaaaaaaaaaaaaaaaaaaaaaaaaaaaaaaaaaaaaaaaaaaaaaaaaaaaemaaKhKiiNKjJ7pLpLpLpLpLpLpLpLpLpLpLpLpLpLpLo<o<o<o<o<nRnRnRnRnRnRnRnRnRnRnRnRnRnRnRnRnRnRnRnRnRnRnRnRnRnRnRnRnRnRnRnRnRnRnRo<o<o<o<pLpLpLpLpLpLpLpLpLpLpLpLpLpLpLpLpLq*q*q*rororororororororotzs=s=s=s=s=s=s=s=uxuxuxu:u:u:u:vNv1v1v1v1wnwnwnwnwJwJwJwJwJyKyKy6y6y<y<y<AYA#A#A#A#A#A#DyDyDyDyDyF*GkGIGIGIGII*I*I*G4GkJ>KkKlaaemaaaaaaaaaaaaaaaaaaaaaaaaaaaaaaaaaaaaaaaaaaaaaaaaaaaaaaaaaaaaaaaaaaaaaaaaaaaaaaaaaaaaaaaaaaaaaaaa",
"aaaaaaaaaaaaaaaaaaaaaaaaaaaaaaaaaaaaaaaaaaaaaaaaaaaaaaaaaaaaaaaaaaaaaaaaaaaaaaaaaaaaaaaaaaaaaaaaaacaaaaaKmKno2Kopuq*q*pLpLpLpLpLpLpLpLpLpLpLpLpLpLpLpLpLpLpLpLo<o<o<o<o<o<o<o<o<o<o<o<o<o<o<o<o<o<o<o<o<o<o<o<o<o<pLpLpLpLpLpLpLpLpLpLpLpLpLpLpLpLpLpLpLpLpLpLq*q*q*q*rorororororororotztzs=s=s=s=s=s=s=s=s=uxuxuxu:u:u:u:vNv1v1v1v1wnwnwnwnwJwJwJwJwJyKyKy6y6y<y<y<AYAYA#A#A#A#A#A#DyDyDyDyDyF*GkGIGIGIGII*I*IkJ:GDKpKqaaaaiQaaaaaaaaaaaaaaaaaaaaaaaaaaaaaaaaaaaaaaaaaaaaaaaaaaaaaaaaaaaaaaaaaaaaaaaaaaaaaaaaaaaaaaaaaaaaaaaaaa",
"aaaaaaaaaaaaaaaaaaaaaaaaaaaaaaaaaaaaaaaaaaaaaaaaaaaaaaaaaaaaaaaaaaaaaaaaaaaaaaaaaaaaaaaaaaaaaaaaaaaaabacaaKrKsKtrorpq*q*q*q*pLpLpLpLpLpLpLpLpLpLpLpLpLpLpLpLpLpLpLpLpLpLpLpLpLpLpLpLpLpLpLpLpLpLpLpLpLpLpLpLpLpLpLpLpLpLpLpLpLpLpLpLpLpLpLpLpLpLpLpLq*q*q*q*q*rororororororororotztzs=s=s=s=s=s=s=s=s=uxuxuxu:u:u:u:vNvNv1v1v1v1wnwnwnwnwJwJwJwJwJyKyKy6y6y<y<y<y<AYA#A#A#A#A#A#DyDyDyDyDyF*GkGIGIGIGII*I*I*J1I9G5KuKvaaiQabaaaaaaaaaaaaaaaaaaaaaaaaaaaaaaaaaaaaaaaaaaaaaaaaaaaaaaaaaaaaaaaaaaaaaaaaaaaaaaaaaaaaaaaaaaaaaaaaaaaa",
"aaaaaaaaaaaaaaaaaaaaaaaaaaaaaaaaaaaaaaaaaaaaaaaaaaaaaaaaaaaaaaaaaaaaaaaaaaaaaaaaaaaaaaaaaaaaaaaaaaaaaaaaemaaiQKwKxJ6rFKyrororoq*q*q*q*q*pLpLpLpLpLpLpLpLpLpLpLpLpLpLpLpLpLpLpLpLpLpLpLpLpLpLpLpLpLpLpLpLpLpLpLpLpLpLpLpLpLpLpLpLpLpLpLpLq*q*q*q*q*q*rorororororororororotztztzs=s=s=s=s=s=s=s=s=uxuxuxu:u:u:u:u:vNv1v1v1v1v1wnwnwnwnwJwJwJwJwJyKyKy6y6y<y<y<y<AYA#A#A#A#A#A#DyDyDyDyDyF*GkGIGIGIGIGII*I*IkJ:KzKAKBKCaaemaaaaaaaaaaaaaaaaaaaaaaaaaaaaaaaaaaaaaaaaaaaaaaaaaaaaaaaaaaaaaaaaaaaaaaaaaaaaaaaaaaaaaaaaaaaaaaaaaaaaaaaa",
"aaaaaaaaaaaaaaaaaaaaaaaaaaaaaaaaaaaaaaaaaaaaaaaaaaaaaaaaaaaaaaaaaaaaaaaaaaaaaaaaaaaaaaaaaaaaaaaaaaaaaaaaaacaKDaaKEKFKGx6q=rororororororoq*q*q*q*q*q*q*q*pLpLpLpLpLpLpLpLpLpLpLpLpLpLpLpLpLpLpLpLpLpLpLpLpLpLpLpLpLpLpLpLpLq*q*q*q*q*q*q*rorororororororororororotztztzs=s=s=s=s=s=s=s=s=s=uxuxuxu:u:u:u:u:vNvNv1v1v1v1wnwnwnwnwJwJwJwJwJwJyKyKy6y6y<y<y<y<AYA#A#A#A#A#A#A#DyDyDyDyDyF*GkGIGIGIGII*I*I*G4JIyXKHKIaaaacaaaaaaaaaaaaaaaaaaaaaaaaaaaaaaaaaaaaaaaaaaaaaaaaaaaaaaaaaaaaaaaaaaaaaaaaaaaaaaaaaaaaaaaaaaaaaaaaaaaaaaaaaaa",
"aaaaaaaaaaaaaaaaaaaaaaaaaaaaaaaaaaaaaaaaaaaaaaaaaaaaaaaaaaaaaaaaaaaaaaaaaaaaaaaaaaaaaaaaaaaaaaaaaaaaaaaaaaaaaKemaao6KJKKo2KLq9rororororororororororororoq*q*q*q*q*q*q*q*q*q*q*q*q*q*q*q*q*q*q*q*q*q*q*q*q*q*q*q*q*q*q*q*rorororororororororororororororotztzs=s=s=s=s=s=s=s=s=s=s=uxuxuxuxu:u:u:u:u:vNvNv1v1v1v1v1wnwnwnwnwJwJwJwJwJyKyKyKy6y6y<y<y<y<AYA#A#A#A#A#A#A#DyDyDyDyDyF*GkGIGIGIGIGII*I*JtKMKNKOKPe8aaI;dqaaaaaaaaaaaaaaaaaaaaaaaaaaaaaaaaaaaaaaaaaaaaaaaaaaaaaaaaaaaaaaaaaaaaaaaaaaaaaaaaaaaaaaaaaaaaaaaaaaaaaaaaaaaa",
"aaaaaaaaaaaaaaaaaaaaaaaaaaaaaaaaaaaaaaaaaaaaaaaaaaaaaaaaaaaaaaaaaaaaaaaaaaaaaaaaaaaaaaaaaaaaaaaaaaaaaaaaaaaaaaaaiQaaaaKQKRq-uNKSq9tztzrororororororororororororororororororororororororororororororororororororororororororororororororororotztztztzs=s=s=s=s=s=s=s=s=s=s=s=uxuxuxuxu:u:u:u:u:vNvNv1v1v1v1v1wnwnwnwnwJwJwJwJwJwJyKyKyKy6y6y<y<y<y<AYA#A#A#A#A#A#A#DyDyDyDyDyF*GkGIGIGIGIGII*I*IkJ:KTF-KUKVaaaaiQaaaaaaaaaaaaaaaaaaaaaaaaaaaaaaaaaaaaaaaaaaaaaaaaaaaaaaaaaaaaaaaaaaaaaaaaaaaaaaaaaaaaaaaaaaaaaaaaaaaaaaaaaaaaaaaa",
"aaaaaaaaaaaaaaaaaaaaaaaaaaaaaaaaaaaaaaaaaaaaaaaaaaaaaaaaaaaaaaaaaaaaaaaaaaaaaaaaaaaaaaaaaaaaaaaaaaaaaaaaaaaaaaaaaadqemaaaaKWKXsus=t:s=s=s=tztztztzrorororororororororororororororororororororororororororororororororororororotztztztztzs=s=s=s=s=s=s=s=s=s=s=s=s=s=uxuxuxuxu:u:u:u:u:u:vNvNv1v1v1v1v1wnwnwnwnwnwJwJwJwJwJwJyKyKy6y6y6y<y<y<y<AYA#A#A#A#A#A#A#DyDyDyDyDyDyF*GkGIGIGIGII*I*JIG4JIF-KYKZaaaadNdqaaaaaaaaaaaaaaaaaaaaaaaaaaaaaaaaaaaaaaaaaaaaaaaaaaaaaaaaaaaaaaaaaaaaaaaaaaaaaaaaaaaaaaaaaaaaaaaaaaaaaaaaaaaaaaaaaa",
"aaaaaaaaaaaaaaaaaaaaaaaaaaaaaaaaaaaaaaaaaaaaaaaaaaaaaaaaaaaaaaaaaaaaaaaaaaaaaaaaaaaaaaaaaaaaaaaaaaaaaaaaaaaaaaaaaaaaaacaabaaK0K1K2sbsOK3s=s=s=s=s=s=s=s=s=tztztztztztztztzrorororororororororororororotztztztztztztztzs=s=s=s=s=s=s=s=s=s=s=s=s=s=s=s=s=s=uxuxuxuxuxu:u:u:u:u:u:vNvNvNv1v1v1v1v1wnwnwnwnwnwJwJwJwJwJwJyKyKyKy6y6y6y<y<y<y<AYA#A#A#A#A#A#A#DyDyDyDyDyDyF*GkGIGIGIGIGII*I*JeJeA+K4K5K6aaabcaaaaaaaaaaaaaaaaaaaaaaaaaaaaaaaaaaaaaaaaaaaaaaaaaaaaaaaaaaaaaaaaaaaaaaaaaaaaaaaaaaaaaaaaaaaaaaaaaaaaaaaaaaaaaaaaaaaaaaa",
"aaaaaaaaaaaaaaaaaaaaaaaaaaaaaaaaaaaaaaaaaaaaaaaaaaaaaaaaaaaaaaaaaaaaaaaaaaaaaaaaaaaaaaaaaaaaaaaaaaaaaaaaaaaaaaaaaaaaaaaaaadNaaaaK7K8rYrYt:sOs=s=s=s=s=s=s=s=s=s=s=s=s=s=s=s=s=s=s=s=s=s=s=s=s=s=s=s=s=s=s=s=s=s=s=s=s=s=s=s=s=s=s=s=s=s=s=s=s=s=uxuxuxuxuxuxu:u:u:u:u:u:u:vNvNv1v1v1v1v1v1wnwnwnwnwnwJwJwJwJwJwJwJyKyKyKy6y6y<y<y<y<AYAYA#A#A#A#A#A#A#DyDyDyDyDyDyF*GkGIGIGIGIGII*I*JlI9K9I0K#K.aaaaacaaaaaaaaaaaaaaaaaaaaaaaaaaaaaaaaaaaaaaaaaaaaaaaaaaaaaaaaaaaaaaaaaaaaaaaaaaaaaaaaaaaaaaaaaaaaaaaaaaaaaaaaaaaaaaaaaaaaaaaaaa",
"aaaaaaaaaaaaaaaaaaaaaaaaaaaaaaaaaaaaaaaaaaaaaaaaaaaaaaaaaaaaaaaaaaaaaaaaaaaaaaaaaaaaaaaaaaaaaaaaaaaaaaaaaaaaaaaaaaaaaaaaaaaaabacaaaaK+K@sbK*t:sOs=s=s=s=s=s=s=s=s=s=s=s=s=s=s=s=s=s=s=s=s=s=s=s=s=s=s=s=s=s=s=s=s=s=s=s=s=s=s=s=s=s=uxuxuxuxuxuxuxu:u:u:u:u:u:u:vNvNvNv1v1v1v1v1v1v1wnwnwnwnwnwJwJwJwJwJwJwJyKyKyKy6y6y6y<y<y<y<AYAYA#A#A#A#A#A#A#DyDyDyDyDyDyF*GkGIGIGIGIGII*I*JlI9K=FNK-K;aaaaacabaaaaaaaaaaaaaaaaaaaaaaaaaaaaaaaaaaaaaaaaaaaaaaaaaaaaaaaaaaaaaaaaaaaaaaaaaaaaaaaaaaaaaaaaaaaaaaaaaaaaaaaaaaaaaaaaaaaaaaaaaaaa",
"aaaaaaaaaaaaaaaaaaaaaaaaaaaaaaaaaaaaaaaaaaaaaaaaaaaaaaaaaaaaaaaaaaaaaaaaaaaaaaaaaaaaaaaaaaaaaaaaaaaaaaaaaaaaaaaaaaaaaaaaaaaaaaaacacaaaaaK:K>sbK,vAK<uxuxuxuxuxuxs=s=s=s=s=s=s=s=s=s=s=s=s=s=s=s=s=s=s=s=s=s=s=s=uxuxuxuxuxuxuxuxuxuxu:u:u:u:u:u:u:u:u:u:vNvNvNv1v1v1v1v1v1v1wnwnwnwnwnwnwJwJwJwJwJwJwJyKyKyKy6y6y6y<y<y<y<y<AYA#A#A#A#A#A#A#A#DyDyDyDyDyDyF*GkGIGIGIGIGIGII*JlI9K=J>K1K2bEaabEcaaaaaaaaaaaaaaaaaaaaaaaaaaaaaaaaaaaaaaaaaaaaaaaaaaaaaaaaaaaaaaaaaaaaaaaaaaaaaaaaaaaaaaaaaaaaaaaaaaaaaaaaaaaaaaaaaaaaaaaaaaaaaaaaa",
"aaaaaaaaaaaaaaaaaaaaaaaaaaaaaaaaaaaaaaaaaaaaaaaaaaaaaaaaaaaaaaaaaaaaaaaaaaaaaaaaaaaaaaaaaaaaaaaaaaaaaaaaaaaaaaaaaaaaaaaaaaaaaaaaaaaaacaaaao6K3K4o2K*K5K6u:u:u:u:uxuxuxuxuxuxuxuxuxuxuxuxuxuxuxuxuxuxuxuxuxuxuxuxuxu:u:u:u:u:u:u:u:u:u:u:u:u:vNvNvNvNv1v1v1v1v1v1v1v1wnwnwnwnwnwnwJwJwJwJwJwJwJwJyKyKyKy6y6y6y6y<y<y<y<AYAYA#A#A#A#A#A#A#A#DyDyDyDyDyDyF*GkGIGIGIGIGIGII*GzJeK7FNK1K8F0aaaaacaaaaaaaaaaaaaaaaaaaaaaaaaaaaaaaaaaaaaaaaaaaaaaaaaaaaaaaaaaaaaaaaaaaaaaaaaaaaaaaaaaaaaaaaaaaaaaaaaaaaaaaaaaaaaaaaaaaaaaaaaaaaaaaaaaaa",
"aaaaaaaaaaaaaaaaaaaaaaaaaaaaaaaaaaaaaaaaaaaaaaaaaaaaaaaaaaaaaaaaaaaaaaaaaaaaaaaaaaaaaaaaaaaaaaaaaaaaaaaaaaaaaaaaaaaaaaaaaaaaaaaaaaaaaaaaacaaaaF:K9K0rYrYuMLas-u:u:u:u:u:u:u:u:u:u:u:u:u:u:u:u:u:u:u:u:u:u:u:u:u:u:u:u:u:u:u:u:vNvNvNvNvNv1v1v1v1v1v1v1v1v1wnwnwnwnwnwnwnwnwJwJwJwJwJwJwJwJyKyKyKy6y6y6y6y<y<y<y<y<AYA#A#A#A#A#A#A#A#A#DyDyDyDyDyDyF*GkGIGIGIGIGIGIIkLbJtzsy8LcLdF0aaaaacaaaaaaaaaaaaaaaaaaaaaaaaaaaaaaaaaaaaaaaaaaaaaaaaaaaaaaaaaaaaaaaaaaaaaaaaaaaaaaaaaaaaaaaaaaaaaaaaaaaaaaaaaaaaaaaaaaaaaaaaaaaaaaaaaaaaaaaa",
"aaaaaaaaaaaaaaaaaaaaaaaaaaaaaaaaaaaaaaaaaaaaaaaaaaaaaaaaaaaaaaaaaaaaaaaaaaaaaaaaaaaaaaaaaaaaaaaaaaaaaaaaaaaaaaaaaaaaaaaaaaaaaaaaaaaaaaaaaadqacaaaaabLeLfv@LgLhLivfvNvNvNvNvNvNvNvNvNu:u:u:u:vNvNvNvNvNvNvNvNvNvNvNvNvNv1v1v1v1v1v1v1v1v1v1v1v1v1wnwnwnwnwnwnwnwnwJwJwJwJwJwJwJwJwJyKyKyKyKy6y6y6y6y<y<y<y<y<AYA#A#A#A#A#A#A#A#A#DyDyDyDyDyDyDyF*GkGIGIGIGIGIGIFMLjGkFNAmLkLliQaaaaacdqaaaaaaaaaaaaaaaaaaaaaaaaaaaaaaaaaaaaaaaaaaaaaaaaaaaaaaaaaaaaaaaaaaaaaaaaaaaaaaaaaaaaaaaaaaaaaaaaaaaaaaaaaaaaaaaaaaaaaaaaaaaaaaaaaaaaaaaaaa",
"aaaaaaaaaaaaaaaaaaaaaaaaaaaaaaaaaaaaaaaaaaaaaaaaaaaaaaaaaaaaaaaaaaaaaaaaaaaaaaaaaaaaaaaaaaaaaaaaaaaaaaaaaaaaaaaaaaaaaaaaaaaaaaaaaaaaaaaaaaaaaadqacaaaaaaLmLnLoLpu9vOLqv+v1v1v1v1v1v1v1v1v1v1v1v1v1v1v1v1v1v1v1v1v1v1v1v1v1v1v1v1v1wnwnwnwnwnwnwnwnwnwnwJwJwJwJwJwJwJwJwJwJyKyKyKyKyKy6y6y6y<y<y<y<y<y<AYA#A#A#A#A#A#A#A#A#A#DyDyDyDyDyDyDyF*GkGIGIGIGIGIIkGzJlK=F-LrKkLsaaaaaaacabaaaaaaaaaaaaaaaaaaaaaaaaaaaaaaaaaaaaaaaaaaaaaaaaaaaaaaaaaaaaaaaaaaaaaaaaaaaaaaaaaaaaaaaaaaaaaaaaaaaaaaaaaaaaaaaaaaaaaaaaaaaaaaaaaaaaaaaaaaaaaa",
"aaaaaaaaaaaaaaaaaaaaaaaaaaaaaaaaaaaaaaaaaaaaaaaaaaaaaaaaaaaaaaaaaaaaaaaaaaaaaaaaaaaaaaaaaaaaaaaaaaaaaaaaaaaaaaaaaaaaaaaaaaaaaaaaaaaaaaaaaaaaaaaaaaaaacabaaaaLtLuLvLwz5LhyxLawav1wnwnv1v1v1v1v1v1v1v1v1v1v1v1wnwnwnwnwnwnwnwnwnwnwnwnwnwnwnwJwJwJwJwJwJwJwJwJwJwJwJyKyKyKyKyKy6y6y6y6y<y<y<y<y<y<AYA#A#A#A#A#A#A#A#A#A#DyDyDyDyDyDyDyF*GkGkGIGIGIGIGVDMGzLxFNI0LyLzBKaaaaabacaKaaaaaaaaaaaaaaaaaaaaaaaaaaaaaaaaaaaaaaaaaaaaaaaaaaaaaaaaaaaaaaaaaaaaaaaaaaaaaaaaaaaaaaaaaaaaaaaaaaaaaaaaaaaaaaaaaaaaaaaaaaaaaaaaaaaaaaaaaaaaaaaaaa",
"aaaaaaaaaaaaaaaaaaaaaaaaaaaaaaaaaaaaaaaaaaaaaaaaaaaaaaaaaaaaaaaaaaaaaaaaaaaaaaaaaaaaaaaaaaaaaaaaaaaaaaaaaaaaaaaaaaaaaaaaaaaaaaaaaaaaaaaaaaaaaaaaaaaaaaaacaacaaaaadLALBLCLDs;vNLELaLFwnwnwnwnwnwnwnwnwnwnwnwnwnwnwnwnwnwnwnwJwJwJwJwJwJwJwJwJwJwJwJwJwJwJyKyKyKyKyKyKy6y6y6y6y<y<y<y<y<y<AYAYA#A#A#A#A#A#A#A#A#A#DyDyDyDyDyDyDyDyF*GkGIGIGIGIGVDMLGGkH9F-LHLILJLKaaaaiQiQaaaaaaaaaaaaaaaaaaaaaaaaaaaaaaaaaaaaaaaaaaaaaaaaaaaaaaaaaaaaaaaaaaaaaaaaaaaaaaaaaaaaaaaaaaaaaaaaaaaaaaaaaaaaaaaaaaaaaaaaaaaaaaaaaaaaaaaaaaaaaaaaaaaaaaaa",
"aaaaaaaaaaaaaaaaaaaaaaaaaaaaaaaaaaaaaaaaaaaaaaaaaaaaaaaaaaaaaaaaaaaaaaaaaaaaaaaaaaaaaaaaaaaaaaaaaaaaaaaaaaaaaaaaaaaaaaaaaaaaaaaaaaaaaaaaaaaaaaaaaaaaaaaaaaaaabemaaaaaaLLLMLNLOLgK*v1zEyxwKwJwJwJwJwJwJwJwJwJwJwJwJwJwJwJwJwJwJwJwJwJwJwJwJwJyKyKyKyKyKyKyKy6y6y6y6y6y<y<y<y<y<y<y<AYAYA#A#A#A#A#A#A#A#A#A#DyDyDyDyDyDyDyDyF*F*GIGIGIGIIkGOGzGkH9F-LPLQLRLSaaaaaaema2aaaaaaaaaaaaaaaaaaaaaaaaaaaaaaaaaaaaaaaaaaaaaaaaaaaaaaaaaaaaaaaaaaaaaaaaaaaaaaaaaaaaaaaaaaaaaaaaaaaaaaaaaaaaaaaaaaaaaaaaaaaaaaaaaaaaaaaaaaaaaaaaaaaaaaaaaaaa",
"aaaaaaaaaaaaaaaaaaaaaaaaaaaaaaaaaaaaaaaaaaaaaaaaaaaaaaaaaaaaaaaaaaaaaaaaaaaaaaaaaaaaaaaaaaaaaaaaaaaaaaaaaaaaaaaaaaaaaaaaaaaaaaaaaaaaaaaaaaaaaaaaaaaaaaaaaaaaaaaadqacacaaaaaaLTLULVLWLXvBLYLZL0LZwKwJwJwJwJwJwJwJwJwJwJwJwJwJwJyKyKyKyKyKyKyKyKy6y6y6y6y6y6y<y<y<y<y<y<y<y<AYAYA#A#A#A#A#A#A#A#A#A#A#DyDyDyDyDyDyDyDyDyGkGkGIGIL1FMI=FMy<J9F-L2L3L4L5aaaaaaiQacdqaaaaaaaaaaaaaaaaaaaaaaaaaaaaaaaaaaaaaaaaaaaaaaaaaaaaaaaaaaaaaaaaaaaaaaaaaaaaaaaaaaaaaaaaaaaaaaaaaaaaaaaaaaaaaaaaaaaaaaaaaaaaaaaaaaaaaaaaaaaaaaaaaaaaaaaaaaaaaaaa",
"aaaaaaaaaaaaaaaaaaaaaaaaaaaaaaaaaaaaaaaaaaaaaaaaaaaaaaaaaaaaaaaaaaaaaaaaaaaaaaaaaaaaaaaaaaaaaaaaaaaaaaaaaaaaaaaaaaaaaaaaaaaaaaaaaaaaaaaaaaaaaaaaaaaaaaaaaaaaaaaaaaaaaaabemabaaaaaaL6L7L8L9K*z5u9v1L#L.yxzcyKyKyKyKyKyKyKyKyKyKy6y6y6y6y6y6y6y6y<y<y<y<y<y<y<y<y<AYAYAYA#A#A#A#A#A#A#A#A#A#A#A#DyDyDyDyDyDyDyDyDyF*GkGIIkFMI=GOF*K9G5KNL+L@L*L=aaaaaaabemabaaaaaaaaaaaaaaaaaaaaaaaaaaaaaaaaaaaaaaaaaaaaaaaaaaaaaaaaaaaaaaaaaaaaaaaaaaaaaaaaaaaaaaaaaaaaaaaaaaaaaaaaaaaaaaaaaaaaaaaaaaaaaaaaaaaaaaaaaaaaaaaaaaaaaaaaaaaaaaaaaaaaaa",
"aaaaaaaaaaaaaaaaaaaaaaaaaaaaaaaaaaaaaaaaaaaaaaaaaaaaaaaaaaaaaaaaaaaaaaaaaaaaaaaaaaaaaaaaaaaaaaaaaaaaaaaaaaaaaaaaaaaaaaaaaaaaaaaaaaaaaaaaaaaaaaaaaaaaaaaaaaaaaaaaaaaaaaaaaaaabEaeabaaaaaaL-L;L:L>L,s;L<t6xRylL1zSyWL2y6y6y6y<y6y6y<y<y<y<y<y<y<y<y<y<y<AYAYAYA#A#A#A#A#A#A#A#A#A#A#A#A#A#DyDyDyDyDyDyDyDyF*F*GVF7GzLGFML3L4yXFNL5L6L7L8L9aaaaaaabembEaaaaaaaaaaaaaaaaaaaaaaaaaaaaaaaaaaaaaaaaaaaaaaaaaaaaaaaaaaaaaaaaaaaaaaaaaaaaaaaaaaaaaaaaaaaaaaaaaaaaaaaaaaaaaaaaaaaaaaaaaaaaaaaaaaaaaaaaaaaaaaaaaaaaaaaaaaaaaaaaaaaaaaaaaaaa",
"aaaaaaaaaaaaaaaaaaaaaaaaaaaaaaaaaaaaaaaaaaaaaaaaaaaaaaaaaaaaaaaaaaaaaaaaaaaaaaaaaaaaaaaaaaaaaaaaaaaaaaaaaaaaaaaaaaaaaaaaaaaaaaaaaaaaaaaaaaaaaaaaaaaaaaaaaaaaaaaaaaaaaaaaaaaaaaaaaabEaecaaaaaaaaaL0MaMbMcMdC4L<z,C4zdzrzSMezSzEMfMgy<y<AYAYAYAYA#A#A#A#A#A#A#A#A#A#A#A#A#A#A#A#A#DyDyDyDyDyDyDyA.BbFxDMLGGOIkL3K9zFI1K9MhH0MiMjMkaaaaaaaacaembEaaaaaaaaaaaaaaaaaaaaaaaaaaaaaaaaaaaaaaaaaaaaaaaaaaaaaaaaaaaaaaaaaaaaaaaaaaaaaaaaaaaaaaaaaaaaaaaaaaaaaaaaaaaaaaaaaaaaaaaaaaaaaaaaaaaaaaaaaaaaaaaaaaaaaaaaaaaaaaaaaaaaaaaaaaaaaaaaaa",
"aaaaaaaaaaaaaaaaaaaaaaaaaaaaaaaaaaaaaaaaaaaaaaaaaaaaaaaaaaaaaaaaaaaaaaaaaaaaaaaaaaaaaaaaaaaaaaaaaaaaaaaaaaaaaaaaaaaaaaaaaaaaaaaaaaaaaaaaaaaaaaaaaaaaaaaaaaaaaaaaaaaaaaaaaaaaaaaaaaaaaaaaabacemaaaaaaaaaaMlMmMnMoMpMqzszTMrvgymMsMtA#AxBbBwz>BbBbMuA2AbA#A#A#A#A#A#A#A#DyDyA2D6BbEKEvC3CIEvGWF*MvMwMxF-EZyXK=MyMzMAMBMCMDaaaaaaaaaaemacabaaaaaaaaaaaaaaaaaaaaaaaaaaaaaaaaaaaaaaaaaaaaaaaaaaaaaaaaaaaaaaaaaaaaaaaaaaaaaaaaaaaaaaaaaaaaaaaaaaaaaaaaaaaaaaaaaaaaaaaaaaaaaaaaaaaaaaaaaaaaaaaaaaaaaaaaaaaaaaaaaaaaaaaaaaaaaaaaaaaaaaaa",
"aaaaaaaaaaaaaaaaaaaaaaaaaaaaaaaaaaaaaaaaaaaaaaaaaaaaaaaaaaaaaaaaaaaaaaaaaaaaaaaaaaaaaaaaaaaaaaaaaaaaaaaaaaaaaaaaaaaaaaaaaaaaaaaaaaaaaaaaaaaaaaaaaaaaaaaaaaaaaaaaaaaaaaaaaaaaaaaaaaaaaaaaaaaaaaaaa2acemdqaaaaaaaaaas7MEt>MFMGMHMIMJMKKNzFyyymFNy8ELzdAmy<A#A#DyDyDyDyDyMLA#y<MMKzzsy8FNJ>A+IXLxMNMOMPMQMRMSMTpxaaaaaaaaaaaKacacbEaaaaaaaaaaaaaaaaaaaaaaaaaaaaaaaaaaaaaaaaaaaaaaaaaaaaaaaaaaaaaaaaaaaaaaaaaaaaaaaaaaaaaaaaaaaaaaaaaaaaaaaaaaaaaaaaaaaaaaaaaaaaaaaaaaaaaaaaaaaaaaaaaaaaaaaaaaaaaaaaaaaaaaaaaaaaaaaaaaaaaaaaaaaaaaaa",
"aaaaaaaaaaaaaaaaaaaaaaaaaaaaaaaaaaaaaaaaaaaaaaaaaaaaaaaaaaaaaaaaaaaaaaaaaaaaaaaaaaaaaaaaaaaaaaaaaaaaaaaaaaaaaaaaaaaaaaaaaaaaaaaaaaaaaaaaaaaaaaaaaaaaaaaaaaaaaaaaaaaaaaaaaaaaaaaaaaaaaaaaaaaaaaaaaaaaaaaaabacadacaaaaaaaaaaaaaauPMUMVMWMXMYMZM0M1M2M3M4M5M6A.DyDyDyDyA2M7M8M4M9M#M.M+M@M*M=M-M;u5M:aaaaaaaaaaaaaaacadacabaaaaaaaaaaaaaaaaaaaaaaaaaaaaaaaaaaaaaaaaaaaaaaaaaaaaaaaaaaaaaaaaaaaaaaaaaaaaaaaaaaaaaaaaaaaaaaaaaaaaaaaaaaaaaaaaaaaaaaaaaaaaaaaaaaaaaaaaaaaaaaaaaaaaaaaaaaaaaaaaaaaaaaaaaaaaaaaaaaaaaaaaaaaaaaaaaaaaaaaa"
};
