/* XPM */
static char *quarlcoin128[] = {
"128 128 1932 2",
"aa c None",
"ab c #FFFF00",
"ac c #FFFF55",
"ad c #FFBF3F",
"ae c #FFD42A",
"af c #F9D529",
"ag c #F2D22C",
"ah c #F1D12B",
"ai c #F1CF2B",
"aj c #F0D02B",
"ak c #F0CF2A",
"al c #F1CF2A",
"am c #EFCE2B",
"an c #EFCE2A",
"ao c #EECD29",
"ap c #EDCD2A",
"aq c #EDCC2A",
"ar c #EFCD2A",
"as c #EDCC2A",
"at c #EECE2A",
"au c #EECD2A",
"av c #EFCD2A",
"aw c #EFCE2A",
"ax c #EFCF29",
"ay c #F2CF29",
"az c #FFAA55",
"aA c #FFD82E",
"aB c #F5D72B",
"aC c #F5D42C",
"aD c #F4D32B",
"aE c #F2D12B",
"aF c #F1D02B",
"aG c #F8D62C",
"aH c #FCD92D",
"aI c #FAD72D",
"aJ c #F7D52C",
"aK c #F4D32C",
"aL c #F2D12C",
"aM c #F1CF2B",
"aN c #EFCE2B",
"aO c #EFCD2A",
"aP c #EECD2A",
"aQ c #EFCE2A",
"aR c #F0CE2A",
"aS c #F3D12B",
"aT c #F5D32B",
"aU c #F9D62C",
"aV c #F9D52C",
"aW c #F4D22B",
"aX c #EDCB28",
"aY c #EECC28",
"aZ c #F0CD28",
"a0 c #F0CE2A",
"a1 c #F2CE2A",
"a2 c #F7D22D",
"a3 c #FFAA00",
"a4 c #FFFF00",
"a5 c #FFE92A",
"a6 c #FBDA2C",
"a7 c #F7D52B",
"a8 c #F5D42B",
"a9 c #F2D12B",
"a# c #FFDD2E",
"a. c #FFDF2E",
"a+ c #FDDB2D",
"a@ c #F2D02B",
"a* c #EECE2B",
"a= c #EFCF2B",
"a- c #EFCE2B",
"a; c #EDCC2A",
"a: c #ECCB2A",
"a> c #ECCC2A",
"a, c #ECCB2A",
"a< c #EBCA2A",
"a1 c #EECC2A",
"a2 c #F2D02A",
"a3 c #F9D52B",
"a4 c #FED92C",
"a5 c #FAD72C",
"a6 c #F0CD2A",
"a7 c #F0CE29",
"a8 c #F0CC2B",
"a9 c #FFD727",
"a0 c #BFBF3F",
"ba c #FFDF1F",
"bb c #FBDB2E",
"bc c #F8D62D",
"bd c #F5D42D",
"be c #FBD92E",
"bf c #FFDF2F",
"bg c #FBD82E",
"bh c #F0CF2B",
"bi c #F0D02B",
"bj c #F0D02B",
"bk c #F0D02B",
"bl c #F0D02B",
"bm c #F0D02B",
"bn c #F0CF2B",
"bo c #EFCD2B",
"bp c #EDCC2A",
"bq c #EDCB2A",
"br c #EBCB29",
"bs c #EBCA28",
"bt c #EBC928",
"bu c #ECCB29",
"bv c #F4D12B",
"bw c #FBD72C",
"bx c #F5D22B",
"by c #EECC29",
"bz c #F2CE28",
"bA c #F1CE29",
"bB c #F8D92B",
"bC c #F9D82E",
"bD c #F6D42D",
"bE c #FCDA2E",
"bF c #FFDE2F",
"bG c #F6D52D",
"bH c #F0D02C",
"bI c #F0D02C",
"bJ c #F1D02C",
"bK c #F1D02B",
"bL c #EDCB2A",
"bM c #ECCA29",
"bN c #EBCA29",
"bO c #EAC929",
"bP c #EAC928",
"bQ c #EAC829",
"bR c #F5D22A",
"bS c #EECB28",
"bT c #F1CF2A",
"bU c #F2CE2A",
"bV c #F7D92D",
"bW c #F7D72D",
"bX c #F6D52D",
"bY c #FFE02F",
"bZ c #F8D72D",
"b0 c #F1D12B",
"b1 c #F1D12C",
"b2 c #F1D12C",
"b3 c #EBCA29",
"b4 c #EBC929",
"b5 c #EAC829",
"b6 c #E9C728",
"b7 c #F0CE29",
"b8 c #FAD52B",
"b9 c #F0CD29",
"b# c #F0CE28",
"b. c #FBD72D",
"b+ c #F8D82D",
"b@ c #FFDD2F",
"b* c #F3D12C",
"b= c #EAC829",
"b- c #E9C828",
"b; c #E9C827",
"b: c #E9C728",
"b> c #F7D22A",
"b, c #F2CF2A",
"b< c #EFCB28",
"b1 c #EFCC29",
"b2 c #F7D62B",
"b3 c #F8D72C",
"b4 c #FEDC2E",
"b5 c #FEDB2E",
"b6 c #F1D02C",
"b7 c #F1D12B",
"b8 c #F1D12C",
"b9 c #F2D22C",
"b0 c #EAC828",
"ca c #E9C728",
"cb c #E8C627",
"cc c #E8C628",
"cd c #F3CF2A",
"ce c #F4D02A",
"cf c #F0CB28",
"cg c #EDC926",
"ch c #F9D62E",
"ci c #F9D72D",
"cj c #FDDC2E",
"ck c #F1D12C",
"cl c #F3D22C",
"cm c #E8C628",
"cn c #E6C428",
"co c #F3CF29",
"cp c #F2CE29",
"cq c #EFCA28",
"cr c #EECD26",
"cs c #FFCC33",
"ct c #F9D82C",
"cu c #F8D72D",
"cv c #F1D22B",
"cw c #F3D22D",
"cx c #F3D32D",
"cy c #EAC929",
"cz c #E9C628",
"cA c #E7C627",
"cB c #E7C527",
"cC c #F5D029",
"cD c #EDCA28",
"cE c #EFCB27",
"cF c #D4BF2A",
"cG c #F7D52D",
"cH c #F8D82D",
"cI c #FFE12F",
"cJ c #F3D32C",
"cK c #F4D32D",
"cL c #ECCB2A",
"cM c #E8C628",
"cN c #E8C627",
"cO c #E7C426",
"cP c #E7C527",
"cQ c #F8D32A",
"cR c #EECA28",
"cS c #E9C927",
"cT c #DFBF1F",
"cU c #F7D72D",
"cV c #FAD92E",
"cW c #F2D12C",
"cX c #F4D42D",
"cY c #E7C527",
"cZ c #E6C426",
"c0 c #EFCB28",
"c1 c #EFCC28",
"c2 c #EDC927",
"c3 c #C6AA1C",
"c4 c #F3D12D",
"c5 c #F8D82D",
"c6 c #F1D22C",
"c7 c #F1D12B",
"c8 c #E8C527",
"c9 c #E6C327",
"c# c #E6C427",
"c. c #EDC927",
"c+ c #E3C325",
"c@ c #000000",
"c* c #F3D52C",
"c= c #F9D92D",
"c- c #F5D42D",
"c; c #E9C828",
"c: c #E7C427",
"c> c #E4C326",
"c, c #F0CC28",
"c< c #EECA26",
"c1 c #E6C325",
"c2 c #FF7F00",
"c3 c #F7D52D",
"c4 c #FFDE2E",
"c5 c #F5D52D",
"c6 c #E5C226",
"c7 c #E8C526",
"c8 c #F3CE28",
"c9 c #EAC726",
"c0 c #E5CC33",
"da c #F7D62C",
"db c #FFE22F",
"dc c #F5D52E",
"dd c #E6C427",
"de c #E5C226",
"df c #E4C225",
"dg c #F7D129",
"dh c #EAC727",
"di c #D4AA2A",
"dj c #F2CE30",
"dk c #F8D62D",
"dl c #F1D22B",
"dm c #F6D62E",
"dn c #E6C327",
"do c #E5C326",
"dp c #E3C125",
"dq c #EAC626",
"dr c #DDBC21",
"ds c #EECC2A",
"dt c #F8D72D",
"du c #F0D12B",
"dv c #E6C326",
"dw c #F2CD28",
"dx c #EAC727",
"dy c #DFBF27",
"dz c #FFFF00",
"dA c #F7D72F",
"dB c #F8D72D",
"dC c #E5C226",
"dD c #EBC625",
"dE c #E1BD24",
"dF c #AAAA00",
"dG c #FDDB2E",
"dH c #F6D72E",
"dI c #F7D72E",
"dJ c #EECA27",
"dK c #EAC625",
"dL c #F2D826",
"dM c #F6D62D",
"dN c #E4C226",
"dO c #EFCA27",
"dP c #E8C525",
"dQ c #E7C522",
"dR c #FFE238",
"dS c #F6D42C",
"dT c #F7D72F",
"dU c #F7D82F",
"dV c #E4C126",
"dW c #E2C024",
"dX c #F0CB27",
"dY c #E8C426",
"dZ c #E7B92E",
"d0 c #FF0000",
"d1 c #F3D32B",
"d2 c #F8D82F",
"d3 c #E4C125",
"d4 c #E1BE24",
"d5 c #F3CD28",
"d6 c #E5C125",
"d7 c #F0D02C",
"d8 c #FFE230",
"d9 c #F1D12B",
"d# c #E3C025",
"d. c #E2BF24",
"d+ c #F4CE28",
"d@ c #E3C124",
"d* c #F0CE2D",
"d= c #F2D22B",
"d- c #F8D92F",
"d; c #E3C025",
"d: c #F0CB28",
"d> c #E3BF23",
"d, c #F2D32B",
"d< c #F7D72D",
"d1 c #F5D42C",
"d2 c #F6D72F",
"d3 c #F4D52E",
"d4 c #F4D42E",
"d5 c #F3D32E",
"d6 c #E1BE25",
"d7 c #E5C125",
"d8 c #E9C325",
"d9 c #E2BF22",
"d0 c #FFFF2A",
"ea c #F3D22C",
"eb c #F9D92F",
"ec c #FADA2F",
"ed c #FCDD30",
"ee c #FDDE30",
"ef c #FEDE30",
"eg c #FEDF30",
"eh c #FDDD30",
"ei c #FCDD2F",
"ej c #FCDC2F",
"ek c #FADA2E",
"el c #F8D82E",
"em c #F1D12D",
"en c #F2D02C",
"eo c #E1BE25",
"ep c #ECC726",
"eq c #E4BF24",
"er c #F2D12B",
"es c #F9DA2F",
"et c #F9D82F",
"eu c #FCDC30",
"ev c #FFE031",
"ew c #F0D02D",
"ex c #E4C32A",
"ey c #D8B727",
"ez c #CDAC25",
"eA c #C5A322",
"eB c #BF9D21",
"eC c #BB9920",
"eD c #B8961F",
"eE c #B9961F",
"eF c #BB9820",
"eG c #BE9C21",
"eH c #C4A222",
"eI c #CCAB24",
"eJ c #D6B526",
"eK c #E1C029",
"eL c #ECCC2B",
"eM c #F0CF2C",
"eN c #E2BF25",
"eO c #E0BD24",
"eP c #F2CD27",
"eQ c #E1BD23",
"eR c #F3D32B",
"eS c #FAD92D",
"eT c #F2D22C",
"eU c #FFE231",
"eV c #EBCA2C",
"eW c #D2B025",
"eX c #B9971F",
"eY c #A5831B",
"eZ c #997417",
"e0 c #916C15",
"e1 c #8D6815",
"e2 c #8B6714",
"e3 c #8B6614",
"e4 c #8A6614",
"e5 c #896614",
"e6 c #896514",
"e7 c #8B6715",
"e8 c #8F6A16",
"e9 c #957217",
"e# c #A28019",
"e. c #B6931E",
"e+ c #CEAC24",
"e@ c #E6C429",
"e* c #F9D82E",
"e= c #EFCF2C",
"e- c #E2BE24",
"e; c #EBC626",
"e: c #E4C226",
"e> c #F3D22B",
"e, c #F9D72E",
"e< c #EFCF2C",
"e1 c #F9DA30",
"e2 c #FADA30",
"e3 c #F9D930",
"e4 c #F8D830",
"e5 c #FEDE31",
"e6 c #FFE132",
"e7 c #EECF2D",
"e8 c #CCAA25",
"e9 c #AA861C",
"e0 c #947016",
"fa c #8C6814",
"fb c #8F6A15",
"fc c #916C16",
"fd c #926E16",
"fe c #936F16",
"ff c #947017",
"fg c #946F17",
"fh c #936F17",
"fi c #926E17",
"fj c #916D16",
"fk c #8F6C15",
"fl c #8D6A15",
"fm c #886413",
"fn c #906D15",
"fo c #A5831A",
"fp c #C6A522",
"fq c #E8C72A",
"fr c #E0BD24",
"fs c #E9C425",
"ft c #E3BF23",
"fu c #EFD02A",
"fv c #FFE02E",
"fw c #EFCF2B",
"fx c #F8D930",
"fy c #FCDD31",
"fz c #FFE232",
"fA c #E8C82C",
"fB c #BA9720",
"fC c #977318",
"fD c #8D6715",
"fE c #8E6A15",
"fF c #957116",
"fG c #957016",
"fH c #906C15",
"fI c #8D6914",
"fJ c #8C6914",
"fK c #8D6A14",
"fL c #8C6915",
"fM c #906C16",
"fN c #8F6B15",
"fO c #8F6D15",
"fP c #8D6B15",
"fQ c #876313",
"fR c #B4921E",
"fS c #E1C028",
"fT c #EECD2B",
"fU c #E3BF25",
"fV c #E2BE24",
"fW c #E0BC23",
"fX c #F2CB27",
"fY c #E1BD23",
"fZ c #F8D72D",
"f0 c #F5D52C",
"f1 c #F3D32C",
"f2 c #FFE332",
"f3 c #F1D22E",
"f4 c #BB9921",
"f5 c #936E17",
"f6 c #936E16",
"f7 c #977218",
"f8 c #A37D1D",
"f9 c #A98220",
"f# c #AA8320",
"f. c #A88220",
"f+ c #A6801F",
"f@ c #A47E1E",
"f* c #A07A1C",
"f= c #997419",
"f- c #8E6B15",
"f; c #866313",
"f: c #B5931E",
"f> c #E9C829",
"f, c #F7D62D",
"f< c #E0BD24",
"f1 c #E3BF24",
"f2 c #E6C224",
"f3 c #E6C224",
"f4 c #EFCF2A",
"f5 c #FADB30",
"f6 c #FBDC30",
"f7 c #D3B227",
"f8 c #997518",
"f9 c #967117",
"f0 c #A17A1C",
"ga c #B48C25",
"gb c #A98423",
"gc c #90701C",
"gd c #7D6016",
"ge c #725712",
"gf c #6B5110",
"gg c #6A5010",
"gh c #6D5311",
"gi c #785B14",
"gj c #886918",
"gk c #98751B",
"gl c #9D771A",
"gm c #8D6915",
"gn c #856113",
"go c #926F16",
"gp c #CCAA23",
"gq c #F6D52C",
"gr c #E2BE25",
"gs c #E1BE24",
"gt c #DFBC24",
"gu c #EDC826",
"gv c #E0BB24",
"gw c #F7D32B",
"gx c #FDDF31",
"gy c #B7951F",
"gz c #B68E25",
"gA c #A78323",
"gB c #715712",
"gC c #543E08",
"gD c #4A3606",
"gE c #3F2D04",
"gF c #382703",
"gG c #3A2804",
"gH c #3F2D05",
"gI c #423005",
"gJ c #3F2E05",
"gK c #443106",
"gL c #5C430D",
"gM c #826114",
"gN c #957117",
"gO c #8A6714",
"gP c #856213",
"gQ c #B08E1D",
"gR c #EECE2B",
"gS c #E1BD24",
"gT c #DFBD24",
"gU c #EBC526",
"gV c #E1C024",
"gW c #EFCF2B",
"gX c #FBD92D",
"gY c #FEE031",
"gZ c #F0D12E",
"g0 c #A5821B",
"g1 c #8C6815",
"g2 c #967217",
"g3 c #957017",
"g4 c #967218",
"g5 c #BD9429",
"g6 c #866719",
"g7 c #4E3907",
"g8 c #4C3807",
"g9 c #422F06",
"g# c #412F06",
"g. c #66520F",
"g+ c #977F1A",
"g@ c #BBA122",
"g* c #D0B426",
"g= c #DABD28",
"g- c #BBA021",
"g; c #937C18",
"g: c #6A550F",
"g> c #664C0E",
"g, c #856313",
"g< c #836012",
"g1 c #9E7B18",
"g2 c #E7C629",
"g3 c #F3D22B",
"g4 c #E0BD24",
"g5 c #EAC526",
"g6 c #DFBB23",
"g7 c #7F7F00",
"g8 c #F1D22C",
"g9 c #FCDA2D",
"g0 c #EFCF2A",
"ha c #EDCE2D",
"hb c #9E7A19",
"hc c #916D15",
"hd c #BE9429",
"he c #765A13",
"hf c #493505",
"hg c #4E3A09",
"hh c #3D2A05",
"hi c #715C11",
"hj c #CAB026",
"hk c #FFE432",
"hl c #FFDF30",
"hm c #FEDD2F",
"hn c #FDDD2F",
"ho c #FFE030",
"hp c #C8AD23",
"hq c #8B7016",
"hr c #836113",
"hs c #8B6814",
"ht c #967317",
"hu c #E4C328",
"hv c #ECCA2A",
"hw c #E0BD24",
"hx c #DFBC23",
"hy c #ECC625",
"hz c #E1BD23",
"hA c #EFCF2A",
"hB c #8F6B16",
"hC c #8E6A14",
"hD c #BB9227",
"hE c #7E6116",
"hF c #4C3808",
"hG c #AA921E",
"hH c #FFE131",
"hI c #F8D72F",
"hJ c #F5D62E",
"hK c #F2D22D",
"hL c #C3A422",
"hM c #957317",
"hN c #E3C228",
"hO c #EBCA2A",
"hP c #EAC425",
"hQ c #DEBA22",
"hR c #F2D22C",
"hS c #F9D72D",
"hT c #EFCE2A",
"hU c #8E6A16",
"hV c #AC8421",
"hW c #9A781F",
"hX c #4A3605",
"hY c #4E3909",
"hZ c #423006",
"h0 c #C2A923",
"h1 c #FFE933",
"h2 c #866213",
"h3 c #8A6814",
"h4 c #8C6A14",
"h5 c #937117",
"h6 c #E0BF27",
"h7 c #E0BC24",
"h8 c #DEBB23",
"h9 c #E9C425",
"h# c #E0BE22",
"h. c #AAAA55",
"h+ c #EFCF2B",
"h@ c #F0CF2A",
"h* c #B79520",
"h= c #B58E27",
"h- c #5A430B",
"h; c #4E3A08",
"h: c #3D2B05",
"h> c #B79D21",
"h, c #987518",
"h< c #8B6914",
"h1 c #8E6E17",
"h2 c #DEBF27",
"h3 c #EBC92A",
"h4 c #DFBB23",
"h5 c #DEBB23",
"h6 c #F7D42A",
"h7 c #F3D12C",
"h8 c #F0CF2B",
"h9 c #D4B327",
"h0 c #AE8622",
"ia c #8A6A1A",
"ib c #4C3806",
"ic c #3E2C05",
"id c #8A7317",
"ie c #FFE733",
"if c #F5D72E",
"ig c #FCDB2F",
"ih c #C9A723",
"ii c #876414",
"ij c #8B6E17",
"ik c #E7C729",
"il c #DFBB23",
"im c #DFBB23",
"in c #E3BE23",
"io c #E4BD20",
"ip c #F1D02A",
"iq c #EECE2A",
"ir c #F2D22E",
"is c #9A7618",
"it c #926D16",
"iu c #B28B25",
"iv c #5E460C",
"iw c #483407",
"ix c #52400A",
"iy c #EED12E",
"iz c #FBDD31",
"iA c #EFCE2C",
"iB c #896714",
"iC c #846115",
"iD c #927718",
"iE c #DFBC23",
"iF c #DEBA22",
"iG c #EEC825",
"iH c #E1BB23",
"iI c #FFDA24",
"iJ c #EECD2A",
"iK c #F6D42C",
"iL c #BD9B21",
"iM c #A37C1D",
"iN c #99761E",
"iO c #4D3806",
"iP c #A58D1D",
"iQ c #FBDB2F",
"iR c #846012",
"iS c #876514",
"iT c #755713",
"iU c #AF941D",
"iV c #F8D52C",
"iW c #E4C024",
"iX c #DEB923",
"iY c #E2C61C",
"iZ c #F0CF2B",
"i0 c #EDCD2B",
"i1 c #FCDE30",
"i2 c #EBCB2C",
"i3 c #B08823",
"i4 c #765A14",
"i5 c #453205",
"i6 c #513E0A",
"i7 c #EDCF2D",
"i8 c #F9D92E",
"i9 c #D9B827",
"i# c #876413",
"i. c #876513",
"i+ c #916E18",
"i@ c #6A5110",
"i* c #DDBE26",
"i= c #F0CD2A",
"i- c #DDB923",
"i; c #E9C325",
"i: c #DFBA22",
"i> c #F0CF2A",
"i, c #FFDB2E",
"i< c #AE8724",
"i1 c #3D2A04",
"i2 c #8A7417",
"i3 c #FFE633",
"i4 c #957216",
"i5 c #896513",
"i6 c #886614",
"i7 c #866514",
"i8 c #775814",
"i9 c #8B7215",
"i0 c #E8C728",
"ja c #DEB922",
"jb c #EDC625",
"jc c #DFBA22",
"jd c #FFD02E",
"je c #EECE2A",
"jf c #F2D32D",
"jg c #9B7619",
"jh c #926D17",
"ji c #9C761A",
"jj c #9F7C20",
"jk c #4F3A07",
"jl c #402E06",
"jm c #C7AC25",
"jn c #AB881B",
"jo c #846213",
"jp c #95711A",
"jq c #5A440C",
"jr c #D4B524",
"js c #DDB923",
"jt c #E3BE24",
"ju c #DCB922",
"jv c #D7B027",
"jw c #F0CE29",
"jx c #D3B126",
"jy c #A57F1E",
"jz c #8C6C1A",
"jA c #433004",
"jB c #56430C",
"jC c #FDDC31",
"jD c #FBDA2E",
"jE c #C1A021",
"jF c #826012",
"jG c #6A4F11",
"jH c #8A7214",
"jI c #E8C729",
"jJ c #DEBA23",
"jK c #DCB923",
"jL c #E8C224",
"jM c #DFBB23",
"jN c #F0CE29",
"jO c #FFDC2D",
"jP c #EDCD2A",
"jQ c #FDDF30",
"jR c #B28F1E",
"jS c #AB8421",
"jT c #795D14",
"jU c #3C2903",
"jV c #7B6514",
"jW c #D5B425",
"jX c #886514",
"jY c #866413",
"jZ c #8B6A19",
"j0 c #55410A",
"j1 c #EDCB29",
"j2 c #DDB923",
"j3 c #DFBA23",
"j4 c #EECC29",
"j5 c #EECD2A",
"j6 c #F1D22D",
"j7 c #916E16",
"j8 c #AC8522",
"j9 c #69500F",
"j# c #392703",
"j. c #A28A1D",
"j+ c #E3C329",
"j@ c #856312",
"j* c #9C781C",
"j= c #AF931D",
"j- c #F6D32B",
"j; c #E7C628",
"j: c #E5C023",
"j> c #DEB922",
"j, c #EECD29",
"j< c #EFCD29",
"j1 c #EDCD2A",
"j2 c #DEBD29",
"j3 c #AA8322",
"j4 c #5C450B",
"j5 c #3D2C05",
"j6 c #C5AA24",
"j7 c #FFE431",
"j8 c #F7D82E",
"j9 c #EDCD2B",
"j0 c #937116",
"ka c #896814",
"kb c #886613",
"kc c #836212",
"kd c #9B761B",
"ke c #644A0F",
"kf c #776011",
"kg c #DEBA22",
"kh c #DFBA22",
"ki c #E1BB25",
"kj c #EFCD2B",
"kk c #EDCC29",
"kl c #F6D62F",
"km c #C8A623",
"kn c #8C6714",
"ko c #A47F21",
"kp c #513C08",
"kq c #493608",
"kr c #DFC229",
"ks c #9C7A18",
"kt c #846112",
"ku c #947018",
"kv c #7E6016",
"kw c #513D08",
"kx c #ECCA28",
"ky c #DFBC24",
"kz c #DEBB23",
"kA c #DDB923",
"kB c #DCB822",
"kC c #EBC424",
"kD c #DBB823",
"kE c #F0CD2A",
"kF c #EDCC29",
"kG c #B5921E",
"kH c #8D6714",
"kI c #946F16",
"kJ c #987219",
"kK c #9E7B1F",
"kL c #483406",
"kM c #58440B",
"kN c #F0D22D",
"kO c #A5841B",
"kP c #846312",
"kQ c #91701B",
"kR c #422F05",
"kS c #C3A521",
"kT c #DCB821",
"kU c #EDC625",
"kV c #DEB822",
"kW c #EECC2A",
"kX c #EDCC2A",
"kY c #A6831B",
"kZ c #8E6915",
"k0 c #9A7519",
"k1 c #98761D",
"k2 c #422F04",
"k3 c #68540F",
"k4 c #F0D02C",
"k5 c #F9D82D",
"k6 c #AE8C1C",
"k7 c #825F12",
"k8 c #886513",
"k9 c #9C781D",
"k# c #433006",
"k. c #A0851A",
"k+ c #F6D32A",
"k@ c #E6C527",
"k* c #DDB922",
"k= c #DDB822",
"k- c #E7D02E",
"k; c #EECC29",
"k: c #ECCB2A",
"k> c #9C7818",
"k, c #9D781A",
"k< c #93721C",
"k1 c #3D2A03",
"k2 c #796313",
"k3 c #825E12",
"k4 c #A07C1E",
"k5 c #4C3809",
"k6 c #806813",
"k7 c #E7C528",
"k8 c #DDB922",
"k9 c #DCB822",
"k0 c #E2BD23",
"la c #DCB722",
"lb c #D7C427",
"lc c #EDCB29",
"ld c #9F781B",
"le c #8E6E1B",
"lf c #3A2803",
"lg c #887116",
"lh c #BB991F",
"li c #815E12",
"lj c #826112",
"lk c #A17B1E",
"ll c #58410B",
"lm c #67520D",
"ln c #EFCC29",
"lo c #DCB822",
"lp c #DCB722",
"lq c #DDBC21",
"lr c #EECE29",
"ls c #ECCA2A",
"lt c #FADB2F",
"lu c #E6C62A",
"lv c #8A6B19",
"lw c #382603",
"lx c #947D19",
"ly c #805E12",
"lz c #866513",
"lA c #815F11",
"lB c #A07B1E",
"lC c #62490E",
"lD c #56420A",
"lE c #E5C427",
"lF c #EBC828",
"lG c #DCB822",
"lH c #E3BD23",
"lI c #DDB821",
"lJ c #EFCC29",
"lK c #F8D52B",
"lL c #E1C129",
"lM c #906B15",
"lN c #8B6713",
"lO c #876818",
"lP c #382602",
"lQ c #9F861C",
"lR c #C2A021",
"lS c #856413",
"lT c #805F11",
"lU c #A07A1E",
"lV c #4B3807",
"lW c #DBBA25",
"lX c #EDCA29",
"lY c #DBB822",
"lZ c #E7C124",
"l0 c #DDB822",
"l1 c #EECC28",
"l2 c #ECCB29",
"l3 c #DEBD28",
"l4 c #A07B1C",
"l5 c #856718",
"l6 c #372602",
"l7 c #A68D1D",
"l8 c #C3A221",
"l9 c #A07A1D",
"l# c #6E5411",
"l. c #443206",
"l+ c #D2B224",
"l@ c #DBB722",
"l* c #E7C024",
"l= c #DCB820",
"l- c #EECC29",
"l; c #F7D32B",
"l: c #EBCA29",
"l> c #8A6713",
"l, c #856618",
"l< c #AB921E",
"l1 c #FFE331",
"l2 c #805D12",
"l3 c #896713",
"l4 c #705512",
"l5 c #412F05",
"l6 c #CBAC22",
"l7 c #F0CD29",
"l8 c #DBB722",
"l9 c #E5BF23",
"l0 c #DCB621",
"ma c #ECCA29",
"mb c #F4D12A",
"mc c #DEBE28",
"md c #8A6813",
"me c #AE941E",
"mf c #F8D82D",
"mg c #C2A121",
"mh c #805D11",
"mi c #7F5F11",
"mj c #C6A821",
"mk c #DDB822",
"ml c #E2BC22",
"mm c #DCB721",
"mn c #ECCB29",
"mo c #F1CF2A",
"mp c #EBC929",
"mq c #AF951F",
"mr c #F3D42D",
"ms c #C09F20",
"mt c #7F5D11",
"mu c #A27C1F",
"mv c #C5A621",
"mw c #DAB622",
"mx c #E0BA22",
"my c #DAB620",
"mz c #EBC929",
"mA c #E5C52A",
"mB c #906D16",
"mC c #9D771B",
"mD c #896A19",
"mE c #AE941F",
"mF c #BD9C1F",
"mG c #846313",
"mH c #805E11",
"mI c #A47E20",
"mJ c #684F0F",
"mK c #402E05",
"mL c #C6A721",
"mM c #DBB722",
"mN c #DDB921",
"mO c #DAB621",
"mP c #ECC928",
"mQ c #EBCB2B",
"mR c #9B751A",
"mS c #8D6D1A",
"mT c #AA911E",
"mU c #B8971E",
"mV c #815F12",
"mW c #A57F20",
"mX c #61480D",
"mY c #433106",
"mZ c #CAAB22",
"m0 c #DCB722",
"m1 c #DBB722",
"m2 c #DCB721",
"m3 c #DBB720",
"m4 c #EBC929",
"m5 c #9B7719",
"m6 c #987319",
"m7 c #A58B1D",
"m8 c #B2911D",
"m9 c #A58021",
"m# c #57410A",
"m. c #483507",
"m+ c #D1B123",
"m@ c #EECA28",
"m* c #DBB721",
"m= c #DBB621",
"m- c #D9B521",
"m; c #E9C829",
"m: c #8C6715",
"m> c #957118",
"m, c #97741C",
"m< c #3B2903",
"m1 c #9D841B",
"m2 c #AA881B",
"m3 c #826113",
"m4 c #A17D20",
"m5 c #503C09",
"m6 c #DABA25",
"m7 c #DAB621",
"m8 c #DAB521",
"m9 c #B4911E",
"m0 c #896515",
"na c #9C781E",
"nb c #3F2C05",
"nc c #927A18",
"nd c #FFE130",
"ne c #A17F19",
"nf c #916F17",
"ng c #98761E",
"nh c #453105",
"ni c #5B460B",
"nj c #EAC828",
"nk c #FBDA2F",
"nl c #C7A523",
"nm c #916E15",
"nn c #463206",
"no c #846D15",
"np c #977617",
"nq c #7D5D10",
"nr c #9D781C",
"ns c #896919",
"nt c #3E2C04",
"nu c #6B550F",
"nv c #EDC928",
"nw c #D9B421",
"nx c #EBC827",
"ny c #EBC928",
"nz c #DCBB27",
"nA c #A27D1F",
"nB c #513A09",
"nC c #745E11",
"nD c #FDDC2F",
"nE c #E9C72A",
"nF c #8E6C15",
"nG c #A88121",
"nH c #735812",
"nI c #3B2904",
"nJ c #836A13",
"nK c #F2CF29",
"nL c #E5C227",
"nM c #D9B520",
"nN c #EAC828",
"nO c #EDCB28",
"nP c #E9C828",
"nQ c #EECE2C",
"nR c #987517",
"nS c #A17C1E",
"nT c #5F470D",
"nU c #624E0D",
"nV c #F7D62E",
"nW c #DDBC26",
"nX c #836112",
"nY c #AA8423",
"nZ c #5D450B",
"n0 c #A08519",
"n1 c #F3D029",
"n2 c #DAB521",
"n3 c #DDB721",
"n4 c #D9B521",
"n5 c #EBC828",
"n6 c #B18E1D",
"n7 c #9E781B",
"n8 c #725612",
"n9 c #513E09",
"n# c #EBCC2C",
"n. c #F6D52E",
"n+ c #F5D32C",
"n@ c #CDAC23",
"n* c #7F5E11",
"n= c #936F18",
"n- c #9C791F",
"n; c #4C3706",
"n: c #443107",
"n> c #C2A420",
"n, c #DEB922",
"n< c #D9B520",
"n1 c #E9C828",
"n2 c #F1CE29",
"n3 c #D1B025",
"n4 c #967118",
"n5 c #856617",
"n6 c #D9BB28",
"n7 c #7D5B11",
"n8 c #846212",
"n9 c #7C5B10",
"n0 c #A78121",
"oa c #443005",
"ob c #56430B",
"oc c #E0BF26",
"od c #E9C627",
"oe c #E5C327",
"of c #DAB521",
"og c #DBB521",
"oh c #EBC927",
"oi c #F3D02A",
"oj c #E9C828",
"ok c #96731B",
"ol c #BEA221",
"om c #7F5D12",
"on c #AE8824",
"oo c #5C440B",
"op c #402D05",
"oq c #7C6512",
"or c #E4C227",
"os c #D9B421",
"ot c #DAB51F",
"ou c #EAC728",
"ov c #F5D12A",
"ow c #E8C728",
"ox c #BE9B20",
"oy c #876213",
"oz c #896613",
"oA c #9E791C",
"oB c #4E3809",
"oC c #998119",
"oD c #EFCF2B",
"oE c #EDCD2A",
"oF c #F0CF2A",
"oG c #7C5C10",
"oH c #9F7A1D",
"oI c #92711C",
"oJ c #4B3706",
"oK c #3F2D06",
"oL c #B1941D",
"oM c #F1CD29",
"oN c #D9B521",
"oO c #E4BD22",
"oP c #DAB620",
"oQ c #EBC829",
"oR c #9A761A",
"oS c #694F11",
"oT c #705B0F",
"oU c #816012",
"oV c #B38B26",
"oW c #624A0D",
"oX c #473306",
"oY c #55420A",
"oZ c #E1BE26",
"o0 c #E8C528",
"o1 c #E4BE22",
"o2 c #DBB51F",
"o3 c #E8C826",
"o4 c #F0CC29",
"o5 c #E7C528",
"o6 c #BD9B20",
"o7 c #886718",
"o8 c #523F09",
"o9 c #E6C72A",
"o# c #A9881B",
"o. c #7E5C11",
"o+ c #7A5B0F",
"o@ c #A37E1F",
"o* c #93721D",
"o= c #907616",
"o- c #E3C126",
"o; c #D8B421",
"o: c #E0BA21",
"o> c #DAB321",
"o, c #EDC929",
"o< c #E7C527",
"o1 c #EAC728",
"o2 c #99741A",
"o3 c #533D0B",
"o4 c #B99E20",
"o5 c #836213",
"o6 c #B48C27",
"o7 c #5A420A",
"o8 c #4B3707",
"o9 c #4B3808",
"o0 c #D5B524",
"pa c #D9B421",
"pb c #DAB520",
"pc c #D9B320",
"pd c #DDB621",
"pe c #E9C627",
"pf c #F6D62C",
"pg c #D4B325",
"ph c #876314",
"pi c #725512",
"pj c #7E6813",
"pk c #B8961E",
"pl c #7C5C0F",
"pm c #B58D26",
"pn c #7A5D14",
"po c #4D3907",
"pp c #8F7516",
"pq c #D8B321",
"pr c #DEB921",
"ps c #D8B420",
"pt c #EBC427",
"pu c #E9C627",
"pv c #846113",
"pw c #8F6C17",
"px c #5F490D",
"py c #DCBD27",
"pz c #F0CE2B",
"pA c #E3C128",
"pB c #7A5A0F",
"pC c #A88221",
"pD c #99771F",
"pE c #493607",
"pF c #53400A",
"pG c #DFBE26",
"pH c #D9B521",
"pI c #D9B420",
"pJ c #D9B420",
"pK c #E8C628",
"pL c #F9D42A",
"pM c #E7C526",
"pN c #A8851B",
"pO c #735511",
"pP c #998019",
"pQ c #A6851A",
"pR c #AC8625",
"pS c #523C07",
"pT c #3C2B05",
"pU c #B3961D",
"pV c #D8B31F",
"pW c #E8C122",
"pX c #D9B420",
"pY c #ECC727",
"pZ c #F6D22A",
"p0 c #E6C426",
"p1 c #9F7D19",
"p2 c #715610",
"p3 c #DABB27",
"p4 c #EDCC2B",
"p5 c #F6D42B",
"p6 c #BE9D1F",
"p7 c #7D5C12",
"p8 c #99751B",
"p9 c #B38C27",
"p# c #59420A",
"p. c #3C2A05",
"p+ c #856D14",
"p@ c #D9B420",
"p* c #D7B31F",
"p= c #E6BF22",
"p- c #DBB520",
"p; c #E7C727",
"p: c #E9C627",
"p> c #A07D19",
"p, c #856212",
"p< c #977A18",
"p1 c #F7D72D",
"p2 c #F5D42B",
"p3 c #805F12",
"p4 c #795A0F",
"p5 c #9E791D",
"p6 c #503B08",
"p7 c #402D06",
"p8 c #68520E",
"p9 c #D8B420",
"p0 c #DAB420",
"qa c #DAB61D",
"qb c #E7C427",
"qc c #F1CC29",
"qd c #E7C527",
"qe c #EECC2B",
"qf c #9D7B19",
"qg c #836013",
"qh c #F5D42C",
"qi c #B3921D",
"qj c #7F5E12",
"qk c #7D5C10",
"ql c #AA8524",
"qm c #58410A",
"qn c #5A470C",
"qo c #DEBD25",
"qp c #EAC727",
"qq c #D7B320",
"qr c #D8B220",
"qs c #E9C527",
"qt c #E8C829",
"qu c #967619",
"qv c #856214",
"qw c #CAA822",
"qx c #F4D22C",
"qy c #F2D12B",
"qz c #C6A421",
"qA c #947216",
"qB c #7D5C11",
"qC c #8C6916",
"qD c #B78E27",
"qE c #95741E",
"qF c #513B07",
"qG c #5B480C",
"qH c #DAB925",
"qI c #ECC928",
"qJ c #D8B21F",
"qK c #E7BF22",
"qL c #D8B31F",
"qM c #E8C728",
"qN c #E5C327",
"qO c #E8C929",
"qP c #957919",
"qQ c #7E5E14",
"qR c #886713",
"qS c #906E15",
"qT c #A8871B",
"qU c #CAA922",
"qV c #D0AE23",
"qW c #CFAE23",
"qX c #C9A822",
"qY c #BC9A1F",
"qZ c #A7851A",
"q0 c #7E5C12",
"q1 c #826011",
"q2 c #7B5B0F",
"q3 c #A78120",
"q4 c #B18B26",
"q5 c #755913",
"q6 c #3B2905",
"q7 c #ECC828",
"q8 c #D8B420",
"q9 c #D7B220",
"q# c #E2BB22",
"q. c #D8B21F",
"q+ c #E6C326",
"q@ c #A3871B",
"q* c #715512",
"q= c #8B6917",
"q- c #7F5C12",
"q; c #7E5D10",
"q: c #A47E1F",
"q> c #B28B26",
"q, c #8C6C1B",
"q< c #564009",
"q1 c #473407",
"q2 c #3E2C06",
"q3 c #D7B220",
"q4 c #DCB621",
"q5 c #D7B21F",
"q6 c #E8C426",
"q7 c #F6D029",
"q8 c #E5C427",
"q9 c #C4A821",
"q0 c #725B11",
"ra c #6C5111",
"rb c #8F6C19",
"rc c #9A751A",
"rd c #876614",
"re c #977219",
"rf c #AA8422",
"rg c #AC8624",
"rh c #8B6B1A",
"ri c #5D460B",
"rj c #4A3607",
"rk c #5A460C",
"rl c #BA9C1E",
"rm c #D8B320",
"rn c #D8B220",
"ro c #E5BE22",
"rp c #D9B31F",
"rq c #E6C226",
"rr c #F1CD28",
"rs c #E5C226",
"rt c #A3881A",
"ru c #604A0D",
"rv c #60470E",
"rw c #826217",
"rx c #99751C",
"ry c #9C781B",
"rz c #826111",
"rA c #816011",
"rB c #916E17",
"rC c #A98221",
"rD c #775B14",
"rE c #584109",
"rF c #453206",
"rG c #503D0A",
"rH c #997F18",
"rI c #D7B220",
"rJ c #E2BB21",
"rK c #D9B41E",
"rL c #E4C225",
"rM c #ECC927",
"rN c #E6C326",
"rO c #F9D72C",
"rP c #E5C528",
"rQ c #A28819",
"rR c #614D0C",
"rS c #4D3809",
"rT c #5D450D",
"rU c #795C15",
"rV c #8F6E1A",
"rW c #9B781D",
"rX c #9E781C",
"rY c #98731A",
"rZ c #97731A",
"r0 c #9A761C",
"r1 c #A37F21",
"r2 c #99771E",
"r3 c #886919",
"r4 c #715612",
"r5 c #5A430A",
"r6 c #433005",
"r7 c #5C490C",
"r8 c #9C8118",
"r9 c #DDBB25",
"r# c #D8B320",
"r. c #D7B21F",
"r+ c #E6C426",
"r@ c #F6D029",
"r* c #E4C325",
"r= c #EECC29",
"r- c #876F14",
"r; c #59450A",
"r: c #503A0A",
"r> c #5F470E",
"r, c #785C14",
"r< c #816316",
"r1 c #876819",
"r2 c #7C5E13",
"r3 c #61480C",
"r4 c #453305",
"r5 c #402D04",
"r6 c #453207",
"r7 c #5A460B",
"r8 c #846C14",
"r9 c #BA9D1F",
"r0 c #E6C226",
"sa c #D7B220",
"sb c #D8B31F",
"sc c #BFBF00",
"sd c #E4C228",
"se c #E8C526",
"sf c #CCAD23",
"sg c #A68A1B",
"sh c #816913",
"si c #644F0D",
"sj c #503C08",
"sk c #3D2C04",
"sl c #3A2903",
"sm c #6B4E0E",
"sn c #62490C",
"so c #634E0D",
"sp c #A2871A",
"sq c #C4A520",
"sr c #E2C026",
"ss c #D7B220",
"st c #DBB51F",
"su c #DFB81F",
"sv c #E5C225",
"sw c #F2CE28",
"sx c #E5C225",
"sy c #E9C729",
"sz c #F2CF2B",
"sA c #F7D42B",
"sB c #E2C127",
"sC c #D3B324",
"sD c #C4A521",
"sE c #B6991E",
"sF c #A98E1B",
"sG c #A3861A",
"sH c #977616",
"sI c #D0AD22",
"sJ c #EFCD29",
"sK c #E7C426",
"sL c #E6C426",
"sM c #D6B220",
"sN c #E3BC22",
"sO c #D7B11E",
"sP c #E7C427",
"sQ c #E3C126",
"sR c #EDCA28",
"sS c #A8861A",
"sT c #7C5B11",
"sU c #856412",
"sV c #7E5D11",
"sW c #795810",
"sX c #A38219",
"sY c #BB991E",
"sZ c #CCAA22",
"s0 c #D6B424",
"s1 c #DDBA24",
"s2 c #E0BE25",
"s3 c #E1BF25",
"s4 c #E2BF26",
"s5 c #D6B120",
"s6 c #E1BA21",
"s7 c #D9B41E",
"s8 c #E4C025",
"s9 c #EFCA28",
"s# c #E4C226",
"s. c #E1C027",
"s+ c #8A6913",
"s@ c #7A5911",
"s* c #7A5910",
"s= c #886714",
"s- c #8B6A14",
"s; c #A9891E",
"s: c #E3C124",
"s> c #E1BA21",
"s, c #D6B01E",
"s< c #E7C224",
"s1 c #E3C026",
"s2 c #E6C428",
"s3 c #C9A721",
"s4 c #7E5D12",
"s5 c #78580F",
"s6 c #98741B",
"s7 c #6C5112",
"s8 c #7B6210",
"s9 c #D6B11F",
"s0 c #E3BB21",
"ta c #DBB420",
"tb c #E2C024",
"tc c #E3C126",
"td c #B4921C",
"te c #816112",
"tf c #7B5A0F",
"tg c #99741B",
"th c #7A5E14",
"ti c #362503",
"tj c #B6981D",
"tk c #EBC727",
"tl c #E0BD25",
"tm c #E0B920",
"tn c #D5B11F",
"to c #E8C226",
"tp c #EEC927",
"tq c #E3C025",
"tr c #7A590F",
"ts c #3C2B04",
"tt c #B4961D",
"tu c #D7B320",
"tv c #E2C024",
"tw c #F1CB27",
"tx c #E2BF24",
"ty c #A8861B",
"tz c #7B5911",
"tA c #3B2A04",
"tB c #D5B11E",
"tC c #E6C025",
"tD c #E9C425",
"tE c #E5C225",
"tF c #E2BF25",
"tG c #EAC827",
"tH c #A5851B",
"tI c #7D5B12",
"tJ c #B4961C",
"tK c #EAC626",
"tL c #DFBB24",
"tM c #D8B31F",
"tN c #DCB61F",
"tO c #DCB31C",
"tP c #E2BE23",
"tQ c #E7C526",
"tR c #9E801A",
"tS c #7B5C14",
"tT c #8B6815",
"tU c #7C5C11",
"tV c #7E5E12",
"tW c #806012",
"tX c #79590F",
"tY c #B4951C",
"tZ c #DEBB24",
"t0 c #D5B01E",
"t1 c #E6BE21",
"t2 c #D6B01F",
"t3 c #E4C125",
"t4 c #EAC626",
"t5 c #E2BF25",
"t6 c #A08419",
"t7 c #6F5312",
"t8 c #886617",
"t9 c #7B5B10",
"t# c #77570E",
"t. c #96721A",
"t+ c #B3951C",
"t@ c #E9C526",
"t* c #DEBA24",
"t= c #D6B01F",
"t- c #DDB620",
"t; c #D7B21F",
"t: c #D4AA15",
"t> c #E7C126",
"t, c #ECC827",
"t< c #BA9C1D",
"t1 c #6B540F",
"t2 c #634A0F",
"t3 c #836317",
"t4 c #96741B",
"t5 c #957119",
"t6 c #906C17",
"t7 c #8B6915",
"t8 c #896815",
"t9 c #7B5F15",
"t0 c #E9C426",
"ua c #D7B11F",
"ub c #D7B11F",
"uc c #D6B21D",
"ud c #E1BD24",
"ue c #E4C025",
"uf c #E1BE25",
"ug c #E2C025",
"uh c #9F8418",
"ui c #5E490B",
"uj c #4C3708",
"uk c #5A420C",
"ul c #826317",
"um c #93711C",
"un c #95731C",
"uo c #6D5310",
"up c #B3941C",
"uq c #E8C425",
"ur c #DDBA23",
"us c #D7B21F",
"ut c #D5AF1E",
"uu c #D5AF1F",
"uv c #E4C024",
"uw c #E3C026",
"ux c #816812",
"uy c #3D2B04",
"uz c #3C2A04",
"uA c #3E2B04",
"uB c #372604",
"uC c #AE901B",
"uD c #D5B01F",
"uE c #DFB820",
"uF c #D8B21F",
"uG c #E7C323",
"uH c #E9C424",
"uI c #E4C124",
"uJ c #E0BC25",
"uK c #CCAB21",
"uL c #9E8218",
"uM c #8E7315",
"uN c #7E6612",
"uO c #775F10",
"uP c #C2A11E",
"uQ c #D5B01F",
"uR c #D9B41F",
"uS c #DCB520",
"uT c #D8B121",
"uU c #E0BD23",
"uV c #EFCA26",
"uW c #E1BE23",
"uX c #E5C225",
"uY c #EAC525",
"uZ c #D6B11F",
"u0 c #D6B01F",
"u1 c #E4BC21",
"u2 c #D4B11F",
"u3 c #E1BD24",
"u4 c #F3CC27",
"u5 c #E0BD23",
"u6 c #DCB922",
"u7 c #DCB923",
"u8 c #DCB823",
"u9 c #D6B01F",
"u# c #E7BE21",
"u. c #D5B01E",
"u+ c #E2BF24",
"u@ c #D5AF1F",
"u* c #E5BC21",
"u= c #D7B21F",
"u- c #E5C024",
"u; c #E2BA21",
"u: c #D9B41F",
"u> c #D4BF15",
"u, c #E7B922",
"u< c #E6C124",
"u1 c #E0B820",
"u2 c #D9B41F",
"u3 c #D4B41F",
"u4 c #D7B71F",
"u5 c #E6C224",
"u6 c #DFBB24",
"u7 c #DEB923",
"u8 c #D4AF1F",
"u9 c #DBB61F",
"u0 c #D2AC1E",
"va c #DAB624",
"vb c #E6C223",
"vc c #DEBA23",
"vd c #E0B821",
"ve c #D4B11C",
"vf c #DFB71F",
"vg c #E6C023",
"vh c #DDBA22",
"vi c #DBB61F",
"vj c #E5C023",
"vk c #EFC825",
"vl c #DDB922",
"vm c #D4AF1F",
"vn c #DAB41F",
"vo c #D6AD1E",
"vp c #E3BF24",
"vq c #F0C926",
"vr c #DEBB23",
"vs c #DEBA23",
"vt c #D9B320",
"vu c #E3BF22",
"vv c #ECC525",
"vw c #E0BC23",
"vx c #DDBA23",
"vy c #E4BE22",
"vz c #E5C024",
"vA c #E8C225",
"vB c #DDB822",
"vC c #DEB721",
"vD c #DCB620",
"vE c #DAB01F",
"vF c #DFB925",
"vG c #E5BF23",
"vH c #EEC725",
"vI c #D5B01F",
"vJ c #E5BD21",
"vK c #DBB51F",
"vL c #D6AD1E",
"vM c #E4BF23",
"vN c #E6C124",
"vO c #E4BF24",
"vP c #DCB822",
"vQ c #D6B11F",
"vR c #DCB620",
"vS c #DEB821",
"vT c #DCB41F",
"vU c #CCB219",
"vV c #E2BB23",
"vW c #E4BE23",
"vX c #EDC624",
"vY c #D6B01F",
"vZ c #DCB51F",
"v0 c #D9B31F",
"v1 c #E2BD23",
"v2 c #E3BE22",
"v3 c #E9C324",
"v4 c #D5AF1F",
"v5 c #DBB51F",
"v6 c #DBB51F",
"v7 c #E3BD20",
"v8 c #E3BE22",
"v9 c #E6C024",
"v# c #DAB722",
"v. c #DFB821",
"v+ c #DCB620",
"v@ c #DAB61F",
"v* c #E6C022",
"v= c #E3BC23",
"v- c #E8C124",
"v; c #DCB722",
"v: c #D5B11F",
"v> c #DAB520",
"v, c #DAB521",
"v< c #E3BD22",
"v1 c #E2BD23",
"v2 c #DBB621",
"v3 c #D6B11F",
"v4 c #D6B01E",
"v5 c #DCB520",
"v6 c #DDB81E",
"v7 c #E2BE20",
"v8 c #E2BC22",
"v9 c #DFBA21",
"v0 c #EAC323",
"wa c #E1BB22",
"wb c #DAB621",
"wc c #DAB621",
"wd c #D5B11E",
"we c #DCB520",
"wf c #D9B31F",
"wg c #DBB51F",
"wh c #DFB81F",
"wi c #E1BB21",
"wj c #DEB921",
"wk c #E8C223",
"wl c #DFBA22",
"wm c #D9B521",
"wn c #DAB520",
"wo c #D7B120",
"wp c #D6B11F",
"wq c #DAB420",
"wr c #E1B921",
"ws c #DAB420",
"wt c #DDB61F",
"wu c #DDB522",
"wv c #E5B219",
"ww c #E4BF21",
"wx c #E0BA21",
"wy c #DEB821",
"wz c #E4BE23",
"wA c #E9C223",
"wB c #DAB521",
"wC c #D6B120",
"wD c #DEB820",
"wE c #E0B921",
"wF c #DAB320",
"wG c #DCB41F",
"wH c #DDB621",
"wI c #E5CC19",
"wJ c #ECC824",
"wK c #E3BC22",
"wL c #DFBA21",
"wM c #DDB921",
"wN c #E7C023",
"wO c #E5BE23",
"wP c #DFB922",
"wQ c #D8B420",
"wR c #D9B420",
"wS c #D8B320",
"wT c #D7B320",
"wU c #D6B220",
"wV c #E4BD21",
"wW c #DAB31F",
"wX c #DCB51F",
"wY c #DFB61F",
"wZ c #DDBB22",
"w0 c #E2BF23",
"w1 c #DEB820",
"w2 c #DEB820",
"w3 c #DCB620",
"w4 c #DCB620",
"w5 c #DAB520",
"w6 c #DFB921",
"w7 c #DBB520",
"w8 c #D8B21F",
"w9 c #D8B21F",
"w# c #DBB520",
"w. c #DCB61F",
"w+ c #DCBA22",
"w@ c #E3BC21",
"w* c #DAB621",
"w= c #DDB61F",
"w- c #DCB621",
"w; c #DCB520",
"w: c #DAB320",
"w> c #D9B51F",
"w, c #D9B420",
"w< c #D8B21F",
"w1 c #D6B220",
"w2 c #D7B21F",
"w3 c #D7B220",
"w4 c #D8B31F",
"w5 c #D8B31E",
"w6 c #D9B41F",
"w7 c #D9B31F",
"w8 c #D9B31F",
"w9 c #DAB31E",
"w0 c #DEB820",
"aaaaaaaaaaaaaaaaaaaaaaaaaaaaaaaaaaaaaaaaaaaaaaaaaaaaaaaaaaaaaaaaaaaaaaaaaaaaaaaaaaaaaaaaabacadaaaaaaaaaaaeafagahaiajakalamanaoapaqaoarasatauavawaxayafaeaaaaaaaaaaadacabaaaaaaaaaaaaaaaaaaaaaaaaaaaaaaaaaaaaaaaaaaaaaaaaaaaaaaaaaaaaaaaaaaaaaaaaaaaaaaaaaaaaaaaa",
"aaaaaaaaaaaaaaaaaaaaaaaaaaaaaaaaaaaaaaaaaaaaaaaaaaaaaaaaaaaaaaaaaaaaaaaaaaaaaaaaaaabazacaaaaaaaaaAaBaCaDaEaFaGaHaHaIaJaKaLaMaNaOaPaQaRaMaSaTaJaUaVaWaXaYaZa0a1a2aaaaaaaaaca3abaaaaaaaaaaaaaaaaaaaaaaaaaaaaaaaaaaaaaaaaaaaaaaaaaaaaaaaaaaaaaaaaaaaaaaaaaaaaaaaaaa",
"aaaaaaaaaaaaaaaaaaaaaaaaaaaaaaaaaaaaaaaaaaaaaaaaaaaaaaaaaaaaaaaaaaaaaaaaaaaaaaa4adaaaaaaa5a6a7a8a9a#a.a+aJa@a*a=a=a-a-a*a*aNaNaNaNaPaPa;a;aqa:a>a,a<a1a2a3a4a5aXa6a7a8a9aaaaaaa0a4aaaaaaaaaaaaaaaaaaaaaaaaaaaaaaaaaaaaaaaaaaaaaaaaaaaaaaaaaaaaaaaaaaaaaaaaaaaaaa",
"aaaaaaaaaaaaaaaaaaaaaaaaaaaaaaaaaaaaaaaaaaaaaaaaaaaaaaaaaaaaaaaaaaaaaaaaaaa3a4aaaababbbcbdbebfbgaLbhbibjbkblbmbnbnbnbnbnbnbnaNaNaNaNboaPaPaPa1a1bpbpbqa:brbsbtbubvbwbxbybzbAbaaaaaa4a3aaaaaaaaaaaaaaaaaaaaaaaaaaaaaaaaaaaaaaaaaaaaaaaaaaaaaaaaaaaaaaaaaaaaaaaaaa",
"aaaaaaaaaaaaaaaaaaaaaaaaaaaaaaaaaaaaaaaaaaaaaaaaaaaaaaaaaaaaaaaaaaaaaaazabaaaabBbCbDbEbFbGbHbibHbIbJbJbJbJbJbJbJbKbmbmbnbnbnbnbnaNaNaNaNboaPaPaPa1bpbpbLbLbubMbNbObPbQaOa3bRbSbTbUaaaaaba3aaaaaaaaaaaaaaaaaaaaaaaaaaaaaaaaaaaaaaaaaaaaaaaaaaaaaaaaaaaaaaaaaaaaaa",
"aaaaaaaaaaaaaaaaaaaaaaaaaaaaaaaaaaaaaaaaaaaaaaaaaaaaaaaaaaaaaaaaaaa3abaaaabVbWbXbYbZbHb0b1aLaLaLaLaLb2b2b2b2bJbJbJbJbJbKbmbnbnbnbnbnaNaNaNaNaPaPaPa1bpbpbLbLbubMbMb3b4b5bPb6b7b8aXb9b#aaaaaba3aaaaaaaaaaaaaaaaaaaaaaaaaaaaaaaaaaaaaaaaaaaaaaaaaaaaaaaaaaaaaaaaaa",
"aaaaaaaaaaaaaaaaaaaaaaaaaaaaaaaaaaaaaaaaaaaaaaaaaaaaaaaaaaaaaaa4a4aaaab.b+beb@b*b0b1aLaLaLaLaLaLaLaLaLaLaLaLaLb2b2b2bJbJbJbKbmbnbnbnbnaNaNaNaNaOaPaPa1bpbpbLbLbubMbMb3b4b4b=b-b;b:b>b,b<b1aaaaa4a4aaaaaaaaaaaaaaaaaaaaaaaaaaaaaaaaaaaaaaaaaaaaaaaaaaaaaaaaaaaaaa",
"aaaaaaaaaaaaaaaaaaaaaaaaaaaaaaaaaaaaaaaaaaaaaaaaaaaaaaaaaaabacaaaab2b3b4b5b6b7b8b9b9b9b9b9b9b9b9b9b9b9b9b9aLaLaLaLaLb2b2bJbJbJbKbmbnbnbnbnaNaNaNboaPaPa1bpbpbLbLbubMbMb3b4b4b=b0cacbcccdcecfcgaaaaa0abaaaaaaaaaaaaaaaaaaaaaaaaaaaaaaaaaaaaaaaaaaaaaaaaaaaaaaaaaa",
"aaaaaaaaaaaaaaaaaaaaaaaaaaaaaaaaaaaaaaaaaaaaaaaaaaaaaaaaa3aaaachcibEcjbHckb9b9b9clclclclclclclclclclclclclb9b9b9b9aLaLaLaLb2bJbJbJbKbmbnbnbnaNaNaNboaPaPa1bpbpbLbLbubMbMb4b4b4b0b0b:b:cmcncocpcqcraaaaa3aaaaaaaaaaaaaaaaaaaaaaaaaaaaaaaaaaaaaaaaaaaaaaaaaaaaaaaa",
"aaaaaaaaaaaaaaaaaaaaaaaaaaaaaaaaaaaaaaaaaaaaaaaaaaaaabacaacsctcubFb1cvb9clclclcwcxcxcxcxcxcxcxcxcxcxcxcxcwclclclb9b9b9aLaLaLaLb2bJbJbJbmbnbnbnaNaNaNaNaPaPa1bpbpbLbLbubMb3b4b4cyb0b0b:b:czcAcBcCcDcEcFaaacabaaaaaaaaaaaaaaaaaaaaaaaaaaaaaaaaaaaaaaaaaaaaaaaaaaaa",
"aaaaaaaaaaaaaaaaaaaaaaaaaaaaaaaaaaaaaaaaaaaaaaaaaaa4aaaacGcHcIcJb7clclclcxcxcxcxcxcxcxcxcxcKcKcxcxcxcxcxcxcxcxcxclclclb9b9aLaLaLb2b2bJbJbKbnbnbnbnaNaNaNaPaPa1bpbpbLcLbubMb3b4b4b=b0b0b:b:cMcNcOcPcQcRcSaaaaa4aaaaaaaaaaaaaaaaaaaaaaaaaaaaaaaaaaaaaaaaaaaaaaaaaa",
"aaaaaaaaaaaaaaaaaaaaaaaaaaaaaaaaaaaaaaaaaaaaaaaaadaacTcUcVcVb0cWclcwcxcxcxcxcKcKcKcKcXcXcXcXcXcXcXcXcKcKcKcKcxcxcxcxcwclclb9b9aLaLaLb2bJbJbKbmbnbnbnaNaNaNaPaPa1bpbpbLbubMbMb3b4b4b0b0b:b:b:cMcNcYcZc0c1c2c3aaadaaaaaaaaaaaaaaaaaaaaaaaaaaaaaaaaaaaaaaaaaaaaaaaa",
"aaaaaaaaaaaaaaaaaaaaaaaaaaaaaaaaaaaaaaaaaaaaaaadaac4c5cIc6c7clcwcxcxcxcKcKcKcXcXcXcXcXcXcXcXcXcXcXcXcXcXcXcXcKcKcKcxcxcxcwclclb9b9aLaLb2bJbJbKbmbnbnbnaNaNboaPaPa1bpbpbLbubMbMb4b4cyb0b0b:b:cMcMc8cPc9c#b>c.c+aaadc@aaaaaaaaaaaaaaaaaaaaaaaaaaaaaaaaaaaaaaaaaaaa",
"aaaaaaaaaaaaaaaaaaaaaaaaaaaaaaaaaaaaaaaaaaaba4aac*c=cjb0clcwcxcxcxcKcKcXcXcXcXcXcXcXc-c-c-c-c-c-c-c-cXcXcXcXcXcXcXcKcKcxcxcxclclb9b9aLaLb2b2bJbKbmbnbnbnaNaNboaPaPa1bpbLbLbubMb3b4b4b=b0c;b:b:cMcNcPcPc:c>c,c<c1aac2abaaaaaaaaaaaaaaaaaaaaaaaaaaaaaaaaaaaaaaaaaa",
"aaaaaaaaaaaaaaaaaaaaaaaaaaaaaaaaaaaaaaaaa4aaaac3c4cXb7clcwcxcxcKcKcXcXcXcXcXc-c-c5c5c5c5c5c5c5c5c5c5c5c5c5c-cXcXcXcXcXcKcKcxcxcxclclb9aLaLaLb2bJbKbmbnbnaNaNaNaOaPaPbpbpbLcLbMbMb3b4b4b0b0b:b:czcMc8cPc:c:c6c7c8c9aaaaa4aaaaaaaaaaaaaaaaaaaaaaaaaaaaaaaaaaaaaaaa",
"aaaaaaaaaaaaaaaaaaaaaaaaaaaaaaaaaaaaaaa3aac0dadbcvb8clcxcxcxcKcXcXcXcXc-c5c5c5c5dcdcdcdcdcdcdcdcdcdcdcdcc5c5c5c5c-cXcXcXcXcKcxcxcxclclb9aLaLaLb2bJbKbmbnbnaNaNaNaPaPa1bpbpbLbubMbMb4b4b=b0b0b:b:cMcNcPcPc:dddedfdgdhdiaaa3aaaaaaaaaaaaaaaaaaaaaaaaaaaaaaaaaaaaaa",
"aaaaaaaaaaaaaaaaaaaaaaaaaaaaaaaaaaaaa3aadjdkcIdlb9clcxcxcKcKcXcXcXc-c5c5c5dcdcdcdcdcdmdmdmdmdmdmdmdmdcdcdcdcdcc5c5c5c-cXcXcXcKcKcxcxcwclb9b9aLaLb2bJbKbnbnbnaNaNaNaPaPa1bpbLcLbubMb3b4b4b0b0b:b:cMcMc8cPc:dddndodpcCdqdraaa3aaaaaaaaaaaaaaaaaaaaaaaaaaaaaaaaaaaa",
"aaaaaaaaaaaaaaaaaaaaaaaaaaaaaaaaaaacaadsdtbFduclclcxcxcKcXcXcXcXc5c5c5dcdcdcdmdmdmdmdmdmdmdmdmdmdmdmdmdmdmdmdcdcdcdcc5c5cXcXcXcXcKcxcxcwclb9aLaLb2bJbJbKbnbnbnaNaNaOaPaPbpbpbLbubMbMb4b4b=b0b0b:b:cMcNcPcPc:dddvdodpdwdxdyaadzaaaaaaaaaaaaaaaaaaaaaaaaaaaaaaaaaa",
"aaaaaaaaaaaaaaaaaaaaaaaaaaaaaaaaazaadAdBb4duclclcxcxcKcXcXcXc-c5c5dcdcdcdmdmdmdmdmdmdmdmdmdmdmdmdmdmdmdmdmdmdmdmdcdcdcc5c5c-cXcXcXcKcxcxcwclb9aLaLb2bJbJbmbnbnaNaNaNaPaPa1bpbLbLbubMb3b4b4b0b0b:b:cMcNc8cPc:dddvdodCdpc0dDdEaaa3aaaaaaaaaaaaaaaaaaaaaaaaaaaaaaaa",
"aaaaaaaaaaaaaaaaaaaaaaaaaaaaaadFaadsdBdGduclclcxcxcKcXcXcXc-c5dcdcdcdmdmdmdmdmdmdHdHdIdIdIdIdIdIdIdIdHdHdmdmdmdmdmdmdcdcdcc5c5cXcXcXcKcxcxclclb9aLaLb2bJbKbnbnbnaNaNboaPaPbpbpbLbubMbMb4b4b=b0b:b:czcMc8cPc:dddndvdCdCdpdJdKdyaadFaaaaaaaaaaaaaaaaaaaaaaaaaaaaaa",
"aaaaaaaaaaaaaaaaaaaaaaaaaaaaa4aadLdMb4duclclcxcxcKcXcXcXc-c5dcdcdmdmdmdmdmdmdHdIdIdIdIdIdIdIdIdIdIdIdIdIdIdIdHdmdmdmdmdmdcdcc5c5cXcXcXcKcxcxclclb9aLaLb2bJbKbnbnbnaNaNaPaPa1bpbLcLbubMb3b4cyb0b0b:b:cMcNcPcPc:dddvdodCdNdpdOdPdQaaa4aaaaaaaaaaaaaaaaaaaaaaaaaaaa",
"aaaaaaaaaaaaaaaaaaaaaaaaaaaba4dRdSbFbib9clcxcxcKcXcXcXc5c5dcdcdmdmdmdmdmdIdIdIdIdIdIdIdTdUdUdUdUdUdIdIdIdIdIdIdIdHdmdmdmdmdcdcc5c5cXcXcXcKcxcxclb9b9aLb2bJbJbmbnbnaNaNboaPaPbpbpbLbubMb3b4b4b0b0b:b:czcMc8cPc:dddvdodCdNdVdWdXdYdZc2abaaaaaaaaaaaaaaaaaaaaaaaaaa",
"aaaaaaaaaaaaaaaaaaaaaaaad0a0aad1bYbib9clcwcxcxcXcXcXc-c5dcdcdmdmdmdmdHdIdIdIdIdTdUdUdUd2d2d2d2d2d2dUdUdUdUdIdIdIdIdHdmdmdmdmdcdcc5c5cXcXcXcKcxcxclb9aLaLb2bJbKbnbnbnaNaNaPaPa1bpbLcLbMbMb3b4cyb0b0b:b:cMcNcPc:dddndvdCdCdVd3d4d5d6aaa0d0aaaaaaaaaaaaaaaaaaaaaaaa",
"aaaaaaaaaaaaaaaaaaaaaaaaadaad7d8d9b9b9clcxcxcKcXcXc-c5dcdcdmdmdmdmdIdIdIdIdUdUdUd2d2d2d2d2d2d2d2d2d2d2d2d2dUdUdIdIdIdIdmdmdmdmdcdcc5c-cXcXcKcxcxclclb9aLb2bJbJbmbnbnaNaNboaPaPbpbpbLbubMb3b4b4b0b0b:b:cMcNcPcPc:dddvdCdCdVdVd#d.d+d@aaadaaaaaaaaaaaaaaaaaaaaaaaa",
"aaaaaaaaaaaaaaaaaaaaaaacaad*bFd=aLb9clcxcxcKcXcXc-c5dcdcdmdmdmdmdIdIdIdIdUdUd2d2d2d2d2d-d-d-d-d-d-d2d2d2d2d2d2dUdTdIdIdIdHdmdmdmdcdcc5c-cXcXcKcxcxclb9aLaLb2bJbKbnbnaNaNaNaPaPa1bpbLbubMbMb4b4b=b0b:b:cMcNc8cPc:dddvdodCdNdVd#d#d;d:d>aaa0aaaaaaaaaaaaaaaaaaaaaa",
"aaaaaaaaaaaaaaaaaaaaa4aad,d<d1bIb9b9clcxcxcXcXcXc5c5dcdmdmdmdmdIdIdIdUdUd2d2d2d2d-d-d-d-d-d-d-d-d-d-d-d-d2d2d2d2dUd2dmdcdcd3d4d4d4d5cxcxcwcxcxcwcxcwclb9aLb2bJbJbmbnbnaNaNaPaPa1bpbLcLbMbMb4b4cyb0c;b:b:cMc8cPc:dddvdodCdNdVd3d#d6d7d8d9aaa4aaaaaaaaaaaaaaaaaaaa",
"aaaaaaaaaaaaaaaaaaabazd0eabEbjaLb9clcxcxcKcXcXc-c5dcdcdmdmdmdIdIdIdUdUd2d2d2d-d-d-ebebebebebebebebebebd-dUd2d2d2ecedeeefegegeeehehehedeiejekelbGcxemenb2aLaLb2bJbKbnbnaNaNboaPaPbpbpbLbubMb3b4cyb0b0b:b:cMcNcPc:dddndvdCdCdVd3d#d#eoepeqbadFabaaaaaaaaaaaaaaaaaa",
"aaaaaaaaaaaaaaaaaaa0aaerbYbiaLb9b9clcxcxcXcXcXc5dcdcdmdmdmdHdIdIdUdUd2d2d-d-d-ebebebebesesesesesesd-dTeteuevevesewexeyezeAeBeCeDeEeFeGeHeIeJeKeLc5eccVbGb2eMbJbJbJbnbnbnaNaNaPaPa1bpbLbubMb3b4b4b0b0b:b:cMcNcPcPc:dddvdCdCdVd3d#d#eNeOePeQaaa0aaaaaaaaaaaaaaaaaa",
"aaaaaaaaaaaaaaaaazaaeReSeTb8aLb9clcxcxcKcXcXc-c5dcdmdmdmdHdIdIdTdUd2d2d-d-d-ebebesesesesesesesd-dUedeUedeVeWeXeYeZe0e1e2e3e3e4e4e4e4e5e6e6e7e8e9e#e.e+e@c5e*cKe=eMbmbnbnaNaNaPaPa1bpbLcLbMbMb4b4b=b0b:b:cMcNc8cPc:dddvdodCdVdVd#d#eNeNe-e;e:aaa3aaaaaaaaaaaaaaaa",
"aaaaaaaaaaaaaaaba3dRe>e,e<aLaLb9clcxcxcKcXcXc5dcdcdmdmdmdIdIdIdUd2d2d-d-ebebebesesese1e1e2e3e4e5e6e7e8e9e0fafafbfcfdfee0fffgfhfhfhfhfifdfdfjfkfle2fmfmfnfofpfqelc-aNaNbnaNaNboaPa1bpbpbLbubMb3b4cyb0b:b:czcMc8cPc:dddvdodCdNdVd#d#eNeNfrfsftcsa4abaaaaaaaaaaaaaa",
"aaaaaaaaaaaaaaacaafufvfwb2aLb9b9clcxcKcXcXc-c5dcdmdmdmdHdIdIdUd2d2d2d-ebebebesese1e2e2e2fxfyfzfAfBfCfDfEfefFfGfefdfefefHfIfJfIfKfKfJfLfEfMfHfkfNfHfnfOfPe5fQfdfRfSbZaLfTaNaNaNaPaPbpbpbLbubMb3b4cyb0b0b:b:cMc8cPc:dddvdodCdNdVd#d#fUeNfVfWfXfYaadzaaaaaaaaaaaaaa",
"aaaaaaaaaaaaa4abfZf0f1bIb2aLb9clcxcxcKcXcXc5c5dcdmdmdmdIdIdIdUd2d2d-d-ebebesese1e2e2e1e1f2f3f4fhe1f5fFe0fef6fdfdfefNfKf7f8f9f#f.f+f@f*f=fnfKfEfNfNf-f-f-fNfkfLf;flf:f>f,aNfTaNaPaPa1bpbLbubMb3b4b4b0b0b:b:cMcNcPc:dddndodCdCdVd3d#fUeNfVf<f1f2f3aba4aaaaaaaaaaaa",
"aaaaaaaaaaaaazaaf4b4a=bJaLaLb9clcxcxcKcXcXc5dcdcdmdmdHdIdIdUd2d2d-d-ebebesese1e2f5e1f6e6f7f8e1fgf9fefefef6fdfefjfJf0gagbgcgdgegfggghgigjgkglfeflf-f-fEfEfEflflfkgmgngogpgqbnfTaPaPa1bpbLbubMb3b4b4b0b0b:b:cMcNcPcPdddndvdCdCdVd3d#fUeNgrgsgtgugvaadFaaaaaaaaaaaa",
"aaaaaaaaaaazaagweSbjbJb2aLaLb9clcxcxcXcXc-c5dcdmdmdmdIdIdIdUd2d2d-ebebesese1e2f5fxgxfxgye1fdf9fgfefefef6fdfefHfdgzgAgBgCgDgEgFgGgHgIgIgJgKgLgMgNfnflfEfEflflflgmfLf-gOgPgQgRaLbpaPa1bpbLcLbMbMb4b4b0b0b:b:cMcNcPcPc:dddvdCdCdVd3d#d#eNgrgsgSgTgUgVaaa3aaaaaaaaaa",
"aaaaaaaaaaa4abgWgXbhbJb2aLaLb9clcxcKcXcXc-c5dcdmdmdmdIdIdUd2d2d-d-ebebese1e2f5fxgYgZg0g1g2g3fgfefefef6fdfefkg4g5g6g7g8g9g#g.g+g@g*g=g=g*g-g;g:g>g,fjfEflflflgmfLfLfLflf-g<g1g2g3cLa1bpbLcLbMbMb4b4b=b0b:b:cMcNc8cPc:dddvdCdCdVd3d#d#eNgrgsgSg4g5g6g7c2aaaaaaaaaa",
"aaaaaaaaacaag8g9g0bKbJb2aLb9clcwcxcKcXcXc5dcdcdmdmdHdIdIdUd2d2d-d-ebesese1e2e3gYhahbfEg2fgfgfefefef6f6fdhcffhdhehfhghhhihjf5hkfzhlhmhnefhoeUd-hphqhrf-flflgmfLfLfLfLfLhsfKgPhthug3hvbpbLbLbMbMb3b4b=b0b:b:cMcNc8cPc:dddvdodCdVd3d#d#eNgrgsgShwhxhyhzaadzaaaaaaaa",
"aaaaaaaaa4aahAgXg0bKbJb2aLb9clcwcxcKcXcXc5dcdcdmdmdHdIdIdUd2d2d-ebebesese2e3gxgZhbhBg2fgfgfefefef6f6fdfehChDhEhfhFg#hGhHeUhIdchJdcdmhJd4cXhKd4bFekhLhsflgmfLfLfLfLfLhshshsfKf;hMhNg3hObpbLbubMb4b4cyb0b:b:czcNc8cPc:dddvdCdCdVdVd#d#eNgrgsgShwgthPhQabc2aaaaaaaa",
"aaaaaaacaahRhShTbnbKbJb2aLb9clcxcxcKcXcXc5dcdcdmdmdHdIdIdUd2d2d-ebebese1e3f6fxg0hUg2fgfgfefefef6fdfdfefIhVhWhXhYhZh0h1dTdHd2d2dUdIdIdIdmdmdmdccxcwhoeCh2f-fLfLfLfLhshshshsh3h4gPh5h6aShObLbubMb3b4b=b0b:b:czcNc8cPc:dddvdodCdVdVd#d#eNeNgsgShwh7h8h9h#aaa3aaaaaa",
"aaaaaah.aah+dGh@bnbKbJb2aLb9clcxcxcKcXcXc5dcdcdmdmdHdIdIdUd2d2d-ebebese1e3e6h*g1g2fgfgfefefef6fdfdfdfjg3h=h-h;h:h>h1dcebd-d-d2dUdTdIdIdmdmdmdcc5cKcXemh,e5flfLfLhshshshshsh3gOh<fQh1h2a@h3bubMb3b4b=b0c;b:czcMc8cPc:dddvdodCdVdVd#d#eNeNgsgShwh7h4hyh5aaa4aaaaaa",
"aaaaa4aah6h7h8bnbnbKbJb2aLb9clcxcxcKcXcXc5dcdmdmdmdIdIdIdUd2d2d-ebebese4fzh9gmf9fgfgfefefef6fdfdfdfefJh0iaibicidieifesebd-d-d2d2dTdIdIdmdmdmdcc5c-hKigihgnf-fLhshshshshsh3gOgOgOh<iiijikbob3bMb3b4cyb0b:b:czcMc8cPc:dddvdodCdVdVd#d#eNeNgsgShwh7iliminioaaa4aaaa",
"aaaaadaaipa#iqbnbnbKbJb2aLb9clcxcxcKcXcXc5dcdcdmdmdHdIdIdUd2d2d-ebebd-f6irisfdg3fgfefefef6fdfdfdfdfditiuiviwixiyizd-esebd-d-d2d2dTdIdIdmdmdmdcc5c-cXc5iAe9gOfJhshshshsh3gOgOgOiBiBfJiCiDaWb4bMb3b4cyb0b:b:czcMc8cPc:dddvdodCdVdVd#d#eNeNgsgShwh7iEiFiGiHaaa0aaaa",
"aad0aaiIiJiKa-bnbnbKbJb2aLb9clcxcxcKcXcXc5dcdcdmdmdHdIdIdUd2d2d-ebebdUe6iLe1f9fgfefefef6fdfdfdfdfdgmiMiNiOhhiPied2esesebd-d-d2dUdIdIdIdmdmdmdcc5cXcXhKiQgyiRfKhshshsh3gOgOgOiBiBiBiSfjiTiUiVf>b3b4b=b0b:b:czcMc8cPc:dddvdodCdVdVd#d#eNeNgsgShwh7iEh8iWiXiYaad0aa",
"aaacaaiZaIi0aNbnbnbKbJb2aLb9clcxcxcKcXcXc5dcdcdmdmdHdIdIdUd2d2d-ebd2i1i2fffgfgfefefef6fdfdfdfdfdfdfJi3i4i5i6i7fyfxesebebd-d2d2dUdIdIdHdmdmdmdcc5cXcXcwi8i9i#fJhshsh3gOgOgOiBiBe5e5e5i.i+i@i*i=cyb4b=b0b:b:czcNc8cPc:dddvdCdCdVdVd#d#eNgrgsgShwh7iEili-i;i:aaa3aa",
"aaa0aai>i,iqaNbnbnbKbJb2aLb9clcwcxcKcXcXc5dcdcdmdmdHdIdIdUd2d2d-d-dTeUeGfDf9fefefef6fdfdfdfdfdfjfjfji<ivi1i2i3dTesesebebd-d2d2dUdIdIdHdmdmdcdcc5cXcXcKcXiAi4i5h<h3gOgOgOiBiBe5e5e5i6i7fii8i9iVi0b4b=b0b:b:cMcNc8cPc:dddvdCdCdVd3d#d#eNgrgsgShwh7iEiljajbjcaaazaa",
"abaajdjeaWa-aNbnbnbKbJb2aLb9b9clcxcKcXcXc5c5dcdmdmdmdIdIdUd2d2d-d-iQjfjgjhfefefef6fdfdfdfdfdfjfjf-jijjjkjljmf2dUesesebd-d-d2d2dUdIdIdHdmdmdcdcc5cXcXcKhKe*jnjoh<gOgOgOiBiBe5e5e5i6i6i6i#jpjqjraRb=b=b0b:b:cMcNc8cPc:dddvdCdCdVd3d#d#eNeNgsgShwh7ililjsjtjujvaaab",
"acaajwaGaqaNaNbnbnbmbJb2aLaLb9clcxcKcXcXc-c5dcdmdmdmdIdIdIdUd2d2d2evjxe1fFfefef6fdfdfdfdfdfjfjfdfJjyjzjAjBf3jCd-esebebd-d2d2d2dTdIdIdmdmdmdcc5c-cXcXcKemjDjEjFfJgOgOiBiBe5e5e5i6i6i6i6gPfCjGjHiVjIb0b0b:b:cMcNcPcPc:dddvdCdCdVd3d#d#eNgrgsgShwh7iEiljJjKjLjMaaa3",
"adaajNjOjPaNaNbnbnbmbJbJaLaLb9clcxcxcXcXcXc5dcdcdmdmdHdIdIdUd2d2dUjQjRgme0fef6fdfdfdfdfdfjfjfjfdfJjSjTjUjVf2dUesesebd-d-d2d2dUdIdIdIdmdmdmdcc5c-cXcXcxhKe*jWgPhsgOiBiBe5e5e5i6i6i6jXjXjYfJjZj0hNj1c;b0b:b:cMcNcPcPdddndvdCdCdVd3d#fUeNgrgsgShwh7ililjJj2jbj3aaad",
"ababj4iVj5aNaNbnbnbnbJbJb2aLb9clcxcxcKcXcXc5dcdcdmdmdmdIdIdUdUhIecj6isfjfef6fdfdfdfdfdfjfjfjfjj7fIj8j9j#j.i3dHesebebd-d-d2d2dUdIdIdHdmdmdcdcc5cXcXcKcxhKbGj+hsgOgOiBe5e5e5i6i6i6jXjXi.i.j@j*hYj=j-j;b0b:b:cMcNcPc:dddndodCdCdVd3d#fUeNgrgsgShwh7ililjJi-j:j>c2ab",
"aaj,j<aQj1boaNaNbnbnbKbJb2aLb9clcwcxcKcXcXc-c5dcdmdmdmdIdIdIdUdTeej2fNe0f6fdfdfdfdfdfjfjfjfjfjfMfMj3j4j5j6j7j8ebebd-d-d2d2dUdIdIdIdmdmdmdcc5c5cXcXcKcxcwaKj9j0i.kae5e5e5i6i6i6jXjXi.i.kbkckdkekfbxcMb0b:b:cMc8cPc:dddvdodCdNdVd3d#fUeNfVgsgSh7h7ililjJjskgkhkiaa",
"aakjaHkkaPboaNaNbnbnbKbJb2aLaLb9clcxcxcXcXcXc5dcdcdmdmdmdIdIdTklevkmknfGf6fdfdfdfdfjfjfjfjfjfMhBfgkokpkqkrhld2ebd-d-d2d2dUdUdIdIdHdmdmdmdcc5c-cXcXcKcxclb9cJksg,h3e5e5i6i6i6jXjXi.i.i.i.ktkukvkwhNkxb:b:czcMc8cPc:dddvdodCdNdVd#d#eNeNgsgshwh7kyilkzjJkAkBkCkDaa",
"aakEjOkFaPaPaNaNbnbnbmbJbJaLaLb9clcxcxcKcXcXc5c5dcdmdmdmdHdIdIkle5kGkHkIfdfdfdfdfjfjfjfjfjfMfMfEkJkKkLkMkNiQd2d-d-d2d2d2dUdIdIdIdmdmdmdcdcc5cXcXcKcxcxclb2f,kOhrgOe5i6i6i6jXjXi.i.i.i.i#kPflkQkRkSa2cMb:czcNc8cPc:dddvdodCdVdVd#d#eNeNgsgShwh7iEilkzjJkAkTkUkVaa",
"aakWa5kXaPaPaNaNbnbnbnbKbJb2aLb9b9clcxcKcXcXc-c5dcdcdmdmdmdIdIdIeskYkZfefdfdfdfjfjfjfjfjfMfMfMflk0k1k2k3eud-d-d-d2d2d2dUdIdIdIdmdmdmdcdcc5c-cXcXcKcxcwclk4k5k6k7hsi6i6i6jXjXi.i.i.i.i#jYjYk8k9k#k.k+k@b:cMcNc8cPc:dddvdodCdVdVd#d#eNeNgsgShwh7iEiljJjJkAk*jLk=aa",
"k-k;aWk:aPaPboaNaNbnbnbKbJb2aLaLb9clcxcxcKcXcXc5c5dcdmdmdmdHdIelcxk>fHfefdfdfjfjfjfjfjfMfMfMfMfJk,k<k1k2hHd2d-d2d2d2dUdIdIdIdHdmdmdmdcc5c5cXcXcKcxcxclb9k4e*f:k3h3i6i6jXjXi.i.i.i.i#jYjYjYj@k4k5k6bRk7b:cMcNcPcPdddndvdCdCdVd3d#d#eNgrgsgShwh7iEiljJjJk8k9k0lalb",
"bUlcaObpa1aPaPaNaNbnbnbmbJbJb2aLb9clcwcxcKcXcXcXc5dcdcdmdmdmdmeceLe9fjfdfdfjfjfjfjfjfMfMfMfMfHh<ldlelflghkhJd2d2d2dUdIdIdIdHdmdmdmdcdcc5c-cXcXcKcxcxclb9eMi8lhlih3i6jXjXi.i.i.i.i#jYjYjYi.ljlklllmlncMczcMc8cPc:dddndodCdCdVd3d#fUeNgrgsgShwh7ililjJjJk8lok8lplq",
"lrbvlsbpa1aPaPaNaNaNbnbnbKbJb2aLaLb9clcxcxcKcXcXc-c5dcdcdmdmdcltlufdfdfdfjfjfjfjfjfMfMfMfMfkfkhsf*lvlwlxhkdcd2dUdUdIdIdIdHdmdmdmdcdcc5c-cXcXcKcxcxclb9b9eMi8eBlyh3jXjXi.i.i.i.i#jYjYjYjYlzlAlBlClDlElFcMcMc8cPc:dddvdodCdNdVd#d#fUeNfVgsgSh7h7ililjJjJk8lolGlHlI",
"lJlKa,bpbpaPaPboaNaNbnbnbmbJbJaLaLb9clclcxcxcXcXcXc5c5dcdcdmdcltlLfHfdfjfjfjfjfjfMfMfMfMfkfklMlNf0lOlPlQhkdcdUdTdIdIdIdHdmdmdmdmdcc5c5cXcXcXcKcxcwclb9aLeMe*lRlygOjXi.i.i.i.i#jYjYjYjYlSjYlTlUgglVlWlXk7cNc8cPc:dddvdodCdVdVd#d#eNeNgsgShwh7kyilkzjJkAk8lolYlZl0",
"l1lKl2bLbpa1aPaPaNaNbnbnbnbKbJb2aLaLb9clcxcxcKcXcXcXc5c5dcdcdciQl3fbfdfjfjfjfjfMfMfMfMfkfkfNlMlNl4l5l6l7hkd3dIdIdIdIdHdmdmdmdmdcdcc5cXcXcXcKcxcxclb9aLaLeMell8ligOi.i.i.i.i#jYjYjYjYlSg,jYlTl9l#l.l+lnk7cNcPcPdddndvdCdCdVd3d#d#eNgrgsgShwh7iEiljJjJkAk8lol@l*l=",
"l-l;l:bLbpbpaPaPboaNaNbnbnbmbJbJb2aLb9b9clcxcxcKcXcXcXc5c5dcd4iQl3gmfdfjfjfjfMfMfMfMfkfkfNfNfNl>f*l,lwl<l1cXdIdIdHdmdmdmdmdmdcdcc5c-cXcXcKcxcxclb9b9aLaLe=ell8l2l3i.i.i.i#jYjYjYjYlSg,g,jYlTlUl4l5l6l7k@c8cPc:dddvdodCdNdVd3d#fUeNgrgsgShwh7ililjJjJk8k8lol8l9l0",
"mambl:cLbLbpa1aPaPaNaNbnbnbnbKbJb2aLaLb9clclcxcxcKcXcXcXc5c5d4ltmcfEfdfjfjfMfMfMfMfkfkfNfNfNfNmdf*l5lwmel1cXdHdmdmdmdmdmdcdcc5c5c-cXcXcKcxcxcwclb9aLaLb2iAmfmgmhl3i.i.i#jYjYjYjYlSg,g,g,jYmik4l4gHmji=ddc8cPc:dddvdodCdNdVd#d#eNeNfVgsgSh7h7ililjJjJk8mklol8mlmm",
"mnmompbubLbpbpaPaPboaNaNbnbnbmbJbJb2aLaLb9clcwcxcxcKcXcXcXc5cXeseKfNfjfjfMfMfMfMfkfkfNfNfNf-f-gOldlOlwmql1mrdmdmdmdmdmdcdcc5c5c-cXcXcKcKcxcxclb9aLaLb2bJaNbZmsmtl3i.i#jYjYjYjYlSg,g,g,g,lSmimughgHmvi=ddcPcPdddndvdCdCdVdVd#d#eNeNgsgShwh7kyilkzjJkAk8lolomwmxmy",
"mzaPmpbubLbLbpa1aPaPaNaNaNbnbnbmbJbJb2aLaLb9clcxcxcxcKcXcXcXcXi8mAfjmBfMfMfMfMfkfkfNfNfNf-f-f-gOmCmDlwmEeUcxdmdmdmdcdcdcc5c5cXcXcXcKcKcxcxclb9b9aLaLbJbJaNbZmFmtl3i#jYjYjYjYlSg,g,g,g,mGlSmHmImJmKmLl7ddcPc:dddvdodCdCdVd3d#d#eNgrgsgShwh7iEiljJjJkAk8lolomMmNmO",
"mPbub3bMbubLbpbpaPaPboaNaNbnbnbnbKbJb2aLaLb9b9clcxcxcxcKcXcXcKdImQgNhBfMfMfMfkfkfNfNfNf-f-fEfEgOmRmSgFmTeUcxdmdcdcdcc5c5c-cXcXcXcKcxcxcxclb9b9aLaLb2bJbKgRbZmUmtkbjYjYjYjYlSg,g,g,g,mGmGgPmVmWmXmYmZlnddcPc:dddvdodCdVdVd#d#eNeNfVgsgShwh7ililjJjJk8k8lom0m1m2m3",
"m4bMb3bMbucLbLbpa1aPaPaNaNaNbnbnbnbKbJb2aLaLb9b9clcwcxcxcKcXcXc5b2m5gmfjfMfkfkfNfNfNf-f-fEfEfEh3m6kQj#m7hHhKdcdcc5c5c5cXcXcXcXcKcxcxcxclb9b9aLaLb2bJbJbmfTf,m8mtkbjYjYjYlSg,g,g,g,mGmGjojojom9m#m.m+m@ddc:dddndvdCdCdVd3d#d#eNeNgsgshwh7kyililjJjJk8mklom0m*m=m-",
"m;b4b4bMbMbubLbpbpa1aPaPaNaNaNbnbnbmbJbJb2aLaLb9b9clcwcxcxcKcKcXdHg0m:fjfkfkfNfNfNf-f-fEfEfEflhsm>m,m<m1hHhKc5c5c5c-cXcXcXcXcKcxcxcwclb9b9aLaLb2bJbJbmbnaNgqm2mtkbjYjYlSg,g,g,g,mGmGjojom3iBm4g7m5m6lFddc:dddvdodCdNdVd3d#d#eNgrgsgShwh7iEilkzjJkAk8lolom1m=m7m8",
"b6b4b4b3bMbMcLbLbpa1aPaPaOaNaNbnbnbnbmbJbJb2aLaLb9b9clclcxcxcxcwecm9m0j7fkfNfNfNf-f-fEfEfEflflfLitnanbncndb9c-cXcXcXcXcXcKcxcxcxcwclb9b9aLaLb2bJbJbmbnbnaNclnelii.jYlSg,g,g,g,mGmGjojojolTnfngnhnidVcNc:dddndvdodCdVdVd#d#eNeNfVgsgShwh7ililjJjJk8k8lom0m1m=m7m8",
"njb4b4b4b3bMbubLbLbpa1aPaPboaNaNbnbnbnbmbJbJb2aLaLaLb9clclcxcxemnknljXnmfNfNfNf-f-fEfEfEflflflgmflk4nnnobfb9cXcXcXcXcKcKcxcxcxclclb9b9aLaLb2bJbJbKbnbnbnaNaNnpjFi.lSg,g,g,g,mGmGjojojomGnqnrnsntnunvddc:dddvdodCdCdVd3d#d#eNeNgsgShwh7kyililjJjJk8mklom0m*m=m7nw",
"nxnycyb4b3bMbMbubLbpbpa1aPaPaNaNaNbnbnbnbmbJbJb2aLaLaLb9b9clclhKelnzhsfHfNfNf-f-fEfEfEflflflgmgmgOnAnBnCnDhKcXcKcKcKcxcxcxclclb9b9aLaLaLb2bJbJbKbnbnbnaNbKnEnFjojYg,g,g,g,mGmGjojojokckPnqnGnHnInJnKnLdddndvdCdCdNdVd#d#fUeNgrgsgShwh7iEiljJjJkAk8lolom1m=m7m=nM",
"nNnOnPb4b4b3bMbMcLbLbpbpa1aPaPaNaNaNbnbnbnbmbJbJbJb2aLaLb9b9b9clcXnQnRgmfkf-f-fEfEfEflflflgmfLfli6nSnTnUnVcKcKcxcxcxcxcwclclb9b9aLaLb2b2bJbJbmbnbnbnaNfTclnWjYjYg,g,g,g,mGmGjojojokckcnXktnYnZh:n0n1dNdddvdodCdCdVd3d#d#eNeNgsgsgSh7h7ililjJjJk8k8lom0m1m=n2n3n4",
"n5lncab=b4b4b3bMbucLbLbpbpaPaPaPaNaNaNbnbnbnbmbKbJbJb2aLaLaLb9b9b2e*n6fmfOf-fEfEfEflflflgmfLfLgmi6n7n8n9n#n.hKcxcxclclclb9b9aLaLaLb2bJbJbKbmbnbnbnaNaNfTn+n@lyjYg,g,g,mGmGjojojokckckcn*n=n-n;n:n>lnnLdndvdCdCdNdVd#d#fUeNgrgsgShwh7iEilkzjJkAk8mklom0m*m=m-n,n<",
"n1n2b-b0cyb4b4bMbMbubLbLbpa1aPaPaPaNaNaNbnbnbnbnbKbJbJb2b2aLaLaLk4mfn3jXfOf-fEfEflflflgmfLfLfLfLiBn4n5l.n6e*aLclclb9b9b9aLaLaLb2b2bJbJbKbmbnbnbnaNaNaNbLgqmUn7i.g,g,mGmGjojojokckckcn8n9n0gdoaobocodoedvdodCdCdVd3d#d#eNeNgsgsgShwh7ililjJjJkAk8lolom1m=m7ofmxog",
"ohoiojb0b0b4b4b3bMbMbubLbLbpa1aPaPaPaNaNaNbnbnbnbnbmbKbJbJb2b2aLaLclgRh,g1fbfEflflflgmfLfLfLfLfLh3fEokkRoldGk4b9b9b9aLaLaLb2b2bJbJbJbKbnbnbnbnaNaNaNaObpg3neomjYg,mGmGjojojokckckcnXljg,onooopoqn2ordndvdCdCdVdVd#d#d#eNgrgsgShwh7kyilkzjJjJk8mklom0m1m=m7osmlot",
"ouovowb0b0b=b4b4b3bMbMbubLbpbpa1aPaPaPaNaNaNaNbnbnbnbnbKbJbJbJb2b2eMe*oxoyfkflflflgmfLfLfLfLfLhshsozoAoBoCbFoDaLaLaLaLb2b2bJbJbJbKbmbnbnbnaNaNaNaNaPoEoFk7h4hrf;mGmGjojojokckckcnXn8oGoHoIoJoKoLoMordvdodCdCdVd3d#d#eNeNgsgsgShwh7ililjJjJkAk8lolom1m=m7m8oNoOoP",
"oQovowb:b0b0b=b4b4b3bMbMbubLbpbpa1aPaPaPboaNaNaNbnbnbnbnbmbKbJbJbJk4aKfqj7fLflflgmfLfLfLfLfLhshshsk8oRoSoTbeeMaLaLb2b2bJbJbJbKbmbnbnbnbnaNaNaNaNaPaPbLaWn@omjYmGmGjojojokckckcnXnXljoUoVoWoXoYoZo0dndvdCdCdVdVd#d#fUeNgrgsgShwh7kyililjJjJk8k8lom0m1m=m7m8oNo1o2",
"o3o4o5b:b:b0b0cyb4b4b3bMbMbubLbLbpbpa1aPaPaOaNaNaNaNbnbnbnbnbmbKbJbJiAelo6gPfkgmfLfLfLfLfLhshshshsgOfko7o8o9cXk4bJbJbJbJbKbmbnbnbnbnaNaNaNaNboaPaPaPhvaKo#o.lzmGjojojokckckcnXnXn8o+o@o*iboKo=coo-dvdodCdNdVd3d#d#eNeNgsgsgShwh7ililjJjJkAk8lolom1m*m=m8m8o;o:o>",
"o,o<o1czb:b:b0b0cyb4b4b3bMbMbubLbLbpbpa1aPaPaPaNaNaNaNaNbnbnbnbnbnbmbKaLfTh,e4flfLfLfLfLhshshshshsh3k8o2o3o4bEiAbJbKbKbmbnbnbnbnbnaNaNaNaNaPaPaPa1bLaQhNiBo5mGjojojokckckcnXnXnXlTiBo6o7o8o9o0b0dCdodCdCdVdVd#d#eNeNgrgsgShwh7kyililjJjJk8k8lom0m1m=m7m8papbpcpd",
"jdpelno5b:b:b:b0b0cyb4b4b3bMbMbubLbLbpbpa1aPaPaPaOaNaNaNaNaNbnbnbnbnbnaNpfpgphflfLfLfLhshshshshsh3gOe5fepipjdGaPbmbnbnbnbnbnbnaNaNaNaNboaPaPaPa1bphOn+pkn7jYjojojokckckcnXnXljkcplpmpnpoh:ppnKo-dvdCdCdVdVd3d#d#eNeNgsgsgShwh7ililjJjJkAk8lolom1m*m=m7m8pqprpspt",
"aapucCcAcMb:b:b:b0b0cyb4b4b3bMbMbucLbLbpbpbpa1aPaPaPboaNaNaNaNaNbnbnbnbnfTf,eXpvf-fLhshshshshsh3gOgOgOozpwpxpyn+aNbnbnbnaNaNaNaNaNboaPaPaPa1a1bpcLpzpAkahrjojojokckckcnXnXljkPpBpCpDibpEpFpGc8dCdodCdNdVd3d#d#eNeNfVgsgShwh7iEilkzjJjJk8k8lom0m1m=m7m8pHpIoOpJaa",
"aapKpLpMcMcMb:b:b:b0b0cyb4b4b3bMbMbucLbLbLbpbpa1aPaPaPaPboaNaNaNaNaNaNbnbnbnclpNgnfKhshshshsh3gOgOgOiBi6fkpOpPdGbpbnaNaNaNaNaNboaPaPaPaPa1bpbpbLh3g3pQo.jYjojokckckcnXnXljmGpBnrpRpSm5pTpUl7o-dodCdCdVdVd#d#fUeNgrgsgShwh7h7ililjJjJkAk8lolom1m*m=m7m8papVpWpXaa",
"aapYpZp0cNcMczb:b:b:b0b0cyb4b4b3bMbMbMbubLbLbpbpbpa1aPaPaPaPaOaNaNaNaNaNaNbobKfTp1ktfKhshsh3gOgOgOiBiBiBi6g1p2p3aKp4aNaNaNboaPaPaPaPa1bpbpbpbLh3p5p6p7g,jojokckckcnXnXljmGpBp8p9p#kpp.p+oMdVdodCdCdVdVd#d#d#eNeNgsgsgShwh7iEilkzjJjJk8k8lom0m1m=m7m8pHp@p*p=p-aa",
"aap;p:odcYcNcMczb:b:b:b0b0b=b4b4b4b3bMbMbucLbLbLbpbpbpa1aPaPaPaPaPboaNaNaNaNfTbJcLp>p,h4h3gOgOgOiBiBe5e5e5h3lyp<p1aNbLaPaPaPaPaPa1bpbpbpbLh3bLp2l8p3jojojokckckcnXnXkckcp4p5p9oop6p7p8cNc:dodCdCdVdVd3d#d#eNeNfVgsgShwh7kyililjJjJkAk8lolom1m*m=m7m8pap9p@p0qaaa",
"ababqbqcqdc8cNcMcMb:b:b:b0b0b=b4b4b4b3bMbMbMbucLbLbLbpbpbpa1a1aPaPaPaPaPaPboaNqeaLcLqfg,fJiBgOiBiBe5e5e5i6i6h3qgfRpzqhaQbLcLcLcLcLhOhOhva1g3buqiqjjogPjokckckcnXnXjon*qkj3qlqmp6g#qnqoqpdNdCdCdNdVd3d#d#eNeNgrgsgShwh7h7ililjJjJkAk8mklom0m1m=m7m8pHp@qqo:qrc2d0",
"adaaqsb>cZcPc8cNcMcMb:b:b:b0b0b0cyb4b4b4b3bMbMbubucLbLbLbpbpbpbpa1a1aPaPaPaPaPaPbpa@qtquqvf-kbiBiBe5e5i6i6i6jXe5mVnpqwb=qxn+aWg3aSaWaWqyj;qzqAqBg,jojokckckcnXjooUpBqCqDqEqFkpoKqGqHqIo-dodCdNdVd3d#d#fUeNeNgsgsgShwh7iEilkzjJjJk8k8lolom1m=m7m8m8pap@qJqKqLaaad",
"acaaqMoMqNc:cPcPcNcMcMb:b:b:b0b0b0b=b4b4b4b3b3bMbMbubucLbLbLbLbpbpbpbpa1a1a1aPaPaPcLa@qOqPqQfigOjYe5e5i6i6jXjXi.qRnXlAqSqTmFqUqVqWqXqYqZnFq0p3jYjojokckcn8n8q1q2mGq3q4q5n;p6q6nupGq7o-dodCdCdVdVd#d#d#eNeNgsgsgShwh7kyililjJjJkAk8lolom0m1m=m7m8pHp@q8q9q#q.aadz",
"abaajdq+lFc#c:cPcPc8cNcMczb:b:b:b0b0b0cyb4b4b4b3b3bMbMbMbububLbLbLbpbpbpbpbpbpbpa1a1cLaMoFq@q*q=m>iBg,lzjXjXi.i.i.kbk8n8omo.lymVlyomn7q-m3lSg,jojomGkPljq;qki6q:q>q,q<poq1q2i9b:qpdVdodCdCdVdVd#d#d#eNeNfVgsgShwh7h7ililjJjJkAk8mklom0m1m=m7m8pHpap@q3q4q5jvaaab",
"aaacaaq6q7q8ddc:cPcPc8cNcMczb:b:b:b0b0b0b=cyb4b4b4b3b3bMbMbMbubucLbLbLbLbLbLbpbpbpbpbpcLbpaGq9q0rarbrcfMi#kcn8lSi.i.i.i.i6i6rdjYjYjYi.lzmGjojohrlTnqq;g,rerfrgrhrin;rjh:rkrlcpdvdNdodCdCdVdVd#d#d#eNeNgrgsgShwhwh7iEilkzjJjJk8k8lolom1m*m=m7m8pap@rmrnrorpaadFaa",
"aaacaarqrrrsddddc:cPcPc8cNcMcMb:b:b:b:b0b0b0b=b4b4b4b4b3b3bMbMbMbMbububucLcLbLbLbLbLbLbLbLh3iKbLrtrurvrwrxryg4f-k8n8rzq1q1rAlAkcg,g,mGmGjojoo5kbrBoArCnYngrDrEgDrFq2rGrHorlno-dododCdCdVdVd3d#d#eNeNgrgsgsgShwh7iEililjJjJkAk8lolom0m1m=m7m8pHp@q8rmrIrJrKaaa3aa",
"aad0aacTrLrMrNdnddc:cPcPc8c8cNcMczb:b:b:b:b0b0b0b=cyb4b4b4b4b3b3bMbMbMbMbMbMbubububububucLbLcybLrOrPrQrRrSrTrUrVrWlBoHrXkdrYrZfLjomGmGjojojFr0r1r2r3r4r5gDr6gHg#r7r8r9cocPdVdvdCdCdCdVdVd3d#d#eNeNgrgsgsgShwh7kyililjJjJkAk8mklom0m1m=m7m8m8pap@rmr#n3r.iYaad0aa",
"aaaaadaar+r@r*dvdnddc:c:cPcPc8cNcMcMczb:b:b:b:b0b0b0b=cyb4b4b4b4b4b3b3b3bMbMbMbMbMbMbMbMbMbMbMbMc;r=aUa1n>r-r;l.gKr:r>ghr,r<r1r2jYmGjojojokclSr3r4r5gGh:r6r7r8r9ddcoczo-r0dodCdCdCdVdVd3d#d#eNeNgrgsgsgShwh7h7ililjJjJjJk8k8lolom1m*m=m7m8pHp@rmrmsap=sbaascaaaa",
"aaaaa4aasdsededodvdnddddc:cPcPc8c8cNcMcMb:b:b:b:b:b0b0b0b0b=cyb4b4b4b4b4b4b4b3b3b3b3b3b3bMbMbMbMbMb4b:b3aWiVb4sfsgshsisjgKskslnIsmiio5jokckckcn8snsor-spsqsrn2lnc:o-nLdvdodCdCdNdVdVd#d#d#eNeNgrgsgsgShwh7h7ililkzjJjJk8k8lolom0m*m=m7m8pHp@q8rmssq3stsuaaa4aaaa",
"aaaaaadFaasvswsxdodvdvddddc:c:cPcPc8cNcNcMcMb:b:b:b:b:b0b0b0b0b0b=cycyb4b4b4b4b4b4b4b4b4b4b4b4b4b4b4b4b4syjIbMszsAj-a1sBsCsDsEsFsGg,jokckckcnXn8nXsHsIlnbRsJo1cNcNc8sKsLdvdVdVdVdVd#d#d#eNeNgrgsgsgShwh7h7iEilkzjJjJkAk8lolom0m1m=m7m8pHpap@rmrmsMsNsOaaa4aaaaaa",
"aaaaaaa3aasPm@sQdCdCdodvdnddddc:cPcPcPc8cNcNcMcMczb:b:b:b:b:b0b0b0b0b0b0b=cycycycyb4b4b4b4b4b4b4b4b4b4cycycyb=b:j;cMb0sRl7b,mbmbsAsSsTsUnXnXnXljljsVsWkasXsYsZs0s1s2s3eNs4oddNd#d#d#d#eNeNgrgsgsgShwh7h7iEilkzjJjJkAk8mklom0m1m=m7m8m8pap@rmrmsss5s6s7aaa3aaaaaa",
"aaaaaaaac2abs8s9s#dCdCdodvdvdnddc:c:cPcPcPc8cNcNcMcMczb:b:b:b:b:b:b:b0b0b0b0b0b0b0b0b0b0b0b0b0b0b0b0b0b0b0b0b0b0b0b0b:b:cMk7k7ddo1s.s+lAn8nXljljljnXnXn*s@s*qBoUlSs=s-qRrys;s:dveNd#eNeNgrgsgsgShwh7h7iEililjJjJkAk8mklolom1m*m=m7m8pHp@q8rmrmrIs>s,abg7aaaaaaaa",
"aaaaaaaaacaas<c,s1dNdCdCdCdodvdvddddc:c:cPcPcPc8c8cNcMcMcMczb:b:b:b:b:b:b:b:b:b0b0b0b0b0b0b0b0b0b0b0b0b0b0b:b:b:b:b:b:b:b:b:czcMs2r=s3n7n8ljljljljjFoUljljkcjFp3qjs4n*s5s6s7s8dVd#eNeNgrgsgsgShwh7h7iEililjJjJkAk8k8lolom1m*m=m7m8pHpap@rmrmsss9s0taaadzaaaaaaaa",
"aaaaaaaaaac2abtbdOtcdVdNdCdCdododvdnddddc:c:cPcPcPc8c8cNcNcMcMcMcMb:b:b:b:b:b:b:b:b:b:b:b:b:b:b:b:b:b:b:b:b:b:b:b:b:czczcMcMcMcNcNddc1tds*kPljjFjFoUoUoUoUoUp3p3p3mVtetftgthtitjtktlgrgsgsgShwh7h7iEililjJjJkAk8k8lolom0m1m=m7m8pHpap@rmrmssrItmtna4g7aaaaaaaaaa",
"aaaaaaaaaaa3aatotptqdVdVdVdCdCdCdodvdvdnddddc:c:cPcPcPcPc8c8cNcNcNcMcMcMcMczczczb:b:b:b:b:b:b:b:b:b:b:b:czczczcMcMcMcMcMcNcNc8c8cPcPddqIsSs*n8jFoUoUoUoUmVp3p3p3p3p3lTtrtgjTtstttkh7gsgSgShwh7h7iEililjJjJkAk8k8lolom0m1m=m7m8m8pap@rmrmsssss9s6tuaaa3aaaaaaaaaa",
"aaaaaaaaaaaaa3aatvtwtxd3dVdVdNdCdCdCdodvdvdnddddddc:c:cPcPcPcPcPc8c8cNcNcNcNcMcMcMcMcMcMcMcMcMcMcMcMcMcMcMcMcNcNcNcNc8c8c8cPcPcPcPc:ddc:lFtytzljoUoUoUoUp3p3p3p3p3n*lTtrtgjTtAtte;kygSgShwh7h7ilililjJjJkAk8k8lolom0m1m=m7m8m8pap@q8rmrmsss9rJtBaadFaaaaaaaaaaaa",
"aaaaaaaaaaaaa4abtCtDtEtFd#d3dVdVdNdCdCdCdododvdvdnddddddc:c:c:cPcPcPcPcPc8c8c8c8c8cNcNcNcNcNcNcNcNcNcNc8c8c8c8c8cPcPcPcPcPc:c:c:c:ddddoedntGtHtIn8n*oUp3p3p3p3p3n*n*lTtrtgjTtAtJtKtLhwhwh7kyililkzjJjJkAk8k8lolom0m1m=m7m8m8pHp@q8rmrmssq3tMtNtOc@a4aaaaaaaaaaaa",
"aaaaaaaaaaaaaaacaatPd+e-d#d#d3dVdVdVdNdCdCdCdododvdvdvdnddddddc:c:c:cPcPcPcPcPcPcPcPcPcPcPcPcPcPcPcPcPcPcPcPcPcPcPc:c:c:c:dddddddndndvdvdCdvtQtRtStTmVtUtVp3tWlTn*n*lTtXs6jTtAtYg5tZh7h7iEililkzjJjJkAk8k8lolom0m1m=m7m7m8pHp@q8rmrmsssst0t1t2aaa3aaaaaaaaaaaaaa",
"aaaaaaaaaaaaaaaba4c0t3t4t5d#d#d#d3dVdVdVdNdCdCdCdCdododvdvdvdnddddddddc:c:c:c:c:c:c:c:c:cPcPcPcPcPc:cPc:c:c:c:c:c:dddddddddndvdvdvdododCdCdVdvc7t6t7t8n=jXn*q2pBt9n9nqt#t.jTtAt+t@t*h7iEililkzjJjJkAk8k8lolom0m1m=m7m7m8pHp@p@rmrmsssst=t-t;t:a4abaaaaaaaaaaaaaa",
"aaaaaaaaaaaaaaaaa3aat>t,d;tFd#d#d#d#d3dVdVdVdVdCdCdCdCdCdododvdvdvdvdndddddddddddddddddddddddddddddddddddddddddddndndvdvdvdvdododCdCdCdCdCdNo-dVdJt<t1t2t3t4p8t5t6t7t8ljnSt9tAt+t0jJiEililjJjJjJkAk8mklolom0m1m=m7m7m8pHpap@rmrmssssuaubtmucaadFaaaaaaaaaaaaaaaa",
"aaaaaaaaaaaaaaaaaaa0aaudd5eOeNeNd#d#d#d#ued3dVdVdVdNdCdCdCdCdCdododododvdvdvdvdvdvdndndndndndndndndndndvdvdvdvdvdvdodododCdCdCdCdCdCdNdVdVdVdVd#uft,uguhuiujukl4uljzumunn-uol5upuqurililjJjJjJk8k8mklolom0m1m=m7m7m8pHpap@rmrmssssusutt1uuaascaaaaaaaaaaaaaaaaaa",
"aaaaaaaaaaaaaaaaaaaba3cTuvepeoeNeNeNd#d#d#d#d#d3dVdVdVdVdVdNdCdCdCdCdCdCdodododododododvdvdvdvdvdvdodododododododCdCdCdCdCdCdNdNdVdVdVdVd3d#d#d#d#ufd#m@uwtjuxr;rFuyuzntuArFuBuCh9kAkzjJjJkAk8k8lololom1m1m=m7m7m8pHpap@rmrmssssusuDuEuFiYdFabaaaaaaaaaaaaaaaaaa",
"aaaaaaaaaaaaaaaaaaaaa4aauGuHuIf<eNeNeNeNd#d#d#d#d#d#d3d3dVdVdVdVdVdNdCdCdCdCdCdCdCdCdCdCdCdCdCdCdCdCdCdCdCdCdCdCdCdCdNdVdVdVdVdVdVd3d#d#d#d#d#fUeNeNeNuJgrtKgugsuKt+uLuMnJuNuOuPiWkAjJjJkAk8k8lolom0m1m*m=m7m8m8pHp@p@rmrmssssusuQuRuSuTaadFaaaaaaaaaaaaaaaaaaaa",
"aaaaaaaaaaaaaaaaaaaaaascaauUuVuWgsfVgreNeNeNeNd#d#d#d#d#d#d3d3dVdVdVdVdVdVdVdVdNdNdCdCdCdCdCdCdCdCdCdCdNdNdVdVdVdVdVdVdVdVd3d3d#d#d#d#d#d#fUeNeNeNgrgrgsgskytLgSuXt@e;e;uYh9h9gSurjJjJk8k8k8lolom0m1m*m=m7m8m8pHp@p@rmrmssssusuZu0u1u2aascaaaaaaaaaaaaaaaaaaaaaa",
"aaaaaaaaaaaaaaaaaaaaaaaaadaau3u4u5gsgsgsgreNeNeNeNfUd#d#d#d#d#d#d#d#d3d3d3dVdVdVdVdVdVdVdVdVdVdVdVdVdVdVdVdVdVdVd3d3ued#d#d#d#d#d#d#fUeNeNeNeNgrfVgsgsgSgShwhwh7tLjJuru6kAu7u8kAjJkAk8k8mklolom0m1m*m=m7m8m8pHp@p@rmrmssssusuZu9u#u.aascaaaaaaaaaaaaaaaaaaaaaaaa",
"aaaaaaaaaaaaaaaaaaaaaaaad0a0aau+twh4gsgsgsgsfVgreNeNeNeNeNfUd#d#d#d#d#d#d#d#d#d#d#d3d3d3d3d3d3d3d3d3d3d#d#d#d#d#d#d#d#d#d#d#d#eNeNeNeNeNeNfVgsgsgsgSgShwhwh7h7h7iEilililjJjJjJjJkAk8k8lololom1m1m=m=m7m8m8pap@q8rmrmssssuauZu@u*u=aba3d0aaaaaaaaaaaaaaaaaaaaaaaa",
"aaaaaaaaaaaaaaaaaaaaaaaaaaabc2csu-guh4gSgSgSgsgsgsfVgreNeNeNeNeNeNfUfUd#d#d#d#d#d#d#d#d#d#d#d#d#d#d#d#d#d#d#d#d#d#fUfUeNeNeNeNeNeNgrfVgsgsgsgsgSgShwhwh7h7h7iEilililkzjJjJjJkAk8k8mklolom0m1m*m=m7m7m8pHpap@q8rmrmssssuauZu@u;u:u>g7abaaaaaaaaaaaaaaaaaaaaaaaaaa",
"aaaaaaaaaaaaaaaaaaaaaaaaaaaac2aau,u<e;h4gShwgSgSgSgsgsgsfVgrgreNeNeNeNeNeNeNeNeNeNfUfUfUfUfUfUfUd#fUfUfUeNeNeNeNeNeNeNeNeNgrgrfVgsgsgsgsgSgShwhwhwh7h7h7iEilililkzjJjJjJurk8k8k8lololom0m1m=m=m7m8m8pHpap@rmrmrmssssuauZu@u1u2u3aac2aaaaaaaaaaaaaaaaaaaaaaaaaaaa",
"aaaaaaaaaaaaaaaaaaaaaaaaaaaaaadFaau4u5g5u6hwhwhwhwgSgSgSgsgsgsgsgsfVgrgrgreNeNeNeNeNeNeNeNeNeNeNeNeNeNeNeNeNeNgrgrgrfVgsgsgsgsgsgSgSgShwhwhwh7h7h7kyiEilililkzjJjJjJu7k8k8k8lololom0m1m*m=m7m7m8m8pHp@p@rmrmrmssssuauZu8uEu9u0aadFaaaaaaaaaaaaaaaaaaaaaaaaaaaaaa",
"aaaaaaaaaaaaaaaaaaaaaaaaaaaaaaaaa3aavavbuYvch7h7h7hwhwhwgSgSgSgSgsgsgsgsgsgsgsgsgsfVfVgrgrgrgrgrgrfVfVfVgsgsgsgsgsgsgsgsgSgSgSgShwhwhwh7h7h7h7iEiEilililkzjJjJjJjJkAk8k8mklolom0m1m1m=m=m7m7m8pHpap@p@rmrmssssssuZuZu@vdu9veaadFaaaaaaaaaaaaaaaaaaaaaaaaaaaaaaaa",
"aaaaaaaaaaaaaaaaaaaaaaaaaaaaaaaaaadzaavfvghyvhiEkyh7h7h7hwhwhwhwhwgSgSgSgSgSgSgsgsgsgsgsgsgsgsgsgsgsgsgsgsgSgSgSgSgSgShwhwhwhwh7h7h7h7h7iEilililililkzjJjJjJkAkAk8k8mklololom0m1m*m=m7m7m8m8pHpap@q8rmrmssssusuZuZuts6viu0aaa3aaaaaaaaaaaaaaaaaaaaaaaaaaaaaaaaaa",
"aaaaaaaaaaaaaaaaaaaaaaaaaaaaaaaaaaaaa3aadrvjvkvlililiEiEh7h7h7h7h7h7hwhwhwhwhwgShwgSgSgSgSgSgSgSgSgSgShwhwhwhwhwhwhwh7h7h7h7h7h7iEiEilililililkzjJjJjJjJkAk8k8k8mklololom0m1m1m=m=m7m7m8pHpap@p@rmrmrmssssuauZuZvmu1vnvoaaa3aaaaaaaaaaaaaaaaaaaaaaaaaaaaaaaaaaaa",
"aaaaaaaaaaaaaaaaaaaaaaaaaaaaaaaaaaaaaadFaat:vpvqvrvsililililiEiEkyh7h7h7h7h7h7h7h7hwh7hwhwhwhwhwhwh7hwh7h7h7h7h7h7h7h7kyiEiEiEilililililkzjJjJjJjJjJkAk8k8k8mklololom0m1m1m=m=m7m7m8m8pHpap@q8rmrmssssssuauZuQuDt1vtjvaadFaaaaaaaaaaaaaaaaaaaaaaaaaaaaaaaaaaaaaa",
"aaaaaaaaaaaaaaaaaaaaaaaaaaaaaaaaaaaaaaaaa4aaaavuvvvwvxilililililililililiEiEiEkykyh7h7h7h7h7h7h7h7h7h7kyh7iEiEiEililililililililkzjJjJjJjJjJjJkAk8k8k8k8lolololom0m1m1m=m=m7m7m8m8pHpap@p@rmrmrmssssusuZuZuDuas0pXaaaaa4aaaaaaaaaaaaaaaaaaaaaaaaaaaaaaaaaaaaaaaa",
"aaaaaaaaaaaaaaaaaaaaaaaaaaaaaaaaaaaaaaaaaaabc2aavyvzvAvBjJjJjJjJilililililililililililililililililililililililililililkzkzjJjJjJjJjJjJjJkAk8k8k8k8mklololom0m0m1m1m=m=m7m7m8m8pHpap@p@q8rmrmrmssssuauZuZu@vCvDvEaac2g7aaaaaaaaaaaaaaaaaaaaaaaaaaaaaaaaaaaaaaaaaa",
"aaaaaaaaaaaaaaaaaaaaaaaaaaaaaaaaaaaaaaaaaaaad0scaavFvGvHi-i-jJjJjJjJjJjJjJkzkzkzilkzililililililililkzilkzkzjJjJjJjJjJjJjJjJjJjJkAkAk8k8k8k8mklolololom0m0m1m*m*m=m7m7m8m8pHpHpap@q8rmrmrmssssusuZuZvIvIvJvKvLaascd0aaaaaaaaaaaaaaaaaaaaaaaaaaaaaaaaaaaaaaaaaaaa",
"aaaaaaaaaaaaaaaaaaaaaaaaaaaaaaaaaaaaaaaaaaaaaaaaa0aac3vMvNvOvPjskAjJjJjJjJjJjJjJjJjJjJjJjJjJjJjJjJjJjJjJjJjJjJjJjJjJjJjJkAk8k8k8k8k8k8mklololololom0m1m1m*m=m=m7m7m8m8m8pHpap@p@rmrmrmssssssuauZvQutvRvSvTvUaascaaaaaaaaaaaaaaaaaaaaaaaaaaaaaaaaaaaaaaaaaaaaaaaa",
"aaaaaaaaaaaaaaaaaaaaaaaaaaaaaaaaaaaaaaaaaaaaaaaaaaa4aaaavVvWvXk8kBk8k8k8k8kAkAkAkAu7kAjJjJjJjJjJjJkAu7kAkAkAkAk8k8k8k8k8k8k8mkmklololololom0m0m1m1m*m*m=m=m7m7m8m8pHpHpap@p@rmrmrmrmssssusuZuZuDvYvJvZv0aaaaa4aaaaaaaaaaaaaaaaaaaaaaaaaaaaaaaaaaaaaaaaaaaaaaaaaa",
"aaaaaaaaaaaaaaaaaaaaaaaaaaaaaaaaaaaaaaaaaaaaaaaaaaaaaba3aacFv1v2v3l8l8k8k8k8k8k8k8k8k8k8k8k8k8k8k8k8k8k8k8k8k8k8k8mklololololololom0m0m0m1m1m*m=m=m=m7m7m8m8m8pHpapap@p@rmrmrmrmssssusuauZvIv4u;v5v6jvaaa3abaaaaaaaaaaaaaaaaaaaaaaaaaaaaaaaaaaaaaaaaaaaaaaaaaaaa",
"aaaaaaaaaaaaaaaaaaaaaaaaaaaaaaaaaaaaaaaaaaaaaaaaaaaaaaaaa3aaaav7v8v9v9v#l8lololololomklolololololomklololololololololololom0m0m1m1m1m1m*m=m=m=m7m7m8m8m8m8pHpap@p@q8rmrmrmrmssssssuauZvIuDv.v.v+v@aaaaa3aaaaaaaaaaaaaaaaaaaaaaaaaaaaaaaaaaaaaaaaaaaaaaaaaaaaaaaa",
"aaaaaaaaaaaaaaaaaaaaaaaaaaaaaaaaaaaaaaaaaaaaaaaaaaaaaaaaaaabscaaaav*v=v-v9l8l@v;lololololololololololololom0lom0m0m0m0m1m1m1m*m*m=m=m=m7m7m7m8m8m8m8pHpapap@p@q8rmrmrmrmssssssuavQv:vIuEs6v>v,aaaaa3abaaaaaaaaaaaaaaaaaaaaaaaaaaaaaaaaaaaaaaaaaaaaaaaaaaaaaaaaaa",
"aaaaaaaaaaaaaaaaaaaaaaaaaaaaaaaaaaaaaaaaaaaaaaaaaaaaaaaaaaaaaaa4a4aaaav<v1l9v-m1v2l8m1m1m1m1m1m1m1m1m1m1m1m1m1m1m*m*m*m=m=m=m=m=m7m7m7m8m8m8m8pHpapap@p@q8q8rmrmrmssssssssuav3v4uZu;v.v5v6aaaac2c2aaaaaaaaaaaaaaaaaaaaaaaaaaaaaaaaaaaaaaaaaaaaaaaaaaaaaaaaaaaaaa",
"aaaaaaaaaaaaaaaaaaaaaaaaaaaaaaaaaaaaaaaaaaaaaaaaaaaaaaaaaaaaaaaaaaa3abaaaav7v8v9v0waofwbwcm=m=m=m=m*m=m=m=m=m=m=m=m7m7m7m7m7m8m8m8m8m8m8pHpHpap@p@p@rmrmrmrmrmssssssusvQwdvIweu*wfwgwhaaaaaadFaaaaaaaaaaaaaaaaaaaaaaaaaaaaaaaaaaaaaaaaaaaaaaaaaaaaaaaaaaaaaaaaaa",
"aaaaaaaaaaaaaaaaaaaaaaaaaaaaaaaaaaaaaaaaaaaaaaaaaaaaaaaaaaaaaaaaaaaaaaa3abaaaad9wiwjl9wkwlwmwnwmwcm7m7m7m7m7m7m7m8m8m8m8m8m8m8pHpHpapap@p@p@q8rmrmrmrmrmsssssswov3wpvIwqu1wrwswtwuaaaac@a3aaaaaaaaaaaaaaaaaaaaaaaaaaaaaaaaaaaaaaaaaaaaaaaaaaaaaaaaaaaaaaaaaaaaaa",
"aaaaaaaaaaaaaaaaaaaaaaaaaaaaaaaaaaaaaaaaaaaaaaaaaaaaaaaaaaaaaaaaaaaaaaaaaadFa4aaaawvwwwxwywzwAmlm=oNp0wBnwm-m8m8pHpHpHpHpapapap@p@p@p@q8rmrmrmrmrmssq3wCrIubs9uswDvJwEwFwGwHwIaaaac2dFaaaaaaaaaaaaaaaaaaaaaaaaaaaaaaaaaaaaaaaaaaaaaaaaaaaaaaaaaaaaaaaaaaaaaaaaaa",
"aaaaaaaaaaaaaaaaaaaaaaaaaaaaaaaaaaaaaaaaaaaaaaaaaaaaaaaaaaaaaaaaaaaaaaaaaaaaaac2scaaaaaawJwKwLwMv2wNwAwOwPm8o;pIpIwQwRwSp9q8q8q8rmrmrmwTq3qqq9rIrIwUrmvRrJt1wVqJwWwXwYwZaaaaaascc2aaaaaaaaaaaaaaaaaaaaaaaaaaaaaaaaaaaaaaaaaaaaaaaaaaaaaaaaaaaaaaaaaaaaaaaaaaaaaa",
"aaaaaaaaaaaaaaaaaaaaaaaaaaaaaaaaaaaaaaaaaaaaaaaaaaaaaaaaaaaaaaaaaaaaaaaaaaaaaaaaaaaba3a3aaaaaaaaw0w1w2w3w4w5o:oOoOrJw6n3w7p@rmrmrmrmrmwqq4vSwErJrJwDw8w9pJw#w.w+aaaaaaaaa3a3abaaaaaaaaaaaaaaaaaaaaaaaaaaaaaaaaaaaaaaaaaaaaaaaaaaaaaaaaaaaaaaaaaaaaaaaaaaaaaaaaaa",
"aaaaaaaaaaaaaaaaaaaaaaaaaaaaaaaaaaaaaaaaaaaaaaaaaaaaaaaaaaaaaaaaaaaaaaaaaaaaaaaaaaaaaaaaaba3a0aaaaaaaaaawJw@w*w=w-w;w:w>w,w<w1sssswCw2w3w4w5w6w7w8w9w0wZaaaaaaaaaaa0a3abaaaaaaaaaaaaaaaaaaaaaaaaaaaaaaaaaaaaaaaaaaaaaaaaaaaaaaaaaaaaaaaaaaaaaaaaaaaaaaaaaaaaaaaa"
};
