/* XPM */
static char *quarlcoin32[] = {
"32 32 543 2",
"aa c None",
"ab c #FFFF00",
"ac c #FFFF55",
"ad c #F4D628",
"ae c #F7D42C",
"af c #F5D52C",
"ag c #F3D22C",
"ah c #F2D02B",
"ai c #EFCE2A",
"aj c #EECD2A",
"ak c #EFCD2A",
"al c #F0CD29",
"am c #F1CF29",
"an c #F1CF2A",
"ao c #F4CC28",
"ap c #FFFF00",
"aq c #F3D02E",
"ar c #F6D72D",
"as c #F6D52C",
"at c #FCDA2E",
"au c #FDDB2E",
"av c #F8D62D",
"aw c #F3D22C",
"ax c #F1D02B",
"ay c #F0CF2B",
"az c #F4D22B",
"aA c #F8D52C",
"aB c #F6D22B",
"aC c #EFCC29",
"aD c #F0CD29",
"aE c #E7C528",
"aF c #FFAA55",
"aG c #CCB219",
"aH c #F7D62D",
"aI c #F7D72C",
"aJ c #FFE230",
"aK c #F7D62D",
"aL c #F2D22C",
"aM c #F3D32C",
"aN c #F2D12C",
"aO c #F2D22C",
"aP c #F2D12C",
"aQ c #F1D02C",
"aR c #F0CF2B",
"aS c #EECD2B",
"aT c #EDCC2A",
"aU c #EBCA29",
"aV c #EFCD2A",
"aW c #FAD62B",
"aX c #EECA28",
"aY c #ECCA28",
"aZ c #FFAA00",
"a0 c #EBCA2D",
"a1 c #F8D82D",
"a2 c #FFE330",
"a3 c #F4D42D",
"a4 c #F3D42C",
"a5 c #F4D42D",
"a6 c #F5D52D",
"a7 c #F3D32D",
"a8 c #F2D22C",
"a9 c #F1D12C",
"a# c #EFCE2B",
"a. c #EECC2A",
"a+ c #EBCA29",
"a@ c #EAC928",
"a* c #E9C728",
"a= c #FAD42A",
"a- c #EDC927",
"a; c #DFBF26",
"a: c #EBCD2C",
"a> c #F8D82D",
"a, c #FFDE2F",
"a< c #F3D42C",
"a1 c #F5D52D",
"a2 c #F6D62E",
"a3 c #F5D62E",
"a4 c #F5D42D",
"a5 c #F4D32D",
"a6 c #F3D22D",
"a7 c #EDCC2A",
"a8 c #ECCA29",
"a9 c #E9C728",
"a0 c #E7C527",
"ba c #F2CE29",
"bb c #ECC827",
"bc c #E1BF22",
"bd c #F1CE29",
"be c #F7D72D",
"bf c #FBDA2E",
"bg c #F3D32C",
"bh c #F7D72E",
"bi c #F7D82F",
"bj c #F7D72F",
"bk c #F9D92F",
"bl c #F8D82E",
"bm c #EECD2A",
"bn c #ECCB29",
"bo c #EBC929",
"bp c #E6C426",
"bq c #EDC928",
"br c #EAC625",
"bs c #DDBB21",
"bt c #AAAA55",
"bu c #FFE238",
"bv c #F2D22B",
"bw c #FEDD2F",
"bx c #F8D92F",
"by c #FBDC30",
"bz c #FFE131",
"bA c #F8D82F",
"bB c #EBCB2C",
"bC c #E7C62A",
"bD c #EBCA2B",
"bE c #F9D82E",
"bF c #EDCB2A",
"bG c #E8C527",
"bH c #E4C226",
"bI c #F0CB27",
"bJ c #E4C125",
"bK c #E2C61C",
"bL c #AAAA00",
"bM c #F0CF2B",
"bN c #F2D22C",
"bO c #EDCE2D",
"bP c #BF9D21",
"bQ c #A37F19",
"bR c #9C7719",
"bS c #8A6715",
"bT c #856214",
"bU c #8D6915",
"bV c #9E7B19",
"bW c #BA981F",
"bX c #E5C429",
"bY c #F5D42C",
"bZ c #ECCB2A",
"b0 c #EBCA29",
"b1 c #EAC828",
"b2 c #E8C627",
"b3 c #E6C427",
"b4 c #E3C025",
"b5 c #F5CE28",
"b6 c #DEBC24",
"b7 c #F1D12D",
"b8 c #F5D52C",
"b9 c #F4D42C",
"b# c #F3D32D",
"b. c #F5D52E",
"b+ c #F6D72E",
"b@ c #D6B527",
"b* c #967117",
"b= c #8C6714",
"b- c #926D17",
"b; c #715612",
"b: c #8E7518",
"b> c #A68C1D",
"b, c #9F811A",
"b< c #896614",
"b1 c #856113",
"b2 c #8E6B15",
"b3 c #CCAB23",
"b4 c #F5D32C",
"b5 c #E8C628",
"b6 c #E4C126",
"b7 c #E4C125",
"b8 c #E6C224",
"b9 c #DFB826",
"b0 c #FF0000",
"ca c #EECD2A",
"cb c #FFDF2F",
"cc c #F1D12C",
"cd c #F6D72F",
"ce c #FEE031",
"cf c #DAB928",
"cg c #8E6915",
"ch c #906C15",
"ci c #9B7519",
"cj c #BEA422",
"ck c #FFE432",
"cl c #FEDF30",
"cm c #FFDF30",
"cn c #CEAD24",
"co c #8A6714",
"cp c #8B6814",
"cq c #856213",
"cr c #C6A522",
"cs c #F2D12B",
"ct c #E5C226",
"cu c #E2BE24",
"cv c #F1CB27",
"cw c #DFBB22",
"cx c #F3D02E",
"cy c #EECD2A",
"cz c #F9DA2F",
"cA c #F4D52E",
"cB c #9D7919",
"cC c #977217",
"cD c #846215",
"cE c #987F1A",
"cF c #FFEA33",
"cG c #9C7A18",
"cH c #876513",
"cI c #836214",
"cJ c #D3B324",
"cK c #E7C527",
"cL c #E2BF25",
"cM c #E4C025",
"cN c #DEBA23",
"cO c #DDBC21",
"cP c #ECCD2A",
"cQ c #FAD72D",
"cR c #EFCF2B",
"cS c #D2B026",
"cT c #936F16",
"cU c #795B13",
"cV c #CEB326",
"cW c #FEE131",
"cX c #FBDB2F",
"cY c #B5931E",
"cZ c #825F12",
"c0 c #8C6A15",
"c1 c #836013",
"c2 c #9A7B19",
"c3 c #EECD29",
"c4 c #E4C226",
"c5 c #E2BF25",
"c6 c #DFBC24",
"c7 c #E8C325",
"c8 c #DDB821",
"c9 c #EECC2A",
"c# c #FAD82D",
"c. c #F0CF2B",
"c+ c #F4D42E",
"c@ c #FEDE30",
"c* c #B7941F",
"c= c #926E16",
"c- c #946F17",
"c; c #7E6114",
"c: c #E6C92B",
"c> c #FDDC30",
"c, c #C3A221",
"c< c #815E12",
"c1 c #896714",
"c2 c #896613",
"c3 c #816214",
"c4 c #D9B925",
"c5 c #ECC928",
"c6 c #E5C326",
"c7 c #E4C126",
"c8 c #E0BD24",
"c9 c #E9C325",
"c0 c #DDB922",
"da c #EDCC29",
"db c #F5D32B",
"dc c #EECE2B",
"dd c #FADA2F",
"de c #AA871C",
"df c #8C6815",
"dg c #916E16",
"dh c #906C16",
"di c #846815",
"dj c #F0D12D",
"dk c #F2D22D",
"dl c #FAD92E",
"dm c #CAA923",
"dn c #886613",
"do c #7B5C12",
"dp c #C4A621",
"dq c #EFCC29",
"dr c #DFBB24",
"ds c #E4BF24",
"dt c #DCB822",
"du c #ECCA29",
"dv c #F0CE2A",
"dw c #A6831B",
"dx c #916D16",
"dy c #8E6A15",
"dz c #886C16",
"dA c #F2D32D",
"dB c #CBAA23",
"dC c #805E11",
"dD c #795A12",
"dE c #BA9C1F",
"dF c #F0CD29",
"dG c #E3C126",
"dH c #E3C025",
"dI c #E1BE24",
"dJ c #DFBB23",
"dK c #DBB621",
"dL c #EBC929",
"dM c #8A6614",
"dN c #906D15",
"dO c #F0D22D",
"dP c #F8D82D",
"dQ c #C7A522",
"dR c #7F5D11",
"dS c #886614",
"dT c #785912",
"dU c #B99C1E",
"dV c #EFCC28",
"dW c #E1BD24",
"dX c #DDB922",
"dY c #DAB621",
"dZ c #EAC829",
"d0 c #FADA2E",
"d1 c #B9961F",
"d2 c #886413",
"d3 c #8F6C15",
"d4 c #866916",
"d5 c #EBCC2B",
"d6 c #EFCF2B",
"d7 c #F8D72D",
"d8 c #BD9B1F",
"d9 c #7E5C11",
"d# c #866413",
"d. c #886514",
"d+ c #765812",
"d@ c #C4A620",
"d* c #EDCA28",
"d= c #E0BD24",
"d- c #DEBA23",
"d; c #DCB822",
"d: c #D9B521",
"d> c #E9C728",
"d, c #EDCB29",
"d< c #F7D72D",
"d1 c #D5B425",
"d2 c #886414",
"d3 c #826314",
"d4 c #DEC028",
"d5 c #EECD2B",
"d6 c #AA881B",
"d7 c #7E5C12",
"d8 c #846312",
"d9 c #765B12",
"d0 c #DBBA24",
"ea c #E8C427",
"eb c #DFBC23",
"ec c #DDB923",
"ed c #D9B420",
"ee c #E9C728",
"ef c #EAC829",
"eg c #A2801A",
"eh c #866214",
"ei c #805E12",
"ej c #C7A923",
"ek c #F9D72D",
"el c #EDCC2B",
"em c #F0CE2B",
"en c #EAC929",
"eo c #8E6C15",
"ep c #805F12",
"eq c #7A5B13",
"er c #8F7516",
"es c #DEBB23",
"et c #DBB722",
"eu c #E0BB22",
"ev c #D9B41F",
"ew c #E8C627",
"ex c #F4D02A",
"ey c #E9C828",
"ez c #E3C128",
"eA c #886513",
"eB c #876413",
"eC c #9F7F19",
"eD c #F4D32C",
"eE c #F7D52C",
"eF c #B3921D",
"eG c #7C5B11",
"eH c #896713",
"eI c #866415",
"eJ c #6A5210",
"eK c #D7B623",
"eL c #DBB721",
"eM c #E4BE22",
"eN c #D9B41F",
"eO c #E7C527",
"eP c #E7C527",
"eQ c #F3D22B",
"eR c #DDBC27",
"eS c #906F16",
"eT c #815F13",
"eU c #AB881B",
"eV c #CEAB23",
"eW c #CAA922",
"eX c #A6851A",
"eY c #836012",
"eZ c #785913",
"e0 c #6A520F",
"e1 c #C6A720",
"e2 c #E1BE25",
"e3 c #E2BE24",
"e4 c #E0BC24",
"e5 c #D9B521",
"e6 c #E3BC22",
"e7 c #D7B31F",
"e8 c #E7C522",
"e9 c #E5C326",
"e# c #EBC828",
"e. c #E7C527",
"e+ c #E4C428",
"e@ c #AA8B1C",
"e* c #876815",
"e= c #775811",
"e- c #735310",
"e; c #7A5810",
"e: c #805F13",
"e> c #7D5F14",
"e, c #7D6213",
"e< c #977D17",
"e1 c #DABA24",
"e2 c #DAB622",
"e3 c #DDB821",
"e4 c #D8B220",
"e5 c #DDB121",
"e6 c #E4C225",
"e7 c #F7D129",
"e8 c #E9C828",
"e9 c #F2D02A",
"e0 c #E2C127",
"fa c #CAAB22",
"fb c #BEA120",
"fc c #9B7918",
"fd c #7B5A11",
"fe c #866913",
"ff c #BA9A1E",
"fg c #D6B323",
"fh c #DEBB25",
"fi c #E2BE25",
"fj c #DCB722",
"fk c #D9B420",
"fl c #E8C122",
"fm c #D7B21F",
"fn c #E9C626",
"fo c #E7C426",
"fp c #E5C326",
"fq c #E7C427",
"fr c #E7C528",
"fs c #EBC928",
"ft c #F4D12A",
"fu c #DFBD25",
"fv c #8B6A14",
"fw c #7D5B11",
"fx c #795811",
"fy c #8A6D15",
"fz c #E2BF24",
"fA c #DAB521",
"fB c #DAB620",
"fC c #DDB620",
"fD c #D8B21F",
"fE c #E0BD24",
"fF c #F6D028",
"fG c #E6C326",
"fH c #E5C327",
"fI c #EAC727",
"fJ c #D8B524",
"fK c #8C6D15",
"fL c #785811",
"fM c #7A5911",
"fN c #7B6013",
"fO c #DDBB23",
"fP c #E0BC23",
"fQ c #DBB621",
"fR c #D8B320",
"fS c #E9C122",
"fT c #D3AF1E",
"fU c #E4BF24",
"fV c #EEC927",
"fW c #E2C025",
"fX c #E7C426",
"fY c #DEBC24",
"fZ c #B4951C",
"f0 c #947717",
"f1 c #977B17",
"f2 c #D8B320",
"f3 c #E2BB21",
"f4 c #D8B21F",
"f5 c #E7C324",
"f6 c #E9C525",
"f7 c #E1BD24",
"f8 c #E6C224",
"f9 c #DBB722",
"f# c #DFB921",
"f. c #DCB520",
"f+ c #D6AE21",
"f@ c #FF7F00",
"f* c #DCBA22",
"f= c #E7C125",
"f- c #EBC625",
"f; c #E0BC23",
"f: c #E0BD24",
"f> c #DBB721",
"f, c #DCB620",
"f< c #CEAD1C",
"f1 c #E3C023",
"f2 c #F0C926",
"f3 c #DEBA23",
"f4 c #DFBB23",
"f5 c #D9B320",
"f6 c #D8B320",
"f7 c #E7BF22",
"f8 c #DCB620",
"f9 c #CDA71F",
"f0 c #CC9919",
"ga c #E3BD22",
"gb c #E3BD23",
"gc c #EDC625",
"gd c #E1BC23",
"ge c #DCB822",
"gf c #DDB922",
"gg c #DCB822",
"gh c #DAB621",
"gi c #D8B420",
"gj c #DCB621",
"gk c #DCB51F",
"gl c #DAB420",
"gm c #E2B922",
"gn c #E1BB22",
"go c #E0BB21",
"gp c #E5BF23",
"gq c #E6BF23",
"gr c #E1BB22",
"gs c #DDB822",
"gt c #DAB621",
"gu c #DAB521",
"gv c #DEB921",
"gw c #E2BC22",
"gx c #E1BA21",
"gy c #DBB41F",
"gz c #DCB61F",
"gA c #D7AF1C",
"gB c #FFFF00",
"gC c #E1BA1D",
"gD c #DFBB21",
"gE c #DEB921",
"gF c #DCB721",
"gG c #DBB420",
"gH c #D8B320",
"gI c #D8B31F",
"gJ c #DAB320",
"gK c #DBB520",
"gL c #DDB61F",
"gM c #D7B01D",
"aaaaaaaaaaaaabacaaaaadaeafagahaiajakalamanaoaaaaacabaaaaaaaaaaaa",
"aaaaaaaaaaapaaaaaqarasatauavawaxayaxazaAaBaCaDaEaaaaapaaaaaaaaaa",
"aaaaaaaaaFaaaGaHaIaJaKaLaMaNaOaPaQaRaSaTaUaVaWaXaYaGaaaZaaaaaaaa",
"aaaaaaacaaa0a1a2a3a4a5a6a6a3a3a7a8a9aya#a.a+a@a*a=a-a;aaaZaaaaaa",
"aaaaaFaaa:a>a,a<a1a2a2a2a2a3a4a5a6aPaQayaVa7a8a9a0babbbcaaaZaaaa",
"aaapaabdbebfbga2a2bhbibja2bhbkbkbla2a8a#a#bmbnboa*bpbqbrbsaaapaa",
"abbtbubvbwbga2a2bibxbjbybzbAbBbCbCbDawbEawa7bFboa*bGbHbIbJbKbLab",
"acaabMaJbNa6a2bhbxbAbzbObPbQbRbSbTbUbVbWbXbYbZb0b1b2b3b4b5b6aaaF",
"abb7b8b9b#b.b+bAbibzb@b*b=b-b;b:b>b,b<b1b2b3b4bob1b5b3b6b7b8b9b0",
"aacacbcca3b.bhcdcecfcgchcib;cjckclcmcncocpcqcrcsa*b5b3ctcucvcwaa",
"cxcybYaNa3b.a2czcAcBchcCcDcEcFb.cAb.bhcGcHcpcIcJaVcKb3ctcLcMcNcO",
"cPcQcRa8a5b.b.cmcSb=cTcCcUcVcWa3b+a7cXcYcZc0c1c2c3cKb3c4c5c6c7c8",
"c9c#c.aPa7a4c+c@c*b=c=c-c;c:c>b+a2a7cXc,c<c1c2c3c4c5c6c7c5c8c9c0",
"dadbdca9awa3a3dddedfdgdhdidjbka2b.dkdldmc<dnc2dodpdqc4c7c5drdsdt",
"dudva#axaPa7a3bldwdfdxdydzdAbhb.a3aPbEdBdCcHdndDdEdFdGdHdIdJdJdK",
"dLa7bmayaQa8dkbldedMdNbUdzdOa2a3a7aQdPdQdRcHdSdTdUdVdHdHdWdJdXdY",
"dZbna7a#ayaQaQd0d1d2d3bUd4d5a2dka8d6d7d8d9d#d.d+d@d*c5c5d=d-d;d:",
"d>d,a8a.a#ayd6d<d1d2b2dyd3d4aKaQaQd5bYd6d7d8d.d9d0eac5dIebecdXed",
"eedFefbZa7aVa#ayawegehdNeiejekela7emeneoepdneqerdVc5c5d=eseteuev",
"ewexeybobna7bmd5awezdgeAeBeCaKbYeDeEeFeGeHeIeJeKbGc5dIebeceLeMeN",
"eObaePb1boa8bZa7bZeQeReSeTcqeUeVeWeXeYeBeZe0e1bqe2e3e4d-d;e5e6e7",
"e8e9e#e.a*b1bob0bnboaxe+e@e*e=e-e;e:e>e,e<e1c5e2c5d=dJdXe2e3e4e5",
"aae6e7bpbGb5a*b1b1boe8d,e9e0fafbfcfdfefffgfhdHfid=dJecfjfkflfmaa",
"b0a;fnfofpfqcKb2b5a*a*b5frfsdqftfufvfweifxfyfzdWdJecd;fAfBfCfDb0",
"aFaafEfFb4ctfGb3fqcKcKcKcKb3fHdGfIfJfKfLfMfNfOfPecd;fQfRfSfTaaaZ",
"abbLbKfUfVfWc7c7ctctc6c6c6ctctctc5fXfYfZf0f1dJdXfjfQf2f3f4bKbLab",
"aaapaabsf5f6f7dHdHdHdHdHdHdHdHc5c5d=e3c7f8dsdXf9fQf2f#f.f+aaf@aa",
"aaaabLaaf*f=f-f;f:dIdIdIdIdIdWd=e4ebesd;f9f9f>d:fRf3f,f<aabLaaaa",
"aaaaaaaZaafDf1f2dJf3f4ebebdJdJdJd-ecdXd;f>d:f5f6f7f8f9aaaZaaaaaa",
"aaaaaaaaaZaaf0gagbgcgdgegfggggd;d;etfAghgigjf7gkglf0aaaZaaaaaaaa",
"aaaaaaaaaaf@aaaagmgngogpgqgrgsgtgufQgvgwgxgygzgAaaaaf@aaaaaaaaaa",
"aaaaaaaaaaaaabgBaaaagCgDgEgFgGgigHgIgJgKgLgMaaaaaZabaaaaaaaaaaaa"
};
