/* XPM */
static char *quarlcoin16[] = {
"16 16 209 2",
"aa c None",
"ab c #FFFF00",
"ac c #F6D32B",
"ad c #F8D72D",
"ae c #F5D42C",
"af c #F0D02B",
"ag c #EFCE2A",
"ah c #F1CF2A",
"ai c #F2CF29",
"aj c #EDCB26",
"ak c #DFBF1F",
"al c #F6D52C",
"am c #F8D92D",
"an c #FFDE2F",
"ao c #F7D62D",
"ap c #F2D12C",
"aq c #F0CF2B",
"ar c #F2D02B",
"as c #F8D42B",
"at c #F0CD29",
"au c #EAC827",
"av c #FFAA55",
"aw c #FFDF1F",
"ax c #F5D52C",
"ay c #FFE831",
"az c #F4D52E",
"aA c #F6D72E",
"aB c #FCDD30",
"aC c #FFDF30",
"aD c #FDDD2F",
"aE c #F7D72D",
"aF c #EECD2A",
"aG c #E9C829",
"aH c #FDD82B",
"aI c #E6C325",
"aJ c #AAAA00",
"aK c #F1D02C",
"aL c #F4D52E",
"aM c #FADB30",
"aN c #F8D82F",
"aO c #D5B326",
"aP c #B6951F",
"aQ c #B3911E",
"aR c #CBA923",
"aS c #EFCE2B",
"aT c #EFCD2A",
"aU c #E6C426",
"aV c #FBD52A",
"aW c #E0BC23",
"aX c #F1D029",
"aY c #F5D42C",
"aZ c #F5D52D",
"a0 c #F9D92F",
"a1 c #F3D32E",
"a2 c #A9851C",
"a3 c #815E13",
"a4 c #AA8D1E",
"a5 c #CBAD25",
"a6 c #957217",
"a7 c #9B7818",
"a8 c #E6C428",
"a9 c #EBC928",
"a# c #E6C326",
"a. c #E5C125",
"a+ c #DFBA24",
"a@ c #EFCE29",
"a* c #FEDB2E",
"a= c #F2D22C",
"a- c #FEDF30",
"a; c #BE9C21",
"a: c #835E12",
"a> c #A1841C",
"a, c #FFE331",
"a< c #FFE632",
"a1 c #D2B025",
"a2 c #7A5710",
"a3 c #A2821A",
"a4 c #EDCB29",
"a5 c #E4C226",
"a6 c #EDC726",
"a7 c #DEB923",
"a8 c #EECC2A",
"a9 c #F5D42C",
"a0 c #F3D32D",
"ba c #F7D72E",
"bb c #A4811A",
"bc c #846013",
"bd c #BA9D21",
"be c #FEDE30",
"bf c #F6D62E",
"bg c #DCBB27",
"bh c #866313",
"bi c #846413",
"bj c #D8B825",
"bk c #E8C527",
"bl c #E4C025",
"bm c #DDB922",
"bn c #ECCB29",
"bo c #F2D22C",
"bp c #F3D32D",
"bq c #A07D1A",
"br c #835F13",
"bs c #BEA022",
"bt c #FDDC2F",
"bu c #F6D52D",
"bv c #856313",
"bw c #806013",
"bx c #CEAE23",
"by c #E9C627",
"bz c #DFBC24",
"bA c #DCB822",
"bB c #EAC928",
"bC c #EECC2A",
"bD c #F7D72D",
"bE c #AC891C",
"bF c #7E5B12",
"bG c #BA9B20",
"bH c #F9D92E",
"bI c #F5D42D",
"bJ c #D2B124",
"bK c #815E12",
"bL c #816213",
"bM c #D6B524",
"bN c #E6C326",
"bO c #DEBB23",
"bP c #DBB721",
"bQ c #E8C728",
"bR c #EBCA2A",
"bS c #F4D32C",
"bT c #DAB826",
"bU c #836013",
"bV c #9B7A18",
"bW c #F6D52C",
"bX c #F8D62C",
"bY c #AB891B",
"bZ c #704F0F",
"b0 c #9A7C18",
"b1 c #DFBC24",
"b2 c #E1BC23",
"b3 c #DAB520",
"b4 c #E7C326",
"b5 c #F4D02A",
"b6 c #EAC828",
"b7 c #EBC929",
"b8 c #F3D12B",
"b9 c #D0AF24",
"b# c #8F6F16",
"b. c #9C7C19",
"b+ c #9C7A18",
"b@ c #836414",
"b* c #A0831A",
"b= c #DEBD25",
"b- c #DDBA23",
"b; c #E6BF23",
"b: c #D8B320",
"b> c #E7C225",
"b, c #E9C527",
"b< c #E8C627",
"b1 c #E8C628",
"b2 c #E7C628",
"b3 c #D2B223",
"b4 c #9A7917",
"b5 c #826212",
"b6 c #B2911C",
"b7 c #E2BF25",
"b8 c #DDB922",
"b9 c #DCB621",
"b0 c #D6B11F",
"ca c #E0BE25",
"cb c #F9D329",
"cc c #E4C125",
"cd c #E5C326",
"ce c #E7C427",
"cf c #EDCA28",
"cg c #A48319",
"ch c #896B14",
"ci c #D9B622",
"cj c #DDB821",
"ck c #EDC523",
"cl c #D6B01E",
"cm c #E2BE24",
"cn c #F6CF28",
"co c #E1BE25",
"cp c #E2BF25",
"cq c #E0BD24",
"cr c #E1BE24",
"cs c #DFBB23",
"ct c #DAB621",
"cu c #EDC423",
"cv c #D9B320",
"cw c #BF9F1F",
"cx c #E1BD23",
"cy c #E4BE23",
"cz c #E9C325",
"cA c #E2BD24",
"cB c #DEBA23",
"cC c #DDB822",
"cD c #DEB922",
"cE c #E4BE22",
"cF c #DEB720",
"cG c #DBB520",
"cH c #E0B922",
"cI c #E1BB22",
"cJ c #DEB822",
"cK c #DAB520",
"cL c #DAB420",
"cM c #DBB520",
"cN c #DCB61F",
"cO c #D4B21D",
"aaabaaaaacadaeafagahaiajaaaaabaa",
"abaaakalamanaoapaqarasatauakaaab",
"avawaxayazaAaBaCaDaEaFaGaHaIakaJ",
"aaaKayaLaMaNaOaPaQaRaSaTaUaVaWaa",
"aXaYaZa0a1a2a3a4a5a6a7a8a9a#a.a+",
"a@a*a=a-a;a:a>a,a<a1a2a3a4a5a6a7",
"a8a9a0babbbcbdbebfbgbhbibjbkblbm",
"bnaqbobpbqbrbsbtbubgbvbwbxbybzbA",
"bBbCaSbDbEbFbGbHbIbJbKbLbMbNbObP",
"bQaTbRbSbTbUbVbWbXbYbZb0byb1b2b3",
"b4b5b6b7b8b9b#b.b+b@b*b=blb-b;b:",
"b>b,b<b1b1aTb2b3b4b5b6b7bOb8b9b0",
"aacacbccbNcdcecfbNcgchcicjckclaa",
"aJakcmcncocpcocqcra.csctcucvakaJ",
"abaacwcxcyczcAcBcCcDcEcFcGcwaaab",
"aaabaaaacHcIcJcKcLcMcNcOaaaaabaa"
};
