/* XPM */
static char *quarlcoin64[] = {
"64 64 1051 2",
"aa c None",
"ab c #FFFF00",
"ac c #FFBF3F",
"ad c #F8D72D",
"ae c #F9D72D",
"af c #F5D32B",
"ag c #F2D12A",
"ah c #F0CF2B",
"ai c #F0CF2B",
"aj c #EFCD2B",
"ak c #EDCC2A",
"al c #EECC2A",
"am c #EECD2A",
"an c #EFCD2A",
"ao c #EFCD29",
"ap c #F0CE29",
"aq c #F0CF2A",
"ar c #FFFF55",
"as c #FFFF00",
"at c #F6D52D",
"au c #F7D62C",
"av c #F5D42B",
"aw c #F3D22B",
"ax c #FAD82D",
"ay c #FDDB2D",
"az c #F6D52C",
"aA c #F3D22C",
"aB c #F1CF2B",
"aC c #EFCE2B",
"aD c #F4D22B",
"aE c #F7D42C",
"aF c #F9D62C",
"aG c #F6D32B",
"aH c #EDCC29",
"aI c #EECC2A",
"aJ c #F2CE2A",
"aK c #F2D129",
"aL c #F3D22C",
"aM c #F8D72E",
"aN c #F6D52C",
"aO c #FBD92E",
"aP c #FFE02F",
"aQ c #FCDA2E",
"aR c #F0D02C",
"aS c #F0D02B",
"aT c #F0CF2B",
"aU c #EFCF2B",
"aV c #F0CF2B",
"aW c #F0CF2B",
"aX c #EECD2B",
"aY c #EDCC2A",
"aZ c #ECCB2A",
"a0 c #ECCA29",
"a1 c #EECC29",
"a2 c #F5D22B",
"a3 c #FCD82C",
"a4 c #F3D02A",
"a5 c #EFCD29",
"a6 c #EFCC29",
"a7 c #E9C92A",
"a8 c #E7D02E",
"a9 c #F9D82E",
"a# c #F7D62C",
"a. c #FBD92D",
"a+ c #F0D02C",
"a@ c #F1D12B",
"a* c #F1D12C",
"a= c #F2D12C",
"a- c #F2D12C",
"a; c #F1D12C",
"a: c #F1D02C",
"a> c #F1D02B",
"a, c #EECD2A",
"a< c #EDCC2A",
"a1 c #ECCB2A",
"a2 c #EBCA29",
"a3 c #EBCA28",
"a4 c #E9C729",
"a5 c #F2CF2A",
"a6 c #FAD52B",
"a7 c #EECB29",
"a8 c #EFCB28",
"a9 c #E7C522",
"a0 c #BFBF3F",
"ba c #F7D62D",
"bb c #F8D72D",
"bc c #FFE12F",
"bd c #F6D52D",
"be c #F2D22C",
"bf c #F2D22C",
"bg c #F3D22D",
"bh c #F3D32D",
"bi c #F2D22C",
"bj c #F0D02B",
"bk c #EECC2A",
"bl c #EDCB2A",
"bm c #ECCA29",
"bn c #EBC929",
"bo c #EAC829",
"bp c #E9C827",
"bq c #F9D42B",
"br c #EECA27",
"bs c #EECA28",
"bt c #EDCF29",
"bu c #F8D82D",
"bv c #F7D62D",
"bw c #F2D22D",
"bx c #F4D32D",
"by c #ECCB2A",
"bz c #EAC829",
"bA c #E9C728",
"bB c #E8C627",
"bC c #ECC928",
"bD c #F8D32A",
"bE c #EDC927",
"bF c #E2BF22",
"bG c #FFFF00",
"bH c #000000",
"bI c #F4D42D",
"bJ c #F9D92D",
"bK c #FFDE2F",
"bL c #F4D42D",
"bM c #ECCB29",
"bN c #EAC828",
"bO c #E9C728",
"bP c #E7C528",
"bQ c #E7C526",
"bR c #F3CF29",
"bS c #EECA27",
"bT c #E9C527",
"bU c #F5D52D",
"bV c #FFDF2F",
"bW c #F5D52D",
"bX c #F1D22C",
"bY c #F5D42D",
"bZ c #F5D52E",
"b0 c #EBCA29",
"b1 c #EAC929",
"b2 c #E8C627",
"b3 c #E5C426",
"b4 c #F5D029",
"b5 c #E7C427",
"b6 c #7F7F00",
"b7 c #F5D62D",
"b8 c #FFE330",
"b9 c #F3D32C",
"b# c #F6D62E",
"b. c #E8C628",
"b+ c #E8C527",
"b@ c #E6C327",
"b* c #E6C326",
"b= c #F8D229",
"b- c #E8C427",
"b; c #CCCC33",
"b: c #F4D42C",
"b> c #FFE22F",
"b, c #F2D22C",
"b< c #F6D72E",
"b1 c #F7D72E",
"b2 c #E7C527",
"b3 c #E6C427",
"b4 c #E4C225",
"b5 c #F6D129",
"b6 c #E8C426",
"b7 c #FF7F00",
"b8 c #F4D32D",
"b9 c #F2D22B",
"b0 c #E6C326",
"ca c #E4C125",
"cb c #F6D028",
"cc c #E5C125",
"cd c #F0D02B",
"ce c #F7D82F",
"cf c #F8D82F",
"cg c #F4D42E",
"ch c #F2D22D",
"ci c #E9C628",
"cj c #E7C427",
"ck c #E5C226",
"cl c #E3C025",
"cm c #E2BE25",
"cn c #EECE2B",
"co c #F3D32B",
"cp c #F8D92F",
"cq c #F7D72F",
"cr c #F6D72F",
"cs c #FADA2F",
"ct c #FBDC2F",
"cu c #FCDC2F",
"cv c #FBDC30",
"cw c #FBDB2E",
"cx c #F8D92E",
"cy c #EFCD2B",
"cz c #E4C126",
"cA c #E4C025",
"cB c #F2CC28",
"cC c #DFBC25",
"cD c #F8D62E",
"cE c #F6D62C",
"cF c #F6D52C",
"cG c #F1D12C",
"cH c #F9D92F",
"cI c #FFE030",
"cJ c #FFE031",
"cK c #EECD2D",
"cL c #E3C32A",
"cM c #DCBB28",
"cN c #D7B627",
"cO c #DAB928",
"cP c #E1C028",
"cQ c #EACA2B",
"cR c #FAD92E",
"cS c #F8D72D",
"cT c #E5C326",
"cU c #E4C226",
"cV c #E2BF25",
"cW c #E6C325",
"cX c #E8C325",
"cY c #DFBF26",
"cZ c #FFAA55",
"c0 c #F0D02A",
"c1 c #FEDC2F",
"c2 c #F9DA2F",
"c3 c #FADA30",
"c4 c #FFE232",
"c5 c #D9B828",
"c6 c #B9971F",
"c7 c #A3801A",
"c8 c #977217",
"c9 c #8E6A15",
"c# c #8B6714",
"c. c #8A6614",
"c+ c #8A6714",
"c@ c #8D6915",
"c* c #937016",
"c= c #9F7C19",
"c- c #B5921E",
"c; c #D3B225",
"c: c #EFCF2C",
"c> c #EECD2B",
"c, c #E4C125",
"c< c #E1BF25",
"c1 c #EEC927",
"c2 c #E0BD24",
"c3 c #FFAA00",
"c4 c #F0D029",
"c5 c #F0D02B",
"c6 c #F8D830",
"c7 c #FEDF31",
"c8 c #FADB30",
"c9 c #CDAC25",
"c0 c #A07B1A",
"da c #8D6814",
"db c #8E6915",
"dc c #8F6B15",
"dd c #9B7619",
"de c #A17B1C",
"df c #9D781B",
"dg c #99741A",
"dh c #987319",
"di c #967217",
"dj c #916D15",
"dk c #876413",
"dl c #886414",
"dm c #997718",
"dn c #C6A422",
"do c #F3D32C",
"dp c #E3C025",
"dq c #E1BD24",
"dr c #F2CB27",
"ds c #DFBB24",
"dt c #FFD42A",
"du c #F1D12B",
"dv c #F6D52D",
"dw c #E8C92C",
"dx c #A5821B",
"dy c #8C6715",
"dz c #906C16",
"dA c #957116",
"dB c #926E16",
"dC c #967117",
"dD c #A47F1E",
"dE c #846417",
"dF c #5D440D",
"dG c #58410C",
"dH c #60490E",
"dI c #68500F",
"dJ c #725611",
"dK c #826013",
"dL c #8E6B15",
"dM c #856113",
"dN c #9E7B19",
"dO c #DFBE28",
"dP c #F5D42C",
"dQ c #E2BF25",
"dR c #E6C225",
"dS c #E1BE23",
"dT c #D8BF26",
"dU c #EFCE2A",
"dV c #FFDF2E",
"dW c #DDBD29",
"dX c #947017",
"dY c #8F6A16",
"dZ c #957117",
"d0 c #947016",
"d1 c #916D16",
"d2 c #A17D1F",
"d3 c #59420C",
"d4 c #4B3807",
"d5 c #968019",
"d6 c #CBB025",
"d7 c #DDC028",
"d8 c #DBBE28",
"d9 c #C9AE24",
"d# c #A78C1D",
"d. c #8B6A15",
"d+ c #8B6815",
"d@ c #8D6A15",
"d* c #876414",
"d= c #8C6914",
"d- c #D4B225",
"d; c #EBCA2A",
"d: c #E2BF25",
"d> c #E0BC23",
"d, c #F1CA26",
"d< c #E0BC22",
"d1 c #F2CC26",
"d2 c #F1CF2A",
"d3 c #F4D32C",
"d4 c #FFE032",
"d5 c #E1C12A",
"d6 c #926D16",
"d7 c #936F16",
"d8 c #A47F1F",
"d9 c #553E0B",
"d0 c #604C0C",
"ea c #E6CA2C",
"eb c #FFE733",
"ec c #FDDC2F",
"ed c #FFDE30",
"ee c #E6C72A",
"ef c #987517",
"eg c #8C6915",
"eh c #8D6A14",
"ei c #896613",
"ej c #896614",
"ek c #D1AF24",
"el c #F4D32C",
"em c #E6C327",
"en c #E0BD24",
"eo c #E3BF25",
"ep c #E1BC23",
"eq c #DAB624",
"er c #FFFF3F",
"es c #F1D02C",
"et c #FFDE2E",
"eu c #EFCF2B",
"ev c #F1D22E",
"ew c #9A7719",
"ex c #916C16",
"ey c #957017",
"ez c #936E16",
"eA c #A07A1B",
"eB c #775A14",
"eC c #4F3D08",
"eD c #EDD02D",
"eE c #FFE231",
"eF c #F4D52E",
"eG c #F6D62F",
"eH c #F5D62E",
"eI c #FEDE2F",
"eJ c #D1AF25",
"eK c #866314",
"eL c #8B6814",
"eM c #8B6914",
"eN c #866414",
"eO c #CFB024",
"eP c #F3D12B",
"eQ c #E1BE24",
"eR c #DFBB23",
"eS c #EFC926",
"eT c #E0BB22",
"eU c #EECE2A",
"eV c #F8D62D",
"eW c #B89520",
"eX c #8D6715",
"eY c #9F7A1D",
"eZ c #483307",
"e0 c #B79C21",
"e1 c #9B7818",
"e2 c #886413",
"e3 c #8A6814",
"e4 c #886514",
"e5 c #876715",
"e6 c #DEBE27",
"e7 c #F0CD2A",
"e8 c #DFBC24",
"e9 c #E7C224",
"e# c #DDB922",
"e. c #F1CE2B",
"e+ c #F8D62C",
"e@ c #EFCE2B",
"e* c #FDDE30",
"e= c #E5C52A",
"e- c #997418",
"e; c #826317",
"e: c #5B480B",
"e> c #F8D930",
"e, c #FBDB2F",
"e< c #BA981F",
"e1 c #836012",
"e2 c #826014",
"e3 c #987C19",
"e4 c #F1D02A",
"e5 c #E9C729",
"e6 c #E0BC24",
"e7 c #DEBB23",
"e8 c #E7C224",
"e9 c #DDBB22",
"e0 c #EECD2A",
"fa c #FFDD2E",
"fb c #EFCE2A",
"fc c #FFE131",
"fd c #BD9A21",
"fe c #8C6815",
"ff c #644A0F",
"fg c #907917",
"fh c #F9D92E",
"fi c #D4B325",
"fj c #856213",
"fk c #896714",
"fl c #876614",
"fm c #785A13",
"fn c #C9AC22",
"fo c #DEBA23",
"fp c #EFC826",
"fq c #DEB822",
"fr c #EECD2A",
"fs c #EECE2B",
"ft c #9F7B19",
"fu c #906C15",
"fv c #9E791C",
"fw c #563F0B",
"fx c #BFA422",
"fy c #FFE432",
"fz c #F7D62E",
"fA c #E5C429",
"fB c #886614",
"fC c #8A6713",
"fD c #805F14",
"fE c #947918",
"fF c #E7C528",
"fG c #E1BD24",
"fH c #DDB922",
"fI c #F1CE29",
"fJ c #EECD2A",
"fK c #EFCE2B",
"fL c #FCDC30",
"fM c #E4C32A",
"fN c #98741B",
"fO c #57420B",
"fP c #DEC229",
"fQ c #FFDF30",
"fR c #EECE2B",
"fS c #947216",
"fT c #866413",
"fU c #876513",
"fV c #866412",
"fW c #755B12",
"fX c #E2C227",
"fY c #EBC928",
"fZ c #E2BE25",
"f0 c #DEBB23",
"f1 c #DFBB23",
"f2 c #DDB921",
"f3 c #DEB720",
"f4 c #EECC2A",
"f5 c #FEDE30",
"f6 c #D2B026",
"f7 c #8C6714",
"f8 c #906D19",
"f9 c #604B0D",
"f# c #F0D22D",
"f. c #9C7918",
"f+ c #856312",
"f@ c #8F6B16",
"f* c #6D5211",
"f= c #C5A720",
"f- c #F1CE2A",
"f; c #E3BF25",
"f: c #DDB923",
"f> c #E6C023",
"f, c #DEB720",
"f< c #EDCC29",
"f1 c #FAD72C",
"f2 c #EDCC29",
"f3 c #FEDF30",
"f4 c #C4A222",
"f5 c #8B6614",
"f6 c #946F16",
"f7 c #896717",
"f8 c #6A550F",
"f9 c #A27F1A",
"f0 c #836113",
"ga c #846313",
"gb c #6F5312",
"gc c #AA8F1B",
"gd c #E0BD24",
"ge c #DFBC24",
"gf c #DDB922",
"gg c #E8C224",
"gh c #DDB821",
"gi c #ECCB29",
"gj c #BC9A20",
"gk c #8F6C15",
"gl c #856316",
"gm c #735D11",
"gn c #FEDE31",
"go c #F6D62D",
"gp c #A5831B",
"gq c #825F13",
"gr c #856313",
"gs c #745613",
"gt c #967C17",
"gu c #E5C327",
"gv c #DFBC23",
"gw c #DEBA23",
"gx c #DCB922",
"gy c #E5C023",
"gz c #DBB622",
"gA c #ECC929",
"gB c #FDDD30",
"gC c #B8961F",
"gD c #826215",
"gE c #796313",
"gF c #A6841B",
"gG c #815F12",
"gH c #886613",
"gI c #846213",
"gJ c #775914",
"gK c #8A7115",
"gL c #F4D12A",
"gM c #DCB822",
"gN c #E2BD23",
"gO c #DBB722",
"gP c #EBCA29",
"gQ c #F0CE2A",
"gR c #B99620",
"gS c #816115",
"gT c #7C6613",
"gU c #F0D02C",
"gV c #A5831A",
"gW c #846C14",
"gX c #F4D02A",
"gY c #DFBA22",
"gZ c #DBB621",
"g0 c #EBC929",
"g1 c #EDCB29",
"g2 c #BE9C20",
"g3 c #896514",
"g4 c #826216",
"g5 c #7C6513",
"g6 c #F0CF2C",
"g7 c #F4D42C",
"g8 c #A28019",
"g9 c #836213",
"g# c #755713",
"g. c #856D13",
"g+ c #E5C227",
"g@ c #DCB822",
"g* c #DAB620",
"g= c #EAC829",
"g- c #C8A723",
"g; c #916E16",
"g: c #906D15",
"g> c #856416",
"g, c #796213",
"g< c #FCDB2F",
"g1 c #9C7A18",
"g2 c #826012",
"g3 c #6E5212",
"g4 c #8C7315",
"g5 c #E4C227",
"g6 c #DDB922",
"g7 c #DBB722",
"g8 c #DAB621",
"g9 c #E9C828",
"g0 c #F2D12D",
"ha c #D8B727",
"hb c #755E12",
"hc c #836112",
"hd c #937017",
"he c #63490F",
"hf c #9D8218",
"hg c #DBB621",
"hh c #DAB521",
"hi c #EAC828",
"hj c #E9C82B",
"hk c #8E6B17",
"hl c #705811",
"hm c #EECF2C",
"hn c #EFCF2B",
"ho c #E6C529",
"hp c #805F11",
"hq c #957219",
"hr c #B79A1D",
"hs c #F0CD29",
"ht c #DEB923",
"hu c #DDB822",
"hv c #DBB721",
"hw c #D9B520",
"hx c #E9C727",
"hy c #A8861B",
"hz c #926E17",
"hA c #6D5310",
"hB c #E0C228",
"hC c #F8D72E",
"hD c #D7B625",
"hE c #866313",
"hF c #836212",
"hG c #8E6C19",
"hH c #523E09",
"hI c #D7B624",
"hJ c #EAC728",
"hK c #DBB622",
"hL c #DDB821",
"hM c #DAB421",
"hN c #E9C728",
"hO c #F8D82E",
"hP c #CDAB24",
"hQ c #876313",
"hR c #6F5311",
"hS c #C8AC23",
"hT c #FBDA2E",
"hU c #EDCC2B",
"hV c #F6D42C",
"hW c #C09F20",
"hX c #7D5B11",
"hY c #866513",
"hZ c #805E11",
"h0 c #715513",
"h1 c #6A550D",
"h2 c #EECB29",
"h3 c #DCB722",
"h4 c #DAB521",
"h5 c #DAB420",
"h6 c #E8C627",
"h7 c #F3CF2A",
"h8 c #E9C728",
"h9 c #795A12",
"h# c #A98E1D",
"h. c #A17F19",
"h+ c #7F5D12",
"h@ c #856413",
"h* c #9A771C",
"h= c #4A3508",
"h- c #A88C1B",
"h; c #F1CE29",
"h: c #DDB923",
"h> c #DAB521",
"h, c #E3BC22",
"h< c #D8B420",
"h1 c #E7C527",
"h2 c #F5D12A",
"h3 c #E8C728",
"h4 c #D2B125",
"h5 c #896E16",
"h6 c #DDBB26",
"h7 c #846212",
"h8 c #7D5C10",
"h9 c #97731A",
"h0 c #725613",
"ia c #57430A",
"ib c #E6C426",
"ic c #D9B521",
"id c #E5BE22",
"ie c #D8B31F",
"if c #E8C627",
"ig c #E7C628",
"ih c #EFCD2A",
"ii c #B7951F",
"ij c #836013",
"ik c #7B5C12",
"il c #D2B425",
"im c #ECCA2A",
"in c #F5D32C",
"io c #A6841A",
"ip c #7E5C12",
"iq c #7D5D10",
"ir c #8E6B16",
"is c #906F1B",
"it c #3D2B04",
"iu c #B2951D",
"iv c #F0CC28",
"iw c #D8B421",
"ix c #E2BB22",
"iy c #D8B420",
"iz c #E4C228",
"iA c #E7C527",
"iB c #E8C628",
"iC c #AE8B1C",
"iD c #846012",
"iE c #8C6A14",
"iF c #9C7E19",
"iG c #F2D02C",
"iH c #F0CE2B",
"iI c #BC9A1F",
"iJ c #7E5D12",
"iK c #8F6C16",
"iL c #98751C",
"iM c #412E06",
"iN c #856D14",
"iO c #F0CC29",
"iP c #E3C126",
"iQ c #D8B31F",
"iR c #E6C327",
"iS c #F1CD29",
"iT c #E7C527",
"iU c #F3D22B",
"iV c #AA891C",
"iW c #815E13",
"iX c #AE8D1C",
"iY c #E3C228",
"iZ c #E1BF27",
"i0 c #AD8B1C",
"i1 c #805E12",
"i2 c #7F5E11",
"i3 c #816011",
"i4 c #98741A",
"i5 c #8F6E1A",
"i6 c #765F11",
"i7 c #D9B421",
"i8 c #E2BB21",
"i9 c #D7B21F",
"i# c #AAAA00",
"i. c #E7C426",
"i+ c #E6C526",
"i@ c #AD8E1D",
"i* c #7E5E13",
"i= c #9E7C18",
"i- c #AA881B",
"i; c #A9881B",
"i: c #9D7B18",
"i> c #7C5A11",
"i, c #806011",
"i< c #866312",
"i1 c #936F18",
"i2 c #99761C",
"i3 c #6F5412",
"i4 c #3E2C05",
"i5 c #886F14",
"i6 c #EBC828",
"i7 c #E7C426",
"i8 c #E2BE24",
"i9 c #D8B320",
"i0 c #E8C122",
"ja c #D9B320",
"jb c #E5C226",
"jc c #EFCB28",
"jd c #E6C427",
"je c #C4A622",
"jf c #856915",
"jg c #795A13",
"jh c #856215",
"ji c #7F5E12",
"jj c #957119",
"jk c #8D6B19",
"jl c #483408",
"jm c #5A460A",
"jn c #B6991E",
"jo c #D9B521",
"jp c #D8B320",
"jq c #E1BA21",
"jr c #D8B222",
"js c #E4C225",
"jt c #EECA28",
"ju c #E5C327",
"jv c #E9C828",
"jw c #B79A1E",
"jx c #876D15",
"jy c #715711",
"jz c #745712",
"jA c #7C5D14",
"jB c #7B5C13",
"jC c #826112",
"jD c #886716",
"jE c #6B5211",
"jF c #57410C",
"jG c #513D09",
"jH c #6D570E",
"jI c #AC901B",
"jJ c #EECB28",
"jK c #E3C026",
"jL c #D8B420",
"jM c #DFB921",
"jN c #D6B21F",
"jO c #FFBF00",
"jP c #E6C325",
"jQ c #F6D029",
"jR c #E5C325",
"jS c #E9C829",
"jT c #F5D32B",
"jU c #F1CF2A",
"jV c #D8B925",
"jW c #B99D1F",
"jX c #9D8319",
"jY c #897115",
"jZ c #7F6712",
"j0 c #876714",
"j1 c #7E5D10",
"j2 c #6F540E",
"j3 c #A98C1A",
"j4 c #DDBD25",
"j5 c #F7D32B",
"j6 c #F8D42B",
"j7 c #E9C626",
"j8 c #D9B421",
"j9 c #D8B21F",
"j# c #E7BF22",
"j. c #D8B320",
"j+ c #E5BF26",
"j@ c #E6C326",
"j* c #E8C527",
"j= c #E4C226",
"j- c #E8C728",
"j; c #EFCC29",
"j: c #D7B524",
"j> c #816012",
"j, c #A9871A",
"j< c #B18F1C",
"j1 c #B4921C",
"j2 c #C2A021",
"j3 c #D8B320",
"j4 c #DBB520",
"j5 c #D8B320",
"j6 c #E4C124",
"j7 c #E3C125",
"j8 c #E6C428",
"j9 c #EFCD29",
"j0 c #BA981E",
"ka c #7A5810",
"kb c #7E5D11",
"kc c #7B5A11",
"kd c #795810",
"ke c #785711",
"kf c #765713",
"kg c #977C17",
"kh c #ECC827",
"ki c #D9B420",
"kj c #D7B220",
"kk c #D7B11E",
"kl c #BF7F00",
"km c #E4C928",
"kn c #E6C224",
"ko c #E9C526",
"kp c #E4C126",
"kq c #ECCA28",
"kr c #7A5911",
"ks c #826113",
"kt c #7A5B14",
"ku c #786111",
"kv c #ECC726",
"kw c #DCB620",
"kx c #D9B31F",
"ky c #D8B219",
"kz c #E1BF24",
"kA c #F4CE28",
"kB c #E2C024",
"kC c #ECC927",
"kD c #AB8A1C",
"kE c #795911",
"kF c #7C5C10",
"kG c #826011",
"kH c #7E6611",
"kI c #EBC626",
"kJ c #DEBB24",
"kK c #D8B320",
"kL c #D6B120",
"kM c #E6BF21",
"kN c #D6B01E",
"kO c #E2BF25",
"kP c #EFCA27",
"kQ c #E2BF24",
"kR c #E9C627",
"kS c #B0911C",
"kT c #785B13",
"kU c #7A5A13",
"kV c #846314",
"kW c #806116",
"kX c #7E6511",
"kY c #EAC526",
"kZ c #DDBA23",
"k0 c #D6B220",
"k1 c #D5B01E",
"k2 c #E4C427",
"k3 c #E8C425",
"k4 c #E1BE25",
"k5 c #EBC726",
"k6 c #CEAD21",
"k7 c #967A17",
"k8 c #745B11",
"k9 c #695010",
"k# c #6C5111",
"k. c #533C0B",
"k+ c #775F10",
"k@ c #E9C425",
"k* c #DCB923",
"k= c #D6B120",
"k- c #DAB51F",
"k; c #DBB520",
"k: c #D3AE1F",
"k> c #DFBC22",
"k, c #F1CB27",
"k< c #E2BF24",
"k1 c #E4C025",
"k2 c #E0BD25",
"k3 c #E7C326",
"k4 c #DCBA23",
"k5 c #C6A61F",
"k6 c #B3951B",
"k7 c #A78B19",
"k8 c #BF9F1D",
"k9 c #D7B220",
"k0 c #D7B21F",
"la c #E5BD21",
"lb c #D4B01F",
"lc c #E0BD23",
"ld c #F3CD27",
"le c #E0BD23",
"lf c #E6C125",
"lg c #E8C325",
"lh c #E4BF24",
"li c #D8B220",
"lj c #D6B11F",
"lk c #E8BF22",
"ll c #D4AF1F",
"lm c #BFBF00",
"ln c #FF0000",
"lo c #E2BD23",
"lp c #F2CC27",
"lq c #E0BC23",
"lr c #DBB822",
"ls c #E7BF21",
"lt c #D8B11F",
"lu c #CC9933",
"lv c #E3BE23",
"lw c #DFBB23",
"lx c #E7BE21",
"ly c #DAB31F",
"lz c #E2BE24",
"lA c #F1CB26",
"lB c #DEBB24",
"lC c #D6B11F",
"lD c #D8B31F",
"lE c #AAAA2A",
"lF c #E2BD23",
"lG c #EDC725",
"lH c #E1BD23",
"lI c #DDBA23",
"lJ c #D6B11F",
"lK c #D8B21F",
"lL c #E4BC21",
"lM c #D9B21F",
"lN c #DFBB21",
"lO c #E5C023",
"lP c #EAC425",
"lQ c #DDB922",
"lR c #DDB923",
"lS c #D6B01F",
"lT c #E1BA20",
"lU c #DCB520",
"lV c #D8B11E",
"lW c #DCB922",
"lX c #E3BE23",
"lY c #EDC625",
"lZ c #DCB822",
"l0 c #D8B420",
"l1 c #D6B220",
"l2 c #DAB420",
"l3 c #DBB51F",
"l4 c #D1AF1C",
"l5 c #E2BC23",
"l6 c #E2BD23",
"l7 c #ECC524",
"l8 c #E0BB23",
"l9 c #DCB721",
"l# c #DCB822",
"l. c #D7B220",
"l+ c #DBB620",
"l@ c #D9B420",
"l* c #DDB121",
"l= c #E2BC22",
"l- c #E0BB22",
"l; c #EBC424",
"l: c #E3BE23",
"l> c #DAB622",
"l, c #DBB721",
"l< c #DBB722",
"l1 c #DBB722",
"l2 c #D7B320",
"l3 c #D5B020",
"l4 c #DEB720",
"l5 c #DBB51F",
"l6 c #DBB520",
"l7 c #D2B121",
"l8 c #DFBF1F",
"l9 c #E0BC22",
"l0 c #E0BB21",
"ma c #E4BE22",
"mb c #E4BE23",
"mc c #DCB821",
"md c #DAB621",
"me c #DAB621",
"mf c #D9B521",
"mg c #D9B420",
"mh c #D8B320",
"mi c #E0B921",
"mj c #E6BE22",
"mk c #DFB820",
"ml c #DAB41F",
"mm c #DAB620",
"mn c #D6B71E",
"mo c #E2BD20",
"mp c #E0B920",
"mq c #DDB821",
"mr c #DCB721",
"ms c #E5BE23",
"mt c #E2BC22",
"mu c #DFB922",
"mv c #DCB721",
"mw c #DBB520",
"mx c #DDB721",
"my c #E0BA21",
"mz c #D8B21E",
"mA c #D9B320",
"mB c #DCB620",
"mC c #DAB620",
"mD c #DFBA1F",
"mE c #E0B921",
"mF c #DBB61F",
"mG c #DBB420",
"mH c #D9B41F",
"mI c #D9B320",
"mJ c #D9B41F",
"mK c #D8B31F",
"mL c #D8B220",
"mM c #D8B21F",
"mN c #D8B31F",
"mO c #D9B41F",
"mP c #DBB420",
"mQ c None",
"aaaaaaaaaaaaaaaaaaaaaaaaaaaaaaaaaaaaabacaaaaaaaaadaeafagahaiajakakalamanaoapaqadaaaaaaaaacabaaaaaaaaaaaaaaaaaaaaaaaaaaaaaaaaaaaa",
"aaaaaaaaaaaaaaaaaaaaaaaaaaaaaaaaabaraaaaasatauavawaxayaxazaAaBaCaCaCaBaDaEaFaGaHaIaJaKasaaaaarabaaaaaaaaaaaaaaaaaaaaaaaaaaaaaaaa",
"aaaaaaaaaaaaaaaaaaaaaaaaaaaaaaaraaaaaLaMaNaOaPaQaAaRaSaTaUaVaWaWaCaCaXakaYaZa0a1a2a3a4a5a6a7aaaaaraaaaaaaaaaaaaaaaaaaaaaaaaaaaaa",
"aaaaaaaaaaaaaaaaaaaaaaaaaaasabaaa8a9a#aPa.a+a@a*a=a-a-a-a-a;a:a>aWaWaCaCa,a,a<a1a2a3a4a5a6a7a8a9aaabasaaaaaaaaaaaaaaaaaaaaaaaaaa",
"aaaaaaaaaaaaaaaaaaaaaaaaa0aaaababbbcbdbebfbgbhbhbhaAaAbibia-a-a;a:bjaWaWaCa,bka<blbmbnbobpbmbqbrbsaaaaa0aaaaaaaaaaaaaaaaaaaaaaaa",
"aaaaaaaaaaaaaaaaaaaaaaaraabtbubcbvbebwbxbxbxbxbxbxbxbhbhbhaAbia-a-a:a>aWaWaCa,a,a<bybmbnbzbAbBbCbDbEbFaabGbHaaaaaaaaaaaaaaaaaaaa",
"aaaaaaaaaaaaaaaaaaabasaabIbJbKbebwbxbLbLbLbLbLbLbLbLbLbLbxbhbhaAbia-a;a:aWaWaCa,bka<bMbmbnbNbObPbQbRbSbTaaasabaaaaaaaaaaaaaaaaaa",
"aaaaaaaaaaaaaaaaababaabUbVbWbXbLbLbLbYbWbWbZbZbZbZbWbWbYbLbLbxbhaAbia-a;a:aWaWaCa,a<blbmb0b1bNbOb2b3b2b4b5aaabb6aaaaaaaaaaaaaaaa",
"aaaaaaaaaaaaaaababacb7b8b9bwbLbLbYbWbZbZb#b#b#b#b#b#b#bZbWbWbLbLbhbhbia-a;a>aWaCaCa,a<bybmbnbNbOb.b+b@b*b=b-b;ababaaaaaaaaaaaaaa",
"aaaaaaaaaaaaabasacb:b>b,bhbLbLbWbZb#b#b#b#b<b1b1b<b#b#b#b#bZbWbLbLbhbhbia-a:bjaWaCa,bkblbMb0b1bNbOb2b2b3b4b5b6b;b7abaaaaaaaaaaaa",
"aaaaaaaaaaaba0aab8b>b9bhbLbLbWbZb#b#b<b1b1b1b1b1b1b1b1b<b#b#bZbWbYbLbhaAbia-a:aWaCaCa,a<bybmbnbNbOb.b2b3b0cacbccaaarabaaaaaaaaaa",
"aaaaaaaaaaacaacdb8b9bhbLbLbWbZb#b#b1b1cecfcfcfcfcfcfceb1b#bZbZcgbLbhbhchaAa-a;a>aWaCa,bkblbmbnbzbOcib+cjb0ckclcbcmaaacaaaaaaaaaa",
"aaaaaaaaaraacnbVcobgbxbLbWbZb#b<b1cecfcfcpcpcpcpcfcqcrcfcsctcucucvcwcxb#bha:a:a:aWaCcya,a<bMb0bnbNbOb2b2b3ckczcAcBcCaabGaaaaaaaa",
"aaaaaaasaacDcEcFcGbhbLbYbZb#b#b1cecfcpcpcHcHcHcecscIcJcpcKcLcMcNcNcOcPcQbhcRcSa-aCaWaCa,a<bybmbnbNbOb.b2b3cTcUcVcWcXcYaaasaaaaaa",
"aaaaaacZabc0c1aSbgbxbLbWb#b#b1cqcfcpcHcHc2cpc3c4cqc5c6c7c8c9c#c.c.c+c@c*c=c-c;c:cSaWc>a,bkblbmbnbNbOb.b2b3b0ckc,c<c1c2asc3bHaaaa",
"aaaaaraac4aPc5bibhbLbYbZb#b<b1cfcfcpcHc2c6c7c8c9c0c@dadbdcdddedfdgdhdidjc#dkdldmdna>doblbkblbmbnbzbOb.b+cjb0ckczdpdqdrdsaaaraaaa",
"aaababdtdudva*aAbhbLbWbZb#b1cecfcpcHc2c6c4dwdxdydzdAdBdCdDdEdFdGdHdIdJdKdcdzdLc+dMdNdOdPbya<bMb0b1bNcib+cjb0ckczdpdQdRdSdTababaa",
"aaa0aadUdVc5a-aAbhbLbWb#b#b1cecfcHc2c6c4dWdXdYdZd0d1dZd2d3d4d5d6d7d8d9d#d.d+dLd@dLd*d=d-dPd;bMb0bnbNbOb2cjb0ckczdpd:d>d,d<aaaraa",
"abbHd1d2d3a+a-aAbxbLbWb#b#b1cfcpcHcfd4d5d6d6dZd7dBdjd8d9d0eaebcJeccuedcIeeefc.d@egeheiejekelbnb0bnbNbOb2cjemckczdpd:eneoepeqbHab",
"eraaeseteua;biaAbxbLbZb#b<b1cfcpcpcvevewexeyd7ezdceAeBeCeDeEeFeGb#eHcga;eIeJeKd@eLeLeMejeNeOePbzbnbNbOb2cjemckczdpd:eQeReSeTaaac",
"aba0eUeVaTa;biaAbxbLbWb#b<b1cfcpcfcJeWeXdZd7ezdBd1eYeZe0ebbZcpcfb1b<b#bWbLbhe1e2d=e3c+e3e4e5e6e7bzbNbOb2cjemckczdpd:eQe8e9e#acab",
"aae.e+e@aWa;a-aAbxbLbWb#b#b1cfcqe*e=d6d0d7ezdBdze-e;e:e>cscHcpcfb1b#b#bWbge,e<e1d=c+c+ejeLe2e3e4e5bNbOb2cjemckczdpd:eQe6e7e8e9aa",
"aae0fafbaWa:a-aAbhbLbWb#b#b1cecrfcfdfedAezdBdBdLeAfffgebb<cHcfceb1b#b#bWbhfhfifjeLfkfkejflc@fmfna5b.bOb+cjb0ckczdpd:eQe6fofpfqaa",
"asfraFfsaWa:a-aAbhbLbWbZb#b1b1cHb#ftfud7dBdBd1dcfvfwfxfyb1cpcfceb1b#bZbWbhfzfAd=ejfkejfBe4fCfDfEaDfFcib+cjb0ckczdpd:fGe6e7e8fHas",
"fIfJaWfKaWa:a-bibhbxbLbZb#b#b#fLfMdjezdBdBd1d1dzfNfOfPfQcecfceb1b<b#bZbLbhbLfRfSfTfkfBe4fUfVd+fWfXfYb.b+cjb0ckc,dpfZfGe6f0f1f2f3",
"f4aEaYaCaWa>a;a-aAbhbLbWbZb#bZf5f6f7c*dBd1d1dzd6f8f9f#e,cecfb1b1b#bZbWbLbhaAdof.fjfke4fUfUf+f@f*f=f-b2b2b3cTckc,f;fZfGe6f1f:f>f,",
"f<f1f2aCaWaWa:a-bibhbLbLbZb#cgf3f4f5f6d1d1dzdzd7f7f8c2cfcecqb1b#b#bZbYbLbha-bdf9f0fkfUfUdkgadcgbgca2b3b2b3cTczdpd:eQgdgef0gfgggh",
"giaEaYa,aCaWa:a;biaAbhbLbWbZcge*gjf5d7d1dzdzgkf6glgmgncrb1b1b#b#bZbWbLbxaAa;gogpgqfBfUdkfTgrd@gsgta2gub2emckczdpd:eQgdgvgwgxgygz",
"gAePa1a,aCaWbja:a-bibhbxbLbWcggBgCc.d7dzdzgkdLf6gDgEfQbZb1b#b#bZbWbLbxbhbia:gogFgGgHdkfTfTgIeggJgKgLgucjb0ckczdpd:eQe6f1gwgMgNgO",
"gPgQa1a,cyaCaWa:a;a-aAbhbxbLbhcugRc.dBdzgkdcdLd7gSgTfQcgb#b#bZbWbLbLbhaAa-gUbdgVgGgHfTfTgrgIeggJgWgXcTb3cTckc,dpfZfGe6f1gwgMgYgZ",
"g0g1bya<a,aCaWaWa:a-biaAbhbxchcug2g3dBgkdcdcdLdBg4g5f5cgbZbZbWbLbLbhaAbia-g6g7g8gGfUfTgrgrg9c@g#g.gXg+emckczdpd:eQgde6f0gwg@g@g*",
"g=bmbMa<bka,aCaWbja:a-biaAbhche,g-g3g;dcdcdLc9g:g>g,g<bLbWbLbLbxbhaAbia-a:aWa-g1gGfUgrgrgrg2dzg3g4gLg5b0ckczdpd:eQgdf1gwg6g@g7g8",
"g9bnbmbla<a,aCaCaWa>a:a-biaAg0fhhac#fudcdLc9d@dcf7hbb1bLbLbxbhbhaAbia-a:bjbjc>fShcfTgrgagIgGhdhehfgXczcTcUc,f;fZfGe6f1gwg6g@hghh",
"hibmbnbmbla<a,aCaCaWa>a:a-a-a-bWhjd7c9dLc9d@d@eghkhlhmbWbhbhaAbia-a-a:a>hna-hoeMgIgrgagIgIhphqfwhrhsczckczdpd:eQgdgef0hthug7hvhw",
"hxg1g=bmbMblbka,aCaCaWbja:a;a-a;bvhyejdcd@d@c@d+hzhAhBhCa-bibia-a;a:bjaWc>elhDg2hEgagIgIhFf+hGhHhIhJcUcUc,dpd:fGe6f1gwg6g@hKhLhM",
"hNhsbAbnbmbMa<bka,aCaCaWaWa>a:g6hOhPhQgkd@egege3ezhRhShTgUa-a;a:a:aWaWaChUhVhWhXhYgIgIhFhZhzh0h1h2cUckczdpd:eQgde6f1gwg6h3h4gYh5",
"h6h7h8b1bnbmbya<bka,cyaCaWaWbja:a;g6e1c.d@egege3fuh9h#c1fRa:a:aWaWaWaCaCa<ePh.h+h@gIhFhchph*h=h-h;dpcUc,dpd:eQe6f1gwh:g@g7h>h,h<",
"h1h2h3bNbnbnbmbMbla<a,a,aCaCaWaWaCgoh4eKdLegeLeLeMeKh5dPaWbjaWaWaCaCa,bla>h6gagIgIhFh7h8h9h0iag+ibcUczdpd:eQgde6f1gwg6g@hvicidie",
"ifh;igbObNbnbnbmbMbla<bka,ihaCaCaWc>aziiijeheLe3c+c@ikilazhUaCaCiha,bliminioipgrhFh7iqirisitiuivdpczdpf;fZfGe6f1gwh:g@g7g8iwixiy",
"iziAhJiBbObNb1bnb0bmbla<a<bka,a,aCaCaCaAiCiDiEc+c+e3ijiFcSiGa<blbybliHhViIiJgrh7hch8iKiLiMiNiOiPczc,dpd:eQgdgef1gwg6g@hvhhhgiQf3",
"asiRiSiTcibObNbzbnb0bmbMbla<a<bka,a,a,aCiUiViWehfke4fkgIiXiYa>aDiUaWiZi0i1grhFi2i3i4i5iMi6bNb0czc,dpd:eQfGe6f1gwg6g@g7g8i7i8i9i#",
"aai.bDi+b2b.bObNbNb1bnb0bmbMbybla<a<bka<a,aWi@i*g3d@ejhYi2gHi=i-i;i:fUi>g2i,i<i1i2i3i4i5i6i7iPczdpd:i8fGe6f1gwh:huh3hghhi9i0jaaa",
"aajbjcjdb2b+b.bObObNbNbnbnb0bmbmbMbyblblbya<iUjejfjgjhd@d1d=hEe1h+jif0d+hzjjjkg3jljmjniScTczczdpf;fZeQgdgvf1gwg6g@g7g8jojpjqjraa",
"aba0jsjtjub2b2b2cibObObNbNbnbnbnb0bmbmbmbMbmbnaDjvjwjxjyhRjzjAjBjCfTgrjDjEjFjGjHjIemjJjKczczdpf;d:eQgde6f1gwg6g@g7hghhjLjMjNjOab",
"acaajPjQjRb3cjb2b+b.cibObObNbNbzbnbnbnbnbnb0b0jSbmjTjUjVjWjXjYjZj0hcf+j1j2j3j4j5j6jJj7ckczdpf;d:eQgde6f1gwh:g@h3hghhj8j9j#j.aaac",
"abbHj+j@j*j=emb3b2b2b2b.b.bObObObNbNbNbNbzb1b1b1bzj-bOj;gLaGgLaGj:j>hch7dkgki=j,j<j1j2cUc,d:fZeQgde6f1gwh:g6h3hvg8joj3j4j5eqbHab",
"aaaraaj6b4j7cTb0emb3b2b2b+b2b.cibObObObObObNjvjvbObObOb.fFj8b3guj9j0kahFj>kbkckdkehXkfkgkhe6eQgde6f1gwhtg6g@g7g8jokikjj#kkaaklaa",
"aaababkmknkokpckcTb0emb3cjb2b2b+b2b.b.b.b.cicicicib.b.b.b.b2b+b2b3kqiXkrhcj>j>ksj>fVktkukvgegde6f1gwh:g6g@g7g8hhkijpkwkxkyababaa",
"aaaaaraakzkAkBczcUckckb0b0b3b3cjb2b2b2b+b+b+b+b+b+b+b2b2b2b2cjcjemb0kCkDkEf0jCi2kFkGgJkHkIkJgef1gwgwg6g@g7g8hhkikKkLkMkNaac3aaaa",
"aaaabHc3b7kOkPkQc,czczckckcTb0b0b3b3b3cjcjcjcjcjcjcjcjb3b3b3b0b0cTckcUkRkSkTkUkVe4dzkWkXkYkZf1gwh:g6g@g7hghhkikKk0i8k1asi#bHaaaa",
"aaaaaaasaak2k3cWk4dpdpczczcUckckckcTb0b0b0b0b0b0b0b0b0cTcTckckckcUczdpdpk5k6k7k8k9k#k.k+k@k*gwg6hug@g7g8hhj8kKk=k-k;k:aaasaaaaaa",
"aaaaaaaac3aak>k,k<d:f;dpdpk1c,czczcUcUckckckckckckckckckcUczczc,dpdpdpd:k2k3k5k4k5k6k7k8fGh:g6g@h3hvg8hhkikKk9k0lalbaac3aaaaaaaa",
"aaaaaaaaaaacaalcldlefZd:d:d:dpdpdpdpc,c,czczczczczczc,c,dpdpdpdpf;d:d:i8eQe6kJfGlflgk@lhh:g6g@h3hvg8hhkikKliljlkllaalmaaaaaaaaaa",
"aaaaaaaaaalnaraalolplqeQeQi8d:d:d:d:f;dpdpdpdpdpdpdpdpf;d:d:d:d:fZeQeQfGgde6e6f1kZk*lrg@hug@g7hgg8jokikKliljlsltaac3lnaaaaaaaaaa",
"aaaaaaaaaaaaabb7lulvk,lwgdfGfGeQeQeQfZfZfZd:d:d:d:fZfZfZeQeQeQfGfGgde6e6gvf1f1gwgwg6g6g@h3hvhghhjokikKk9ljlxlyb;b7abaaaaaaaaaaaa",
"aaaaaaaaaaaaaaabablulzlAeRlBe6e6gdgdfGfGfGfGfGfGfGfGfGfGfGgdgde6e6gvf1f1gwgwgwg6g6g@g@g7hgg8hhj8kKkKk=lClslDlEabb6aaaaaaaaaaaaaa",
"aaaaaaaaaaaaaaaab6abaalFlGlHlIgvgvgee6e6e6e6e6e6e6e6e6e6gegvf1f1f1gwgwgwh:g6g6g@g@g7hgg8hhjokikKkKlJlKlLlMaaabb6aaaaaaaaaaaaaaaa",
"aaaaaaaaaaaaaaaaaaabb7aalNlOlPlQlRf1f1f1f1f1f1f1f1f1f1f1f0gwgwgwgwh:g6g6g@g@h3g7hgg8hhjokikKkKk=lSlTlUlVaab6abaaaaaaaaaaaaaaaaaa",
"aaaaaaaaaaaaaaaaaaaabHc3aalWlXlYlHlZlRgwgwgwgwgwgwgwgwgwh:g6g6g6hug@g@h3g7hvhgg8hhjoj8l0kKl1lCl2lal3l4aac3bHaaaaaaaaaaaaaaaaaaaa",
"aaaaaaaaaaaaaaaaaaaaaaaalmaabHl5l6l7l8l9l#g6g6g6g6g6g6hug@g@g@g@h3g7hvhgg8g8hhjokil0kKl.lCkilal+l@bHaaklaaaaaaaaaaaaaaaaaaaaaaaa",
"aaaaaaaaaaaaaaaaaaaaaaaaaab7abaal*l=l-l;l:l>l,l<l1h3h3g7g7g7hvhghgg8hhhhjoj8kij3l2kjl3l4lal5l6l7aaabb7aaaaaaaaaaaaaaaaaaaaaaaaaa",
"aaaaaaaaaaaaaaaaaaaaaaaaaaaaaabGaaaal8l9l0mal;mbmcmdmeh>mfh4hhhhhhj8mgj3l2mhl.kimimjmkmlmmmnaaaac3aaaaaaaaaaaaaaaaaaaaaaaaaaaaaa",
"aaaaaaaaaaaaaaaaaaaaaaaaaaaaaaaaabbGaaaac3mompmqmrh,msmtmumvhhkikikimwmxmyi8mimzmAmBmCc3aaaac3abaaaaaaaaaaaaaaaaaaaaaaaaaaaaaaaa",
"aaaaaaaaaaaaaaaaaaaaaaaaaaaaaaaaaaaaaba0aaaaaaaamDmEmFmGmHmImJkKk9mKmLmMmNmOmPmDmQaaaaaalmabaaaaaaaaaaaaaaaaaaaaaaaaaaaaaaaaaaaa"
};
